SII-Hqs/linker_mujoco/src/linker_hand_mujoco_ros2/retargeting_data/linker_l20a_052001/l20a_dynamics_torque.csv
frame_idx,timestamp,fsr_force_g,contact_point_count,qpos_index_joint0,qpos_index_joint1,qpos_index_joint2,qpos_index_joint3,qvel_index_joint0,qvel_index_joint1,qvel_index_joint2,qvel_index_joint3,qacc_index_joint0,qacc_index_joint1,qacc_index_joint2,qacc_index_joint3,tau_motion_no_contact_index_joint0,tau_motion_no_contact_index_joint1,tau_motion_no_contact_index_joint2,tau_motion_no_contact_index_joint3,tau_contact_fsr_index_joint0,tau_contact_fsr_index_joint1,tau_contact_fsr_index_joint2,tau_contact_fsr_index_joint3,tau_required_with_fsr_index_joint0,tau_required_with_fsr_index_joint1,tau_required_with_fsr_index_joint2,tau_required_with_fsr_index_joint3
0,597757.906145,55.0,120,0.0,0.5395378842353822,0.48793718194961555,0.5238869578838349,0.0,-0.2243252466280108,0.0534907182895763,-0.09689000801496483,0.0,-3.7689268996704577,3.415600580666747,-0.7941485946327518,-1.0182636676541916e-07,-0.22120119888917053,0.07622793314302766,-0.08570458751522425,4.032139931854223e-20,-0.03309612046228218,-0.01137205878194772,-0.006698445332200072,-1.0182636676545948e-07,-0.18810507842688834,0.08759999192497538,-0.07900614218302418
1,597757.938698,55.0,120,0.0,0.530223905992508,0.49155690412521363,0.5203164602279663,0.0,-0.3479094620210006,0.16889874951151818,-0.12247519045982358,0.0,-3.823873474662556,3.674869184234165,-0.7777607485382798,-8.982685238038967e-08,-0.3206426574424726,0.1711375091098642,-0.10601155918305893,4.032139931854336e-20,-0.03341096198075901,-0.011586858032431245,-0.006819279014034439,-8.982685238042999e-08,-0.2872316954617136,0.18272436714229545,-0.0991922801690245
2,597757.971111,54.0,120,0.0,0.516952862701416,0.4988937357330323,0.5159338088798523,0.0,-0.4727393349347926,0.2921960502821692,-0.14742030219654634,0.0,-3.1824388835169524,3.6195714391201634,-0.5051151493380652,-4.364338521761576e-08,-0.41410185624550067,0.2692203984434542,-0.12324205650860381,3.958828296729675e-20,-0.03316764613091688,-0.011603603548743527,-0.006826724521205059,-4.364338521765534e-08,-0.3809342101145838,0.2808240019921977,-0.11641533198739876
3,597758.003355,54.0,120,0.0,0.4996793396167755,0.5104272277565003,0.510788821138382,0.0,-0.5539018745694735,0.4029915362172014,-0.15522358420137916,0.0,-1.8115984885779168,3.6327842310992784,0.16997772947826806,5.0695046266259294e-08,-0.4653102516438613,0.3579985838073825,-0.12273166555930898,3.958828296729614e-20,-0.03357049962666069,-0.011834168454249854,-0.006964606963911119,5.069504626621971e-08,-0.4317397520172006,0.3698327522616323,-0.11576705859539786
4,597758.036865,53.0,120,0.0,0.48048463995399476,0.5255089856315612,0.5057384434997558,0.0,-0.5900376902269961,0.5315737752838601,-0.1351799620260543,0.0,-0.4485069318935402,3.9010692926374393,0.7901215680618952,1.4940430857468857e-07,-0.48057121265591624,0.46356114357633316,-0.10049226212274193,3.885516661604981e-20,-0.033307640785468336,-0.01179339770724775,-0.006948929402670802,1.4940430857464971e-07,-0.4472635718704479,0.4753545412835809,-0.09354333272007112
5,597758.068371,52.0,120,0.0,0.46138445206596373,0.5446711188259888,0.501939567618332,0.0,-0.585510964169047,0.656374852778721,-0.10459950012166352,0.0,0.6544005693874553,2.9382260764890518,0.841598700313529,1.7586981294322212e-07,-0.465924315750186,0.5537804490991102,-0.07551218890332961,3.8122050264803475e-20,-0.032891843000882895,-0.01161508801059611,-0.006862985912642962,1.75869812943184e-07,-0.4330324727493031,0.5653955371097062,-0.06864920299068665
6,597758.100725,51.0,120,0.0,0.443129538838974,0.5675078778031005,0.49908618068119814,0.0,-0.5473698278051842,0.7174506066185984,-0.08165723989814389,0.0,1.0877516918694976,1.3168714067080298,0.5402298399353198,1.3249674972112668e-07,-0.4311054195064119,0.586427125834095,-0.06017345219636082,3.738893391355746e-20,-0.032319831746465535,-0.011301468245965018,-0.006710526897762735,1.3249674972108927e-07,-0.3987855877599464,0.59772859408006,-0.053462925298598085
7,597758.133022,51.0,120,0.0,0.42599452562722473,0.5910536955644714,0.496659601016211,0.0,-0.5151763513077405,0.7415769271807306,-0.06965386635389326,0.0,0.6943352334740469,0.17315070612266403,0.09210826352610768,5.972630851408643e-08,-0.40932886636443633,0.5942860539706318,-0.05505476560110369,3.7388933913557384e-20,-0.032309918544951674,-0.011156399768881874,-0.0066632461422596444,5.972630851404904e-08,-0.37701894781948464,0.6054424537395137,-0.04839151945884405
8,597758.165105,50.0,120,0.0,0.4099559293396704,0.6152452525178613,0.49459952734579044,0.0,-0.5025395017967291,0.7288428488418219,-0.075608059918582,0.0,-0.5068709927156512,-0.34932985516360127,-0.5531585767456373,-3.430099987832219e-08,-0.4112892141766173,0.5788660934566409,-0.06627464568253988,3.665581756231133e-20,-0.03160162988615686,-0.010744375662507804,-0.006461507465490419,-3.4300999878358846e-08,-0.37968758429046046,0.5896104691191487,-0.059813138217049464
9,597758.198937,48.0,120,0.0,0.39286018381177845,0.6390048644288397,0.4916349412812344,0.0,-0.5518234628011527,0.7187218233575123,-0.10743612528623103,0.0,-1.7490979465702985,-0.4563937824956117,-0.9662795461657698,-1.0788778979212338e-07,-0.46319321076889636,0.5696917854370773,-0.09587195062059106,3.518958485981875e-20,-0.03031553893546901,-0.010176977700227512,-0.006161500903226047,-1.0788778979215857e-07,-0.43287767183342735,0.5798687631373048,-0.08971044971736501
10,597758.230272,50.0,120,0.0,0.37421895201730304,0.6620031278406793,0.4876935149680418,0.0,-0.6151167452141824,0.6998573057698501,-0.13845489632499497,0.0,-1.7058116578582094,-0.5532694198977186,-0.8122424884999719,-1.0317837451378651e-07,-0.5134081007977103,0.5536387968772092,-0.11914624390248216,3.6655817562311317e-20,-0.03163259381708241,-0.010530614971122159,-0.006413362500691646,-1.0317837451382318e-07,-0.4817755069806279,0.5641694118483314,-0.11273288140179051
11,597758.262659,50.0,120,0.0,0.3536204672712292,0.6835282406071993,0.48278521024790144,0.0,-0.6598492775871101,0.6835706974955809,-0.1588137577213784,0.0,-1.0692263639319695,-0.1564025459064382,-0.4632474682891474,-4.60488460691285e-08,-0.5428219111231765,0.5445909207229278,-0.1319412872396545,3.665581756231117e-20,-0.03179406747190943,-0.010563255169942318,-0.006459950604279681,-4.604884606916515e-08,-0.5110278436512671,0.5551541758928701,-0.12548133663537483
12,597758.294964,51.0,120,0.0,0.331535887071149,0.7062215797790029,0.47742072481796527,0.0,-0.6843382341458479,0.6896825627062402,-0.16845038705177018,0.0,-0.11517565209585001,0.3384925320232668,-0.11651644123626514,2.9057484168904887e-08,-0.5528557717163135,0.5544458596095069,-0.13618018715084326,3.7388933913557366e-20,-0.0326079044322151,-0.010821792721154919,-0.0066457705226739,2.9057484168867498e-08,-0.5202478672840984,0.5652676523306618,-0.12953441662816936
13,597758.328016,51.0,120,0.0,0.3088930989095819,0.7285844963938505,0.4717721818994315,0.0,-0.6664052468838593,0.7059191869600401,-0.16615419592716307,0.0,1.751122424581185,1.1291254815361391,0.42227199516354563,1.5886634463188157e-07,-0.519796794481375,0.5753697904247667,-0.1289488492913538,3.73889339135573e-20,-0.03280552887343583,-0.010896462905424778,-0.006716142643527971,1.5886634463184417e-07,-0.4869912656079391,0.5862662533301914,-0.12223270664782583
14,597758.359612,50.0,120,0.0,0.2884009786279401,0.7517743406415391,0.4666656767615343,0.0,-0.5745734637536604,0.7608616715848981,-0.14215607212913817,0.0,3.864107320655666,1.618526391285359,0.9739090653345444,2.8138106341179633e-07,-0.4251409354198951,0.6242510206503187,-0.10422628682307913,3.665581756231174e-20,-0.03224922164333054,-0.010670142473901932,-0.0066124199269338765,2.813810634117597e-07,-0.39289171377656457,0.6349211631242206,-0.09761386689614526
15,597758.391956,51.0,120,0.0,0.27226687612783124,0.7772747300243703,0.46271218341896253,0.0,-0.41788459120881516,0.8092255443293759,-0.10355794356946735,0.0,4.392512945111911,1.5836985319137185,0.970571393979502,2.9762557890638073e-07,-0.2944903904492273,0.6626135217198635,-0.07337802717030183,3.7388933913557396e-20,-0.03275941915428129,-0.010675270746854693,-0.006680513429095664,2.9762557890634336e-07,-0.26173097129494605,0.6732887924667182,-0.06669751374120617
16,597758.425944,50.0,120,0.0,0.2609547646256384,0.8055220645408889,0.4598594342256333,0.0,-0.28473302665574174,0.8662096153856176,-0.07852728562652889,0.0,3.3114271914900604,1.2469266989086663,0.3919310328394907,2.2327670799154915e-07,-0.19880383342772026,0.7048438740833359,-0.05914041556817991,3.665581756231161e-20,-0.03174336061923667,-0.010045080510362705,-0.006384989422792431,2.2327670799151249e-07,-0.1670604728084836,0.7148889545936986,-0.052755426145387474
17,597758.457217,51.0,120,0.0,0.2534341962267635,0.833621390798971,0.45755922830778323,0.0,-0.1986174611554561,0.8928411350958516,-0.07618408279503264,0.0,2.211053483405625,1.09351259643433,-0.1179209840186144,1.585562547504128e-07,-0.14092547251137655,0.7246347970011522,-0.06236293575535341,3.738893391355729e-20,-0.03186973508822528,-0.009707080053197236,-0.006292938147936011,1.585562547503754e-07,-0.10905573742315128,0.7343418770543494,-0.056069997607417404
18,597758.490724,51.0,120,0.0,0.2482820535603903,0.8633340471103073,0.45491205125393835,0.0,-0.14401199358791494,0.9381669168967335,-0.08705862939290387,0.0,0.8146542800759637,0.6926836969221402,-0.4635782544005407,7.178994712631795e-08,-0.11121671151186384,0.756909899603011,-0.07451764521400549,3.7388933913557973e-20,-0.031240845813210034,-0.009058081566977337,-0.0060267237731773254,7.178994712628056e-08,-0.07997586569865381,0.7659679811699883,-0.06849092144082816
19,597758.521648,52.0,120,0.0,0.24410692651301558,0.893813089777174,0.45198996161891913,0.0,-0.142080368146281,0.9407497886929992,-0.10536233425696828,0.0,-0.316443848328388,-1.3487964205779104,-0.7191104639101056,-6.945177236465562e-08,-0.1209975189850685,0.7385789691083405,-0.09171589804107234,3.689397574705755e-20,-0.03129816978414217,-0.008664274376178996,-0.0059935335106481155,-6.945177236469252e-08,-0.08969934920092633,0.7472432434845195,-0.08572236453042423
20,597758.554277,53.0,120,0.0,0.23922765413308095,0.9229643235597154,0.448177871270767,0.0,-0.1654506434163947,0.8474280019968337,-0.13320602674833548,0.0,-1.1560752452589522,-2.4254820963090857,-1.1267726384367343,-1.6091895102430436e-07,-0.1480867738614044,0.6531795047776128,-0.11806540231266036,3.7603475280654705e-20,-0.031258599983178155,-0.008170680488591812,-0.005845317091109915,-1.6091895102434197e-07,-0.11682817387822625,0.6613501852662046,-0.11222008522155044
21,597758.587347,52.0,120,0.0,0.23322285480804406,0.949447427590143,0.4432239188065459,0.0,-0.21842390978397574,0.7817839525112991,-0.17963296552195906,0.0,-1.9543288843558013,-2.239387456609526,-1.3573812474151445,-1.9568272191961627e-07,-0.19843570568040797,0.6025538121514045,-0.15750980348154575,3.6893975747057675e-20,-0.030163501242926855,-0.007489295083113033,-0.005537274058357152,-1.9568272191965317e-07,-0.16827220443748112,0.6100431072345175,-0.1519725294231886
22,597758.619211,53.0,120,0.0,0.22513176673656432,0.9737737595235914,0.4365842245666448,0.0,-0.29151836460610303,0.702618004157749,-0.22145637555954778,0.0,-2.3194660867845367,-2.9811787163410646,-1.0602052696725708,-2.404994008178793e-07,-0.26055492868053315,0.531822494488526,-0.18799556886579294,3.7603475280655505e-20,-0.030380247044931936,-0.0072412294308833785,-0.005518495125753758,-2.404994008179169e-07,-0.2301746816356012,0.5390637239194094,-0.1824770737400392
23,597758.651735,52.0,120,0.0,0.21440243412260793,0.9946064757661509,0.4289473408578447,0.0,-0.3678037207534701,0.5891694051128695,-0.24756090440439582,0.0,-2.2122146510174296,-3.4355857722690155,-0.6758999983236866,-2.4768907205414863e-07,-0.3204987748935195,0.43653484274718896,-0.20503531694924085,3.6893975747057374e-20,-0.029647354927207898,-0.0069097851113689,-0.005382700217931965,-2.4768907205418553e-07,-0.29085141996631164,0.44344462785855787,-0.19965261673130888
24,597758.683822,53.0,120,0.0,0.20140051475528545,1.01188517470014,0.4206001384352534,0.0,-0.4345674825816661,0.4805957390824265,-0.2652369626410884,0.0,-2.1843136351824617,-3.1899969354930633,-0.45195142773116137,-2.2988383912984366e-07,-0.37362680811752647,0.35214021137183305,-0.21693722217186423,3.760347528065482e-20,-0.030240138531668438,-0.007025484640555716,-0.005539469196491267,-2.2988383912988127e-07,-0.343386669585858,0.35916569601238874,-0.21139775297537297
25,597758.716624,52.0,120,0.0,0.1861613333730989,1.0257081338473313,0.4117290137843203,0.0,-0.5096914512263062,0.3824538151900576,-0.27674453788529263,0.0,-2.0441620649251675,-2.616552730072905,-0.11899387263576244,-1.9038650184326417e-07,-0.43232535853357695,0.27936276065707044,-0.2228153937582766,3.6893975747058115e-20,-0.029865002572907022,-0.007047467723829712,-0.005566602889128945,-1.9038650184330106e-07,-0.4024603559606699,0.28641022838090013,-0.21724879086914767
26,597758.748741,53.0,120,0.0,0.16837301168911403,1.0367665011650842,0.4026427005637417,0.0,-0.567606026170314,0.3102228291835196,-0.27327621048834416,0.0,-0.7451103573462019,-2.1363140648138463,0.4928164030976645,-9.93698829431679e-08,-0.4656454677749206,0.2263836934880291,-0.2139226428691918,3.7603475280654735e-20,-0.030797085126689588,-0.00749893190891473,-0.005878777417710599,-9.93698829432055e-08,-0.434848382648231,0.23388262539694382,-0.2080438654514812
27,597758.780768,53.0,120,0.0,0.14975528320926623,1.0456131950192866,0.3941982523527725,0.0,-0.5576760057622485,0.24540183148739558,-0.24520249402295224,0.0,0.6764796712969519,-1.7733698481952431,0.9678351255769875,-1.592822803838781e-08,-0.44346804103073406,0.17815356585115638,-0.18671434114690386,3.760347528065474e-20,-0.031228126221772682,-0.007894099183547679,-0.006113192513910963,-1.5928228038425413e-08,-0.4122399148089614,0.18604766503470405,-0.1806011486329929
28,597758.813876,52.0,120,0.0,0.13210075180735745,1.052682982696948,0.38671202905392515,0.0,-0.5227379354569961,0.1952652777397006,-0.21003561129222792,0.0,1.2148924377246972,-1.3251098905732714,1.0933596279508744,2.4526466862911348e-08,-0.41014083568604787,0.1425136743561918,-0.15732920161926672,3.812205026480353e-20,-0.030920725565050638,-0.008000917026013174,-0.0060829474757317864,2.4526466862873225e-08,-0.3792201101209972,0.15051459138220497,-0.15124625414353493
29,597758.845704,52.0,120,0.0,0.11578440546795969,1.058338812839077,0.38051901179485215,0.0,-0.4791864702920636,0.1588794473034305,-0.17428235294174588,0.0,1.924428900471855,-1.0876859526819604,1.2211489280514254,6.206571457375685e-08,-0.36820729004585545,0.11576642414101326,-0.12745170907776707,3.812205026480382e-20,-0.031319664569245384,-0.008382135817335119,-0.006292496883711252,6.206571457371874e-08,-0.33688762547661005,0.12414855995834838,-0.12115921219405582
30,597758.878085,52.0,120,0.0,0.10136999019825654,1.06286347695278,0.3755441750521079,0.0,-0.3985519007749674,0.12548798449207155,-0.13151772908735904,0.0,2.612592469419159,-0.9014338981959757,1.3415205708426259,9.366664717377691e-08,-0.29681910609322076,0.09090395398247192,-0.09203877209586867,3.8122050264804125e-20,-0.03167262308817799,-0.008724519742448148,-0.006475835202416882,9.36666471737388e-08,-0.2651464830050428,0.09962847372492006,-0.08556293689345178
31,597758.910647,53.0,120,0.0,0.08991816518778957,1.0664832082437428,0.3719858845420373,0.0,-0.3094724410267047,0.10038473425639083,-0.08715241363719795,0.0,2.666357140101414,-0.7155694484568749,1.406708005725184,9.841085458578993e-08,-0.2250314612561652,0.07266602539375056,-0.05589792120223683,3.8855166616049897e-20,-0.03255723408885753,-0.009162722321268406,-0.0067425752762511025,9.841085458575107e-08,-0.19247422716730767,0.08182874771501897,-0.04915534592598572
32,597758.942931,53.0,120,0.0,0.08127856589814311,1.0693789932765125,0.36988044066013437,0.0,-0.2256109223553091,0.07905551506941677,-0.040322823355371185,0.0,2.340951543081281,-0.550805625599604,1.4294434371213582,8.798986825345095e-08,-0.1612156929364243,0.05723675809841876,-0.018210203879442652,3.885516661605043e-20,-0.032750475057522495,-0.009354147034345799,-0.006840062385704911,8.79898682534121e-08,-0.1284652178789018,0.06659090513276456,-0.011370141493737742
33,597758.977238,53.0,120,0.0,0.07506977066366105,1.0717031887084294,0.3694046221795204,0.0,-0.15465714825829813,0.0641644944050519,0.00794757723550088,0.0,1.9068013428171475,-0.3881401141592823,1.2543040085542074,7.312509635622467e-08,-0.10881282705728958,0.0469396872717704,0.01865209950034465,3.885516661604988e-20,-0.03286816029669279,-0.009471605484348642,-0.00689403670920817,7.312509635618582e-08,-0.07594466676059679,0.056411292756119044,0.02554613620955282
34,597759.007729,52.0,120,0.0,0.07106738692496799,1.0735625450539628,0.37023818076630616,0.0,-0.10089071364899804,0.05357390037185006,0.04205422546593862,0.0,1.7024255137578979,-0.36544597200384277,0.9985171371050103,6.248195320817933e-08,-0.06785352629133581,0.038688046610698267,0.04337832155683416,3.812205026480439e-20,-0.03229790410258064,-0.009343119359890377,-0.006779838577298759,6.248195320814121e-08,-0.03555562218875517,0.048031165970588645,0.05015816013413292
35,597759.040306,53.0,120,0.0,0.06883784894923037,1.0750500301303894,0.3721203949529345,0.0,-0.047551465869835496,0.04103840458694208,0.07040401586454514,0.0,1.2809275629558603,-0.3211794713590579,0.6946434006123265,4.428275257809104e-08,-0.029410129796401476,0.029097058472463466,0.06301833156391021,3.8855166616049915e-20,-0.032916698410782326,-0.009520822924057641,-0.006896129802121131,4.428275257805218e-08,0.00350656861438085,0.03861788139652111,0.06991446136603134
36,597759.072681,53.0,120,0.0,0.06797041169627242,1.0762299330856349,0.3748059770646425,0.0,-0.01754836688715322,0.0326870299645492,0.087243424562363,0.0,0.4516655207761878,-0.23231453115321987,0.27262933926647337,1.1093539666223084e-08,-0.0137222008645464,0.023297640186814315,0.07226799447973298,3.88551666160499e-20,-0.0328743360462312,-0.009478627156194424,-0.006859036741024432,1.1093539666184228e-08,0.019152135181684803,0.03277626734300874,0.07912703122075741
37,597759.105348,58.0,120,0.0,0.06770189153610653,1.0771738554498311,0.3777973990585591,0.0,-0.01845292982121971,0.02594324591054331,0.08799117748380514,0.0,-0.39253973097536143,-0.17831553544553147,-0.1451977042718018,-2.400762672900137e-08,-0.022909741287982042,0.01843601745573402,0.06868632493034982,4.252074837228161e-20,-0.03591381798822438,-0.010311027091005585,-0.007456376615444552,-2.400762672904389e-08,0.013004076700242336,0.028747044546739604,0.07614270154579438
38,597759.138219,53.0,120,0.0,0.06675685547756344,1.0779289933411882,0.38057127681940284,0.0,-0.04342395910933505,0.021012097128920715,0.07765866342685346,0.0,-1.141255339127393,-0.13857654850686763,-0.4573324101120406,-5.489456414588833e-08,-0.050394343814310086,0.014881331122084989,0.05729736510454062,3.8855166616050444e-20,-0.032788609068893325,-0.009393162791591246,-0.006781501384999385,-5.489456414592719e-08,-0.01760573474541676,0.024274493913676233,0.06407886648954
39,597759.169801,59.0,120,0.0,0.06494017523898435,1.0785331036542738,0.38281973789190843,0.0,-0.09104581482796337,0.016982661028084323,0.058876150231593094,0.0,-1.756932857696401,-0.11692258375810127,-0.5653459806047102,-7.9002030692816e-08,-0.09466711860031535,0.011866764017567177,0.041189643174234264,4.325386472352719e-20,-0.03650772894149537,-0.010464250895189863,-0.007534886049995478,-7.900203069285925e-08,-0.05815938965881998,0.02233101491275704,0.04872452922422974
40,597759.202549,52.0,120,0.0,0.06082025906032822,1.0790163919047422,0.3843295231664625,0.0,-0.15703896334038903,0.013515794565467587,0.041359726133912034,0.0,-1.8094928448822216,-0.09201434735087521,-0.40389345840335356,-7.727714555560927e-08,-0.14799399125015972,0.00933638318568377,0.028790356261486228,3.812205026480408e-20,-0.03225917720213984,-0.009306902038236984,-0.006666844244212052,-7.727714555564739e-08,-0.11573481404801989,0.018643285223920752,0.03545720050569828
41,597759.234824,52.0,120,0.0,0.054758363119020576,1.079413107611013,0.3855135262174962,0.0,-0.20889764388210375,0.0109866040441986,0.03249076251087235,0.0,-0.8433187948020859,-0.07502079858591415,-0.027578332216677937,-3.368521652903989e-08,-0.17980099211314493,0.007483706562560976,0.025460158830190954,3.812205026480443e-20,-0.032401752333614524,-0.00945209635165477,-0.006721374133471223,-3.368521652907801e-08,-0.1473992397795304,0.016935802914215745,0.03218153296366218
42,597759.267686,49.0,120,0.0,0.04718832326655946,1.0797304801760297,0.38644090534556375,0.0,-0.21106577082767508,0.008633125144426046,0.03985622628416419,0.0,0.3722898306507605,-0.05948009729853013,0.48171293014598393,1.879503310141167e-08,-0.16935668769988746,0.005756698188526856,0.03644750829609578,3.592270121106478e-20,-0.030709788475255552,-0.009088349021832247,-0.006405915490188049,1.8795033101375746e-08,-0.13864689922463191,0.014845047210359102,0.04285342378628383
43,597759.301137,48.0,120,0.0,0.04078488913978427,1.079984378228043,0.38817034197893513,0.0,-0.1836890835795375,0.007056725795202112,0.06474074026460386,0.0,1.164749986015606,-0.04441567979692311,0.739054722383572,5.111539534712208e-08,-0.13951807003838945,0.004644074783788673,0.058929733883056556,3.518958485981955e-20,-0.03021862103425785,-0.009042861548707285,-0.006324534546732016,5.1115395347086886e-08,-0.1092994490041316,0.013686936332495958,0.06525426842978857
44,597759.332085,47.0,120,0.0,0.03532164181142282,1.0801874966696536,0.3905473075949889,0.0,-0.13772594085265538,0.005759741328152046,0.08747400474925726,0.0,2.247467257700892,-0.04167987233843316,0.8620008636252292,9.211096466281662e-08,-0.09189840793357368,0.0036360140081438475,0.07834826115165401,3.4456468508573134e-20,-0.02969198578298792,-0.008961757643030343,-0.00622422918417537,9.211096466278217e-08,-0.062206422150585756,0.012597771651174192,0.08457249033582938
45,597759.36445,46.0,120,0.0,0.032177534638175215,1.0803467155516653,0.3937395113820824,0.0,-0.039185390765300254,0.0044185108204608525,0.11968602713568721,0.0,3.54057643018053,-0.03477273512091329,1.2832440391160576,1.435492070483874e-07,-0.00010200588072774124,0.0026413099380283955,0.10833462878299224,3.3723352157326585e-20,-0.029097377150231637,-0.008810953496946782,-0.006089586741696884,1.435492070483537e-07,0.028995371269503897,0.011452263434975178,0.11442421552468912
46,597759.396986,54.0,120,0.0,0.03279834541713256,1.0804740906572747,0.39832227016409183,0.0,0.09223106018103905,0.0035052425383774732,0.1708565722968549,0.0,3.8827864073785006,-0.02449781315374229,1.5679271627508728,1.604962027514854e-07,0.10846629006949839,0.0020203834697527885,0.1521208912256094,3.958828296729691e-20,-0.03407918478770454,-0.010264034665658343,-0.007081767199190485,1.604962027514458e-07,0.14254547485720293,0.012284418135411132,0.1592026584247999
47,597759.429963,50.0,120,0.0,0.03828482391862121,1.080575990741762,0.4049594814373648,0.0,0.21504878423694707,0.002816757137729553,0.22240136904254637,0.0,2.9609933526372236,-0.018834931834094876,1.2938374137623523,1.276370865068434e-07,0.19748796230128682,0.0015292055988557667,0.19061683919215328,3.665581756231131e-20,-0.031331385378049935,-0.009275348156875628,-0.006414478745912757,1.2763708650680675e-07,0.22881934767933676,0.010804553755731396,0.19703131793806603
48,597759.461906,50.0,120,0.0,0.04666022886775372,1.0806575108093521,0.41271754819501205,0.0,0.2860126109907073,0.0022783204559644332,0.2554005066169891,0.0,1.8941213766085347,-0.014734838245259833,0.9617775611944697,8.789230856814183e-08,0.24357712422487965,0.0011464613289200996,0.21369744300179344,3.665581756231206e-20,-0.031017116590661593,-0.008954769278036737,-0.006223720668986398,8.789230856810517e-08,0.27459424081554124,0.010101230606956836,0.21992116367077985
49,597759.494535,46.0,120,0.0,0.056786254087626435,1.080722726863424,0.42146857633867874,0.0,0.3369018967620293,0.0018682408840646758,0.2844064155987782,0.0,0.9421761337726977,-0.016737046710984912,0.5391388676202888,5.010483598474688e-08,0.2747625635823695,0.0008098343579492273,0.23267894006138942,3.3723352157326874e-20,-0.028189779751856017,-0.00788730285773518,-0.005518904586317002,5.010483598471316e-08,0.3029523433342255,0.008697137215684408,0.23819784464770644
50,597759.526386,46.0,120,0.0,0.06834282282156905,1.0807781755779584,0.43103115403397096,0.0,0.34771343761967355,0.0012055254628116074,0.2907020145752055,0.0,-0.5813794331002402,-0.019766088307692116,-0.29916018828688706,-1.7763936804335723e-08,0.26815624334888155,0.0002571146030024157,0.22933439291067695,3.263697854547454e-20,-0.02791986631664127,-0.007614092764937874,-0.005410258365996892,-1.776393680436836e-08,0.29607610966552284,0.00787120736794029,0.23474465127667385
51,597759.559121,49.0,120,0.0,0.07921657326351134,1.080799627292506,0.44022678012643823,0.0,0.29770232177738354,0.0005934937047662459,0.2641942921591802,0.0,-1.8551468833762303,-0.017750123152732566,-1.0200667758867996,-7.940674127075743e-08,0.21539622573360193,-0.00020354247978585994,0.20092167907553354,3.476547714626639e-20,-0.029338547727709493,-0.007707818197151403,-0.005525018919020436,-7.94067412707922e-08,0.24473477346131142,0.007504275717365543,0.20644669799455398
52,597759.59134,42.0,120,0.0,0.08771507491692326,1.080816788664144,0.44820874591664134,0.0,0.22754943060248678,5.1614941920519186e-05,0.2246599160099274,0.0,-2.4223581836830737,-0.015143222322513573,-1.4857463759740939,-1.1105533355221499e-07,0.1536040666453082,-0.0005994050976560982,0.16464106756382957,2.979898041108502e-20,-0.02486670362250235,-0.006327158092910939,-0.004566724512092812,-1.110553335522448e-07,0.17847077026781055,0.00572775299525484,0.16920779207592238
53,597759.623592,42.0,120,0.0,0.09388452063023585,1.080802923195109,0.4547093054453186,0.0,0.14151429031164153,-0.0003826943496285651,0.1683896550206132,0.0,-2.5807668853775807,-0.00511890535883956,-1.8593975286179976,-1.2425200295590453e-07,0.08320088337949288,-0.0008355185604911816,0.11589204999089775,2.979898041108483e-20,-0.024654600990933404,-0.006116678177739516,-0.0044362268175911785,-1.2425200295593433e-07,0.10785548437042629,0.005281159617248335,0.12032827680848893
54,597759.656794,41.0,120,0.0,0.09688178690290083,1.0807918308198814,0.45916657970743596,0.0,0.058795310252956035,-0.000267344603360975,0.10273378723742654,0.0,-2.2392558323885536,0.0038095973602915523,-1.6339906363720258,-1.0927121059626027e-07,0.02045844464768616,-0.0006431487292699017,0.06562525920989778,2.9089480877487896e-20,-0.02395342162019287,-0.005857896112114458,-0.004255354946021041,-1.0927121059628936e-07,0.04441186626787903,0.005214747382844556,0.06988061415591883
55,597759.720571,42.0,120,0.0,0.0967752295594663,1.0807829569196992,0.46185799659408905,0.0,-0.053129849299112575,1.671126713276294e-05,0.040601349699528555,0.0,-1.7589212635767697,0.0029233426121683982,-0.7038294998572391,-8.052998041044535e-08,-0.06426165707706324,-0.0004174701158018497,0.025223964906688053,2.9798980411085365e-20,-0.02451245955269266,-0.005975539827854819,-0.0043324112737192465,-8.052998041047516e-08,-0.03974919752437059,0.005558069712052969,0.0295563761804073
56,597759.752935,42.0,120,0.0,0.09421060763686899,1.0807860573463672,0.46314575649196127,0.0,-0.11012087210942334,8.618566303297825e-05,0.022263213957616657,0.0,-1.7330981689144793,0.00731345241257366,-0.7692966121790457,-7.907220759822162e-08,-0.10960025805811341,-0.0003220237691416764,0.009898382260787143,2.979898041108543e-20,-0.02455988281583071,-0.006022065404833093,-0.0043456335991357686,-7.907220759825142e-08,-0.0850403752422827,0.005700041635691417,0.014244015859922911
57,597759.785331,39.0,120,0.0,0.08964182472538951,1.0807885376877016,0.46329864006753146,0.0,-0.1653635040012036,0.0004906612837380919,-0.009231276518383957,0.0,-1.3894286720917242,0.011190099702812215,-0.767216669226472,-6.309637484119572e-08,-0.15035708149032884,3.551306814278507e-05,-0.015276924190047468,2.7670481810293145e-20,-0.022904402483023254,-0.005689510427746557,-0.0040777216728576674,-6.309637484122339e-08,-0.12745267900730559,0.005725023495889342,-0.0111992025171898
58,597759.81793,38.0,120,0.0,0.08345289601931574,1.0808181165271145,0.4625400880298247,0.0,-0.20029817160139363,0.000812958671360775,-0.027518560806961467,0.0,-0.7468468095034568,0.002557866178754315,-0.3734668889131935,-3.181032814637932e-08,-0.17187248580972897,0.00020258162052879097,-0.02596949176121715,2.696098227669622e-20,-0.02245524791575063,-0.00568073199007457,-0.004037903460122239,-3.181032814640628e-08,-0.14941723789397834,0.005883313610603361,-0.02193158830109491
59,597759.850912,39.0,120,0.0,0.07649802020926953,1.0808417795986447,0.461490671183366,0.0,-0.21409220506340443,0.0006527618204899,-0.03357913219442121,0.0,-0.2510937624208087,-0.0011962012154889921,-0.13030491111748171,-8.686520208106768e-09,-0.17794948146859357,2.9163942039881125e-05,-0.028387477043351872,2.7670481810293296e-20,-0.023206483751375406,-0.00599013057908984,-0.004220566789733046,-8.686520208134439e-09,-0.15474299771721817,0.0060192945211297215,-0.024166910253618827
60,597759.883008,41.0,120,0.0,0.06952583860746767,1.080860710055869,0.4603579043115762,0.0,-0.21693103743812014,0.0007287123085149005,-0.03609198331460739,0.0,-0.014266156797219764,0.0019421876475101477,-0.06075563202710732,1.89373135343956e-09,-0.17785896459450592,0.00011066011582137522,-0.029704328322141135,2.9089480877487487e-20,-0.024565173114329365,-0.00646638445111405,-0.004518099352295031,1.8937313534104705e-09,-0.15329379148017655,0.0065770445669354255,-0.025186228969846104
61,597759.915109,40.0,120,0.0,0.06257170137875673,1.0808885621319144,0.45917366614068256,0.0,-0.21500730763049958,0.0007774401987745705,-0.03747928612366369,0.0,0.09007239008591394,-0.0017147288735125839,-0.03137216102549811,6.1748153109874894e-09,-0.17528686072169697,0.00010102677674328367,-0.03052283367921111,2.837998134389032e-20,-0.024129195465193133,-0.006473137871029183,-0.004486967408477025,6.17481531095911e-09,-0.15115766525650384,0.006574164647772467,-0.026035866270734086
62,597759.94758,39.0,120,0.0,0.05564359670073506,1.0809108437927508,0.4579373540093478,0.0,-0.21109244722250042,0.000615582863431996,-0.03810893094707701,0.0,0.40340504986414594,-0.004651896962026374,0.057371507224167506,1.9172383954343883e-08,-0.16902578307894087,-6.765038206653622e-05,-0.03014093719939665,2.7670481810293163e-20,-0.02368390858767233,-0.006471340297132936,-0.004451893182745621,1.9172383954316212e-08,-0.14534187449126854,0.0064036899150664,-0.02568904401665103
63,597759.980325,39.0,120,0.0,0.048806345772272074,1.08092866912142,0.4566883350698134,0.0,-0.18854319352351856,0.00047424521767425176,-0.033695502581926995,0.0,0.9307470486957845,-0.0069493732026066814,0.18692328322865687,4.021341216168167e-08,-0.1457107534918091,-0.00021119762771169706,-0.025315796065328588,2.767048181029377e-20,-0.023838948036228668,-0.006629250226240784,-0.004528004222961225,4.0213412161654004e-08,-0.12187180545558042,0.006418052598529086,-0.020787791842367363
64,597760.012493,39.0,120,0.0,0.04338151867113568,1.0809417086812303,0.4557449897359197,0.0,-0.15095180319809265,0.0001674899818269182,-0.026034821054222057,0.0,1.2568641686693551,-0.008345977134178163,0.2953459032744632,5.2690095336601256e-08,-0.11237706270208432,-0.00047743095092032056,-0.018104162096882374,2.767048181029319e-20,-0.02396068486787623,-0.006753836958258208,-0.004587746016798509,5.269009533657359e-08,-0.0884163778342081,0.006276406007337887,-0.013516416080083865
65,597760.045098,40.0,120,0.0,0.03904430954593069,1.0809393086411512,0.4550048772677091,0.0,-0.10705466023055799,-6.530158185391599e-05,-0.01451473014412219,0.0,1.1619362601442857,-0.0034639650122823143,0.40100166492527567,4.909201580828912e-08,-0.07821864371129174,-0.0006237755782212824,-0.007833472656465602,2.837998134389046e-20,-0.02467447521814004,-0.007029136643494195,-0.004754220623791031,4.909201580826074e-08,-0.0535441684931517,0.006405361065272912,-0.0030792520326745707
66,597760.07898,41.0,120,0.0,0.0363313969587298,1.080937388609088,0.45480126175755725,0.0,-0.07417831539329167,-5.324686006247248e-05,0.0007507330198865958,0.0,0.6995719410467602,-0.00657730679510383,0.39459280354937626,3.053135976736495e-08,-0.05655865460269163,-0.0006549195170715227,0.004312415433200611,3.0057770401095245e-20,-0.02524101150158202,-0.0071564502664547775,-0.004790515933164273,3.053135976733489e-08,-0.03131764310110961,0.006501530749383255,0.009102931366364884
67,597760.109606,40.0,120,0.0,0.034222695111434595,1.0809358525834374,0.4550113978662051,0.0,-0.06024828485271139,-0.00044661152789693404,0.011286533770168639,0.0,0.4484322831363424,-0.013075276348085339,0.30565266034195393,1.962548888039167e-08,-0.04793677028865484,-0.0010410705865925287,0.011850176324781764,2.932465404984898e-20,-0.02466796603224073,-0.007026030361673714,-0.004691919618623214,1.9625488880362346e-08,-0.02326880425641411,0.005984959775081186,0.01654209594340498
68,597760.14238,40.0,120,0.0,0.03254991931553756,1.080907310530495,0.45553650519672695,0.0,-0.0457762161625857,-0.0008832471582600476,0.019958528050734614,0.0,0.4394024718485849,-0.0023840588189900447,0.4335251021790322,2.0716453017729462e-08,-0.03645189622505428,-0.0012861421802633018,0.02006618421093743,2.932465404984898e-20,-0.02469883472842449,-0.0070581754687224964,-0.004703205578286053,2.0716453017700137e-08,-0.011753061496629788,0.005772033288459195,0.024769389789223484
69,597760.174864,39.0,120,0.0,0.031232391474334993,1.0808782207846255,0.4563115784440332,0.0,-0.03157250582837773,-0.0006085067360181995,0.03947997166366335,0.0,0.27671914762651206,0.005701794986013808,0.6519580320559887,1.6695063386282088e-08,-0.026721507316941305,-0.0009887925344827398,0.03786716505355659,2.859153769860273e-20,-0.024101787304881418,-0.006903158614076487,-0.00459097012228355,1.6695063386253498e-08,-0.002619720012059887,0.005914366079593747,0.04245813517584014
70,597760.207246,36.0,120,0.0,0.03050010672922023,1.080867780675857,0.4580942315986866,0.0,-0.027793854563750497,-0.0005128332000019498,0.06223804959440837,0.0,0.0890879976729248,-0.003776148877470969,0.5076861267928474,7.853583384859015e-09,-0.025581214155341758,-0.0010099854422743397,0.05463057370626665,2.639218864486409e-20,-0.022246485377153416,-0.006371360314868027,-0.0042288409128983535,7.853583384832623e-09,-0.0033347287781883422,0.005361374872593687,0.058859414619165
71,597760.239048,36.0,120,0.0,0.029454425596913397,1.0808455240173092,0.46029800280977207,0.0,-0.02582275035819076,-0.0008431374117403578,0.07228960348213498,0.0,0.2158468363697593,-0.0031201182910828166,0.31193279224091464,1.0944897010342484e-08,-0.022734914543658055,-0.0012679850921921121,0.06071490300101563,2.6392188644864405e-20,-0.022247676121794888,-0.006373325769636948,-0.0042190300810961935,1.0944897010316092e-08,-0.0004872384218631669,0.005105340677444836,0.06493393308211183
72,597760.272811,35.0,120,0.0,0.028835573990123035,1.0808119210754197,0.46284599983731045,0.0,-0.013019787358159784,-0.0006880272733482684,0.08267320998553718,0.0,0.33168645920872597,0.00407493316632572,0.28071281781837154,1.5348763403067594e-08,-0.011331245227249558,-0.0010711277361343252,0.06871056838787604,2.4832483675904092e-20,-0.021715284232029355,-0.006282341756028074,-0.004180893942083398,1.5348763403042762e-08,0.010384039004779798,0.005211214019893749,0.07289146232995944
73,597760.304482,32.0,120,0.0,0.028580962130607415,1.0807992580059655,0.46567842550308813,0.0,-0.003926536769188083,-0.0005743933921067423,0.09076654954097307,0.0,0.25692746037420056,1.4890946546228592e-05,0.10867557055228327,1.0802448153980196e-08,-0.004806325571943923,-0.0010214502145018665,0.0734653809592906,2.270398507511261e-20,-0.019836727027029287,-0.0057267804250844545,-0.0038028375855838335,1.0802448153957491e-08,0.015030401455085364,0.0047053302105825884,0.07726821854487444
74,597760.337612,33.0,120,0.0,0.028593407876635592,1.0807741787054927,0.4687317445852861,0.0,0.003539249805320055,-0.000697728657534924,0.08927706164532179,0.0,0.19555147935981526,0.0007358096219612486,-0.1672274187159044,6.015685471322062e-09,0.0005510656138023907,-0.0011130361714600417,0.06951541062112632,2.3413484608709702e-20,-0.020432653223402184,-0.005881762086148805,-0.003897568366867386,6.015685471298649e-09,0.020983718837204575,0.004768725914688763,0.0734129789879937
75,597760.368873,33.0,120,0.0,0.0287973660438021,1.0807541152651146,0.4714375436288917,0.0,0.008773457061820533,-0.0005432099293685155,0.08044275681408664,0.0,0.29138134421708706,0.008375425140486743,-0.15236942695026512,1.0111846562043023e-08,0.00570070208930657,-0.0009107327714954962,0.06259784526461012,2.3413484608709566e-20,-0.02040799303230715,-0.005856959576959695,-0.0038746242030419696,1.0111846562019609e-08,0.02610869512161372,0.004946226805464199,0.06647246946765209
76,597760.401703,29.0,120,0.0,0.02916294227709452,1.080739680990778,0.473867739437644,0.0,0.02261287349758717,-0.00014989758480155047,0.07993046614024557,0.0,0.5248741626885958,0.013349558162578504,0.13736400858450115,2.1893027496406843e-08,0.019115875103968217,-0.000541951244741714,0.06508721885753532,2.0575486474320534e-20,-0.01791196739442666,-0.005124472729415103,-0.0033855389381139116,2.1893027496386266e-08,0.03702784249839487,0.004582521484673389,0.06847275779564924
77,597760.433724,29.0,120,0.0,0.030245491812984783,1.0807439311863603,0.4766116747845207,0.0,0.042646949308060456,0.0003203340601167781,0.0891064968651758,0.0,0.5449726067152354,0.014326589353962887,0.21043269738400827,2.352850297978929e-08,0.03534766779381728,-0.00015271594420173106,0.07316016123894004,2.0575486474320576e-20,-0.017876154905213278,-0.005088010384790994,-0.0033587298661742118,2.3528502979768713e-08,0.05322382269903056,0.004935294440589263,0.07651889110511424
78,597760.466074,26.0,120,0.0,0.031914015298375,1.0807604252911904,0.47960587220104495,0.0,0.057639943925620996,0.0007720821861116889,0.09342587830234894,0.0,0.41211818794005317,0.010134617414937163,0.12533265416413975,1.7679893734069086e-08,0.04601348256397442,0.0001693586276450518,0.07576581113292531,1.8446987873529108e-20,-0.01598492766837567,-0.004518822963710651,-0.0029818556770008983,1.767989373405064e-08,0.06199841023235009,0.004688181591355703,0.0787476668099262
79,597760.500074,22.0,120,0.0,0.0340904192608901,1.0807960462266046,0.4828134244816459,0.0,0.06981723562879694,0.0009798053598011336,0.09739461021014328,0.0,0.27499999206384285,5.8881088045659516e-05,0.05657653508512239,1.1549258368394381e-08,0.054384968074693556,0.0002383599457608086,0.07825463054705808,1.5608989739139604e-20,-0.013482813602717615,-0.0037798035084974815,-0.0024942076118970357,1.1549258368378772e-08,0.06786778167741117,0.00401816345425829,0.08074883815895512
80,597760.531122,21.0,120,0.0,0.03642269995667999,1.0808245429749361,0.4859239440073138,0.0,0.07599778128991297,0.0008100843740201924,0.09744578266260184,0.0,-0.01061339815450335,-0.0068850837841525625,-0.20023250989649632,-2.025069109439342e-09,0.0564697786535701,3.5149067636447494e-05,0.07572832505490809,1.489949020554246e-20,-0.012827729845347843,-0.0035648717511974973,-0.002352912983426161,-2.0250691094542414e-09,0.06929750849891794,0.003600020818833945,0.07808123803833425
81,597760.563161,15.0,120,0.0,0.03888666174299292,1.080846935062017,0.4889554723826699,0.0,0.0687254547895112,0.0005425893856774167,0.08435602859832692,0.0,-0.3235219867666618,-0.007194202648795801,-0.4697061362187599,-1.678083932733849e-08,0.04751885473587397,-0.00017998525307315924,0.0625625784414297,1.0642493003958848e-20,-0.009131694310117398,-0.0025147316352454787,-0.0016604873973868727,-1.6780839327349132e-08,0.05665054904599137,0.0023347463821723194,0.06422306583881658
82,597760.596203,16.0,120,0.0,0.04087875612764972,1.080859536765739,0.49139300701837957,0.0,0.0547459595169032,0.0003442313417494347,0.06675225211757585,0.0,-0.35941278907056606,-0.007238655405173992,-0.4469639111899485,-1.8176847549242416e-08,0.035979787273102075,-0.00033493377069402264,0.04870843985020124,1.1351992537556335e-20,-0.009713791939377504,-0.0026551817265919233,-0.0017538312506914858,-1.817684754925377e-08,0.04569357921247958,0.002320247955897901,0.05046227110089273
83,597760.629004,16.0,120,0.0,0.042493962323184156,1.0808696181287167,0.49335401151832914,0.0,0.04503006159136347,6.656791167358733e-05,0.05488537623448764,0.0,-0.30732964775175664,-0.014020622001888907,-0.3592738907536943,-1.5737987657328197e-08,0.0287330472009971,-0.0006206038591436206,0.040093299400923196,1.1351992537556247e-20,-0.009692170719476995,-0.0026331621314213435,-0.0017397947375978778,-1.573798765733955e-08,0.0384252179204741,0.002012558272277723,0.04183309413852107
84,597760.660321,16.0,120,0.0,0.04377821357092487,1.0808645034400461,0.49492636040256005,0.0,0.0350728613377177,-0.0005386270807470339,0.04370904741741377,0.0,-0.35789451160933067,-0.011846612340308534,-0.2792696009803135,-1.698768852197639e-08,0.020263315819652496,-0.0010804610141017963,0.03195319355328468,1.1351992537556291e-20,-0.009675013300390913,-0.0026157011064829963,-0.0017286182319493188,-1.6987688521987742e-08,0.02993832912004341,0.0015352400923812,0.033681811785234
85,597760.694117,16.0,120,0.0,0.04474706984393778,1.0808326120827865,0.49616654408300387,0.0,0.021520586365263328,-0.0006662561967623049,0.037101303280023146,0.0,-0.673661332683229,0.004528106684644787,-0.2662943555765606,-2.8672542168782562e-08,0.006257497971010621,-0.0010196351174203942,0.026796626752723166,1.1351992537556145e-20,-0.009662087436534279,-0.002602553903312017,-0.0017200753478717617,-2.8672542168793914e-08,0.0159195854075449,0.0015829187858916226,0.028516702100594926
86,597760.725462,14.0,120,0.0,0.0452138511783519,1.08081979240213,0.49734126243849175,0.0,-0.007522003603289584,-0.00028289447385532185,0.026696729165839095,0.0,-1.081216634330671,0.00840535764992504,-0.45799246069883615,-4.636649642136121e-08,-0.021062553326427244,-0.0006773021093017023,0.0165552241783527,9.932993470361806e-21,-0.008446868971245157,-0.002269685890988964,-0.001499469351760731,-4.6366496421371143e-08,-0.012615684355182087,0.0015923837816872617,0.018054693530113432
87,597760.757902,14.0,120,0.0,0.0442173353838236,1.0808148486235474,0.49784537366119685,0.0,-0.047789461480804984,-0.0001386436071335595,0.0076073714146973614,0.0,-1.1434062980478477,0.005794497136795839,-0.4327843077377063,-4.848112945317858e-08,-0.053901648209836776,-0.0005902287553976655,0.001535478183509101,9.932993470361701e-21,-0.00845268842324857,-0.0022757017558080535,-0.001501178795488075,-4.8481129453188515e-08,-0.04544895978658821,0.0016854730004103881,0.0030366569789971763
88,597760.791021,14.0,120,0.0,0.04205739721465594,1.0808107219393044,0.4978291091210656,0.0,-0.08234825946108626,9.883643111763263e-05,-0.00146256922336363,0.0,-0.8955793562416915,0.012795525784451737,-0.15413186413073676,-3.5484955162938803e-08,-0.07906657175781777,-0.0003311074546615861,-0.0029337598491724535,9.932993470361755e-21,-0.00846903443379252,-0.0022924945454858062,-0.0015086684517238095,-3.5484955162948736e-08,-0.07059753732402525,0.0019613870908242203,-0.001425091397448644
89,597760.822656,14.0,120,0.0,0.038934661185709526,1.0808206003709624,0.49775348519380985,0.0,-0.10621092264474885,0.0006735968527813441,-0.002720672565060589,0.0,-0.32039365689372046,0.013802474481537534,0.1955692256746967,-9.385103108156685e-09,-0.0923935688819697,0.0001394666699683838,-0.00044238904920211857,9.932993470361633e-21,-0.008492652862005103,-0.0023168098504817713,-0.001519608291631589,-9.385103108166618e-09,-0.0839009160199646,0.002456276520450155,0.0010772192424294705
90,597760.856377,13.0,120,0.0,0.035083556710456126,1.0808563027226123,0.49764987401243926,0.0,-0.10141791411928458,0.0009820953584949166,0.0123332564182288,0.0,0.7680729450670017,0.0015898338557481725,0.7947699312354579,3.771471723862399e-08,-0.07764978799460877,0.0002689533873757834,0.017595015147667568,9.223493936764551e-21,-0.007912839354450642,-0.0021790030282586976,-0.0014235310581344996,3.771471723861476e-08,-0.06973694864015813,0.002447956415634481,0.019018546205802067
91,597760.887736,11.0,120,0.0,0.0322760930468832,1.0808848646039322,0.49848590510747337,0.0,-0.059078096494169896,0.0008115200801199762,0.04741501007165283,0.0,1.5235953554681143,-0.007558066471492901,1.154443567711087,6.917168891200475e-08,-0.03620560802909571,4.42703885605853e-05,0.049258940537397454,7.804494869569844e-21,-0.0067094868241794,-0.001858364280032298,-0.00120974882219134,6.917168891199695e-08,-0.029496121204916313,0.0019026346685928834,0.05046868935958879
92,597760.919938,13.0,120,0.0,0.031380519956167106,1.0809077141089878,0.5006990827533524,0.0,-0.004280335482628517,0.0004980770725460104,0.08577189375352479,0.0,1.4810312995625927,-0.008631310103736325,0.9374101952432509,6.527580511069415e-08,0.007204412932932341,-0.00021892028769975546,0.07777428516477229,9.223493936764383e-21,-0.0079283821336338,-0.002195467402511675,-0.0014254453860888386,6.527580511068492e-08,0.01513279506656614,0.0019765471148119195,0.07919973055086113
93,597760.952022,8.0,120,0.0,0.03199538431003933,1.0809169338070268,0.5039958220651086,0.0,0.03618346123448052,0.0002563880031480892,0.10773713091623716,0.0,0.9905016216394379,-0.004652850094987232,0.4585269443811908,4.2379491902465695e-08,0.0346576044080518,-0.0003759360160876245,0.09055722080575235,5.675996268778064e-21,-0.004869899081307014,-0.0013418540357786996,-0.0008695241583482813,4.237949190246002e-08,0.039527503489358816,0.0009659180196910751,0.09142674496410062
94,597760.984847,5.0,120,0.0,0.033754666044296784,1.0809243095654577,0.5076996633951136,0.0,0.05960635192522862,0.00020038291283341891,0.11519548508628485,0.0,0.3548119796144129,-0.0014021385995830757,0.06127293994914185,1.459173713661721e-08,0.04702487170272451,-0.0003907155538867683,0.09255112868723049,3.5474976679863516e-21,-0.0030344444412536754,-0.000829246501904586,-0.0005367475940992978,1.4591737136613662e-08,0.05005931614397819,0.0004385309480178177,0.09308787628132979
95,597761.018474,4.0,120,0.0,0.03596610433378375,1.0809302101722027,0.5116546233132894,0.0,0.059178951381486544,0.00016370671569632123,0.11153941653963706,0.0,-0.3266014218961526,-0.0010391086094946969,-0.32407596984543896,-1.5370060420931455e-08,0.03985434007892875,-0.0004184594312319149,0.08577267565924089,2.8379981343890893e-21,-0.002418931630654164,-0.0006546102864337938,-0.0004233305128430392,-1.5370060420934294e-08,0.042273271709582914,0.0002361508552018789,0.08619600617208394
96,597761.049346,10.0,120,0.0,0.0376064453047002,1.0809349306575986,0.5149259368288847,0.0,0.040199579291944065,0.00013308894417995987,0.09543088991742632,0.0,-0.49362536036819893,0.001260366870423646,-0.36372102425120123,-2.2360764023755057e-08,0.022999979835862893,-0.00041751975715877793,0.0724906271661489,7.094995335972596e-21,-0.006030460529811542,-0.0016193688525021185,-0.0010462150309816568,-2.236076402376215e-08,0.029030440365674436,0.0012018490953433405,0.07353684219713055
97,597761.083272,10.0,120,0.0,0.038488047998864225,1.0809387070459153,0.5177708371248508,0.0,0.027969606512178058,0.00025981239489425434,0.08898422592099742,0.0,0.1830921524667537,0.003312552541186621,0.19059595847261135,9.180376612788738e-09,0.020005796580900292,-0.00028521552676146877,0.0728801818833148,7.094995335972602e-21,-0.006018688118786011,-0.0016074463890379917,-0.0010370087805487177,9.180376612781642e-09,0.026024484699686302,0.001322230862276523,0.07391719066386351
98,597761.114257,11.0,120,0.0,0.03941081886030735,1.0809509597239515,0.5206731354210111,0.0,0.04902551271394184,0.00035048880697985396,0.10566091220355656,0.0,1.3580563465132516,0.0002912306507351532,0.8041411555383264,6.086704049990898e-08,0.048636553650667706,-0.00022736389175812482,0.09236222586945067,7.804494869569972e-21,-0.006607135722846868,-0.0017546010944023951,-0.0011302756254706558,6.086704049990117e-08,0.05524368937351457,0.0015272372026442704,0.09349250149492133
99,597761.146537,16.0,120,0.0,0.04164053136736156,1.0809607618663803,0.5244871858766343,0.0,0.1156810916098383,0.0002712692261219729,0.1405613496534457,0.0,2.3661591341609984,-0.0020817573976506186,1.0529356682729767,1.0372059309690267e-07,0.11207539904533861,-0.0002985083374972765,0.12277580148312034,1.1351992537556383e-20,-0.009575958308968496,-0.0025171579170088316,-0.001620046028199222,1.0372059309689132e-07,0.12165135735430711,0.002218649579511555,0.12439584751131956
100,597761.179452,16.0,120,0.0,0.04701242067122461,1.0809686035803234,0.5298657682745191,0.0,0.20367359545889607,0.00021524620886737011,0.17427083198985827,0.0,2.7616870958368605,-0.0014878310843872721,0.8276312521499789,1.201325142271373e-07,0.18644611689040544,-0.0003218940600302717,0.14749519661861066,1.1351992537556207e-20,-0.009507963015111458,-0.002447937814494663,-0.0015772631711468556,1.2013251422712595e-07,0.1959540799055169,0.0021260437544643913,0.1490724597897575
101,597761.212045,17.0,120,0.0,0.0549568469242573,1.080974876951478,0.5358963582681444,0.0,0.29653706352284737,0.00017366710437372035,0.1949037486997902,0.0,2.8184636949463484,-0.0011439311927451366,0.5279740475562784,1.2410182049069118e-07,0.2613216672541947,-0.00033454960480707764,0.16100997837881362,1.2061492071153573e-20,-0.010002812366006959,-0.002500007815277405,-0.001616478347861721,1.241018204906791e-07,0.2713244796202017,0.0021654582104703272,0.16262645672667533
102,597761.244428,17.0,120,0.0,0.0662581122351742,1.0809798956484018,0.5425256994380019,0.0,0.3868189536353196,0.00014086296827997558,0.2086204624165866,0.0,2.0231713089574077,-0.0009700585923036042,0.014535253146199523,9.267140154487395e-08,0.3255942237464288,-0.00034407957197286687,0.16685285958133714,1.20614920711534e-20,-0.009868355794826719,-0.0023641938681132355,-0.0015398636294682167,9.267140154486189e-08,0.3354625795412555,0.0020201142961403687,0.16839272321080537
103,597761.276019,17.0,120,0.0,0.07964401057823947,1.0809839106059407,0.5492365357886522,0.0,0.4271640058272821,0.00011154138106483913,0.1964736267491114,0.0,0.7933591256392534,-0.001089886308825038,-0.6431022790670267,3.856656740200102e-08,0.34556457551564806,-0.0003545844606658939,0.15056239373481753,1.0817422168537237e-20,-0.009730676450233147,-0.002226146670768872,-0.001472061147618643,3.85665674019902e-08,0.3552952519658812,0.001871562210102978,0.15203445488243617
104,597761.309873,21.0,120,0.0,0.09422998278510133,1.0809871225719716,0.5553091166504835,0.0,0.4364724843638259,6.87771807967863e-05,0.1653202924467383,0.0,0.0014442286238658397,-0.0010877399843330089,-0.9162783115067752,2.9855300544507157e-09,0.3451006385942092,-0.00036764923320142833,0.12291316377822853,1.3362697972898913e-20,-0.011813797827087804,-0.0025448922839562804,-0.00170810917820665,2.985530054437353e-09,0.356914436421297,0.002177243050754852,0.12462127295643517
105,597761.341364,17.0,120,0.0,0.10813965737161288,1.080988523893759,0.5601034973532848,0.0,0.42850589937822603,3.966275077971204e-05,0.13658141437746885,0.0,-0.6938103863015783,-0.0005962667288359571,-0.995882012097006,-2.872561280817644e-08,0.3317855082883955,-0.0003653024620722544,0.09913097591016816,1.0817422168537409e-20,-0.009406365787012927,-0.0019055307431392586,-0.0013013945362660478,-2.8725612808187256e-08,0.3411918740754084,0.0015402282810670041,0.1004323704464342
106,597761.37367,17.0,120,0.0,0.1215455837197085,1.0809896449511889,0.563996737358641,0.0,0.39148161094092915,3.127914829548217e-05,0.1016485114658412,0.0,-0.9360918117631281,-0.00022899915796505778,-0.9451634921994021,-4.1609349517951596e-08,0.2997660432208971,-0.000344296169693485,0.07169768762321832,1.0817422168537255e-20,-0.009256149957698016,-0.001759160068472248,-0.0012257399408009293,-4.1609349517962415e-08,0.30902219317859514,0.001414863898778763,0.07292342756401925
107,597761.405849,17.0,120,0.0,0.13339030263002555,1.0809905417971328,0.5666630833607287,0.0,0.3680887943655773,2.4888006560530584e-05,0.07559803254988573,0.0,-0.605785484472384,-0.0001760254413469964,-0.741185038612826,-2.667453883956541e-08,0.2843904972483828,-0.0003221264064660043,0.05290368975722576,1.0817422168537314e-20,-0.009125325983457533,-0.0016328545920871295,-0.001161994893301236,-2.6674538839576226e-08,0.29351582323184033,0.0013107281856211252,0.054065684650526996
108,597761.438695,17.0,120,0.0,0.14548055801531345,1.080991259273888,0.5689027118095852,0.0,0.3522537306906419,1.9863536969921824e-05,0.053545097083361526,0.0,-0.7590369056781698,-0.0028192327620493664,-0.754251681488239,-3.517534098784963e-08,0.2702127553324851,-0.00033060965875976727,0.035135696791568374,1.0817422168537523e-20,-0.008992516839047818,-0.0015057416797779725,-0.001098806292020145,-3.517534098786045e-08,0.27920527217153296,0.0011751320210182051,0.03623450308358852
109,597761.4707,17.0,120,0.0,0.15626060345761517,1.080991833255292,0.5701598467357235,0.0,0.31932433624700973,-0.00015351481679104495,0.026821622630816222,0.0,-1.5497602899527885,-0.0048292668474106,-0.8871125557413191,-7.499365731541906e-08,0.23596450909746722,-0.0004768177296594185,0.012430554297408422,1.0817422168537354e-20,-0.008876214417032902,-0.0013954411175981863,-0.0010455527273328608,-7.499365731542987e-08,0.24484072351450012,0.0009186233879387678,0.013476107024741283
110,597761.502883,17.0,120,0.0,0.16597110135549337,1.0809813442592628,0.5706198908430161,0.0,0.2525917691934012,-0.0002899075470885748,-0.0034154950644413873,0.0,-2.2482551637832784,-0.0012963833078635401,-0.9440988076600538,-1.1114975831894399e-07,0.17559647979428622,-0.0005393581299345309,-0.012327152482634676,1.0817422168537222e-20,-0.008773634971736393,-0.0012990123066238812,-0.0010004876718807372,-1.111497583189548e-07,0.1843701147660226,0.0007596541766893503,-0.01132666481075394
111,597761.536081,19.0,120,0.0,0.1726739873742583,1.0809729530624397,0.569900019768224,0.0,0.17197088963949136,-0.00023220793092093572,-0.034913908162479856,0.0,-2.413760074255724,0.0015517569415307913,-0.8993091242735731,-1.211444954412501e-07,0.10945540090882747,-0.0004541362723771945,-0.037076149543751255,1.2090060070718127e-20,-0.009731312217959316,-0.0013825268546744053,-0.0010885196392765328,-1.211444954412622e-07,0.11918671312678678,0.0009283905822972107,-0.035987629904474724
112,597761.567647,20.0,120,0.0,0.17720393163009662,1.080966240104981,0.5684008469608195,0.0,0.09622012761896626,-0.0001888164620353905,-0.06181593329601043,0.0,-2.3149536664877792,0.0013170732024891194,-0.7067908838490775,-1.1621089672891956e-07,0.04985590386782488,-0.0004126079520856709,-0.05667101857424997,1.2726379021808436e-20,-0.01019553603807525,-0.0014112670737505121,-0.0011299852956242018,-1.162108967289323e-07,0.06005143990590013,0.0009986591216648412,-0.05554103327862577
113,597761.600375,22.0,120,0.0,0.1787484466794664,1.080960869739014,0.5658917276403719,0.0,0.02333397141496585,-0.00014766424278533918,-0.08001205957635804,0.0,-1.7823707993944544,0.0005239254303420057,-0.3896856211689794,-8.836776100791848e-08,-0.0031092982112376714,-0.0003798979447477939,-0.06805550458725736,1.399901692398933e-20,-0.01120859985567432,-0.0015474218414732186,-0.0012485685194733385,-8.836776100793248e-08,0.008099301644436648,0.0011675238967254246,-0.06680693606778401
114,597761.633113,23.0,120,0.0,0.1787310361674257,1.0809565734462405,0.5631627105348439,0.0,-0.020455664780941962,-0.00015453183133473658,-0.08732376582008428,0.0,-0.8815378809951286,-0.00016527537611880092,-0.08279700220956121,-4.253648508320297e-08,-0.02910851411450114,-0.00038394110341975133,-0.07083425043639832,1.4635335875079866e-20,-0.011734806009155802,-0.0016344655178701906,-0.0013218722994899003,-4.253648508321761e-08,-0.017373708105345338,0.0012505244144504393,-0.06951237813690841
115,597761.664968,23.0,120,0.0,0.17746186493323865,1.0809509286559793,0.5602581304449346,0.0,-0.0344017109925252,-0.00015841740032129792,-0.0856050181295025,0.0,-0.08436890527237273,0.00045186877633691404,0.21135107887218596,-1.686248049965203e-09,-0.03227527548372508,-0.0003759972939538704,-0.06651688791566858,1.463533587508001e-20,-0.011770380224013423,-0.0016687342404517324,-0.0013469998723380045,-1.6862480499798383e-09,-0.020504895259711657,0.001292736946497862,-0.06516988804333057
116,597761.697386,24.0,120,0.0,0.17652611504782537,1.0809464128237702,0.5576669535746976,0.0,-0.025476829941887935,-0.00012483700961141153,-0.07356080423653033,0.0,0.16474788086798975,0.0008926305823147341,0.3063017563769532,1.1023441255508154e-08,-0.022640335711295697,-0.0003448764487327295,-0.055932591684303715,1.52716548261701e-20,-0.012312300339951192,-0.0017704588530148202,-0.0014277010068028504,1.1023441255492883e-08,-0.010328035371344505,0.0014255824042820908,-0.05450489067750086
117,597761.730165,24.0,120,0.0,0.17580331202975352,1.080942800158003,0.5554668109981858,0.0,-0.023740911088730776,-0.00010032454909492117,-0.065682418538616,0.0,-0.006524858432187752,0.0006942716301790817,0.19510872470142282,1.777277956897249e-09,-0.022971817579172184,-0.00033138270694545706,-0.05074352061293453,1.5271654826170076e-20,-0.01233682712292863,-0.0017942245405589642,-0.0014460318908784977,1.7772779568819773e-09,-0.010634990456243554,0.001462841833613507,-0.04929748872205603
118,597761.762025,24.0,120,0.0,0.1749945891827857,1.0809399100253891,0.5534187015985365,0.0,-0.025790792890983738,-7.986296181528019e-05,-0.06086718616870446,0.0,-0.06510237120644158,0.003585219942290021,0.11910423959450267,-1.6351816144918867e-09,-0.025201936115397186,-0.00028913537913487425,-0.047652703666649546,1.527165482617057e-20,-0.012361644451278134,-0.0018181968307608898,-0.0014639321768926703,-1.6351816145071583e-09,-0.012840291664119052,0.0015290614516260156,-0.04618877148975688
119,597761.795857,24.0,120,0.0,0.17410740776304526,1.0809375979192983,0.5514822194651695,0.0,-0.028020714710030425,0.00014716207188314456,-0.05798847086980885,0.0,0.009866388356001732,0.005837601512790844,0.14424060842777253,2.2520297485788545e-09,-0.026236847701933665,-8.661611139921686e-05,-0.04509921929225891,1.527165482617024e-20,-0.012386895220976994,-0.0018425285123184398,-0.00148160946664097,2.2520297485635827e-09,-0.01384995248095667,0.0017559124009192228,-0.04361760982561794
120,597761.827239,24.0,120,0.0,0.1731757354612678,1.0809484893232928,0.5496405847609784,0.0,-0.02550523389171211,0.00030495207355230036,-0.05174002949412149,0.0,0.12885999247682012,1.108842700986044e-05,0.24780672822830707,8.639408536833345e-09,-0.02303388106283075,-1.9770036464892692e-05,-0.03906546185810234,1.52716548261701e-20,-0.012412007889129462,-0.0018666849354967842,-0.0014988777348555428,8.639408536818074e-09,-0.010621873173701288,0.0018469148990318915,-0.0375665841232468
121,597761.860753,24.0,120,0.0,0.17247066174948453,1.0809572024464882,0.5481551152659055,0.0,-0.01944349198581108,0.0001257627131856509,-0.04169210524554856,0.0,0.145412090054648,-0.004652546497717048,0.2515544478944025,9.22741675875659e-09,-0.01802072046367885,-0.00021151523876473645,-0.03099044459003411,1.5271654826170708e-20,-0.01243156544884007,-0.0018855249100628376,-0.00151250859913686,9.227416758741319e-09,-0.00558915501483878,0.001674009671298101,-0.02947793599089725
122,597761.891661,24.0,120,0.0,0.17191515843076893,1.080957263574622,0.5469415125999925,0.0,-0.015959865074134605,1.7484490797414765e-06,-0.03529264562686407,0.0,0.11437545679439909,-0.002060636706886764,0.21399900219929507,7.480727965686252e-09,-0.015546847595462317,-0.0002866856778186561,-0.026247224385251313,1.5271654826170214e-20,-0.012447328689208456,-0.0019007264822246198,-0.0015235553275925748,7.48072796567098e-09,-0.003099518906253861,0.0016140408044059637,-0.02472366905765874
123,597761.924093,24.0,120,0.0,0.17146605058513795,1.0809573124771292,0.5459320853355787,0.0,-0.012193747699432933,1.3375233898216266e-06,-0.02811570148535747,0.0,0.09350074007360512,-0.0019260082282449977,0.1746541499015022,6.093424264196204e-09,-0.012744793627939979,-0.00028718907736907185,-0.020899767793436375,1.5271654826170115e-20,-0.01246024326116235,-0.0019131893413984133,-0.0015326592008297012,6.093424264180933e-09,-0.00028455036677762884,0.0016260002640293414,-0.019367108592606673
124,597761.957805,28.0,120,0.0,0.17111293279332093,1.080957351599135,0.5450896819594114,0.0,-0.009834409241050945,-0.00013064024203046642,-0.02386207063321244,0.0,0.07596269471400402,-0.0030726593408232335,0.15149881975898144,4.980208572259127e-09,-0.011034387619644856,-0.0004054568457639992,-0.017728946112078755,1.781693063053196e-20,-0.01454914731415799,-0.002243838457007007,-0.0017968054663416218,4.98020857224131e-09,0.0035147596945131337,0.0018383816112430079,-0.015932140645737135
125,597761.989037,24.0,120,0.0,0.1708243064340128,1.0809494578631704,0.5443770067026305,0.0,-0.007288984667246146,-0.00020223693016152566,-0.018397745491632644,0.0,0.2777112047345605,-0.0005037243779365845,0.1926234805009222,1.4950915891953105e-08,-0.006975886179426794,-0.0004357956917717204,-0.012946008582279168,1.5271654826170506e-20,-0.012479499339485398,-0.0019318036450424387,-0.0015464146054536172,1.4950915891937832e-08,0.005503613160058604,0.0014960079532707182,-0.01139959397682555
126,597762.05374,24.0,120,0.0,0.17061439333408462,1.0809431428743985,0.5437792290155163,0.0,0.03698072755347326,4.934680386980972e-06,-0.003566626034137599,0.0,1.188249652626178,0.002017864341966927,0.2899687282411496,5.8751524210006225e-08,0.037569588187027124,-0.00023631385438525928,-0.00010526293763160003,1.5271654826170263e-20,-0.012486402478263275,-0.001938497803548876,-0.0015514914470317167,5.875152420999095e-08,0.0500559906652904,0.0017021839491636168,0.0014462285094001166
127,597762.086454,26.0,120,0.0,0.17248951338171473,1.0809450002538037,0.5437563696626083,0.0,0.08419027003889568,5.136304856279139e-05,0.006924238088808821,0.0,1.4183398696780656,0.0005430413965442325,0.23706878456388097,6.939906225520124e-08,0.07764848666839219,-0.00020819303773324488,0.007759770851673541,1.6544292728351348e-20,-0.013497156908826068,-0.0020723003695850986,-0.0016682532512303854,6.93990622551847e-08,0.09114564357721826,0.0018641073318518538,0.009428024102903927
128,597762.118742,28.0,120,0.0,0.17606418365192025,1.0809464861573277,0.5442228658297266,0.0,0.12919661318294828,4.0975101029516736e-05,0.011914095609217412,0.0,1.0883932941202588,0.0020237848775183074,-0.15308708763702594,5.076119759604855e-08,0.1103524093197846,-0.00019869200313138376,0.00785042363744271,1.7816930630532358e-20,-0.014470438413975434,-0.0021710551341382624,-0.0017671395736008231,5.0761197596030735e-08,0.12482284773376004,0.0019723631310068785,0.009617563211043532
129,597762.151961,29.0,120,0.0,0.18098771042785333,1.080947674880147,0.544532040222375,0.0,0.154910589014166,0.00018836543435796216,-0.00368510172189751,0.0,0.44276320211552456,0.003889350388646063,-0.5855998142663921,1.649366971635441e-08,0.12446003857193336,-5.983058550616669e-05,-0.008954219034125604,1.845324958162217e-20,-0.014896779664243383,-0.002164545204277771,-0.0017907299453966189,1.6493669716335958e-08,0.13935681823617674,0.002104714618771604,-0.007163489088728985
130,597762.183394,36.0,120,0.0,0.1860561864945196,1.0809581339913366,0.5440297774186837,0.0,0.15897376966792542,0.00029433275211943055,-0.025542844379144114,0.0,-0.39717808487765116,-0.0011005206379015745,-0.7479772976136265,-2.5276167066398907e-08,0.11929949617511237,-2.4145591378446152e-05,-0.028064976759548166,2.2907482239255737e-20,-0.01838399215490908,-0.0025870546577103446,-0.002180024295321779,-2.5276167066421814e-08,0.13768348833002145,0.0025629090663318987,-0.025884952464226386
131,597762.216324,35.0,120,0.0,0.19121277112745466,1.0809665012802887,0.5428587096302595,0.0,0.127733313305598,0.0001038254448424425,-0.051988404084967854,0.0,-1.307316408559725,-0.00971958556491605,-0.8500957784939847,-7.09637024585348e-08,0.08519234204050305,-0.0002627052735927023,-0.050243800707649944,2.227116328816536e-20,-0.017771561070442456,-0.0024223337285076128,-0.0020829914107123853,-7.096370245855708e-08,0.1029639031109455,0.0021596284549149107,-0.04816080929693756
132,597762.248526,40.0,120,0.0,0.19441726687735894,1.0809651127216187,0.5406673206781456,0.0,0.0743420216089885,-0.000333058178384249,-0.08084359016126008,0.0,-1.535185865610562,-0.010657541178197035,-0.6786303026404322,-8.100291325699538e-08,0.04020163446098103,-0.0006183656533711427,-0.07161345371669338,2.5452758043616996e-20,-0.020253262682043936,-0.002717849003986614,-0.0023699953843948963,-8.100291325702083e-08,0.06045489714302497,0.002099483350615471,-0.06924345833229849
133,597762.280987,36.0,120,0.0,0.19600685861258968,1.0809448139474367,0.537624467523504,0.0,0.028527469427747754,-0.0005838099933086482,-0.09575758950544433,0.0,-1.5555343971914366,-0.002431082962317619,-0.3784750910311079,-7.889425013133596e-08,0.003349441908459304,-0.0007344797290710684,-0.08054350208132131,2.2907482239255367e-20,-0.01822117364551967,-0.0024422903458779055,-0.002146845787513019,-7.889425013135887e-08,0.021570615553978975,0.001707810616806837,-0.07839665629380829
134,597762.313666,37.0,120,0.0,0.1962666036808432,1.080927101501272,0.5344287881148725,0.0,-0.027048554943013503,-0.0004891031509366428,-0.10546203679686883,0.0,-2.053216439618253,0.0028975115598743276,-0.5347948421043429,-1.042066273507874e-07,-0.046102811196981085,-0.0006113673581738673,-0.08987295536152873,2.3543801190345694e-20,-0.018752535712221203,-0.0025358559762076564,-0.0022349983048017526,-1.0420662735081095e-07,-0.027350275484759882,0.001924488618033789,-0.08763795705672697
135,597762.346125,40.0,120,0.0,0.19426031665992272,1.0809129315443404,0.5307582456980443,0.0,-0.10506034253868046,-0.0003950716293452672,-0.13048876209032834,0.0,-2.3703147543723215,0.004610208839605374,-0.8356419396594881,-1.2150910083010232e-07,-0.11169897371095656,-0.0005278692068016498,-0.11290614228043365,2.5452758043616978e-20,-0.020361759706369147,-0.0028260205165884606,-0.002475557385705289,-1.2150910083012778e-07,-0.09133721400458741,0.002298151309786811,-0.11043058489472836
136,597762.378132,41.0,120,0.0,0.18953260983619316,1.080901595578795,0.526032325356348,0.0,-0.17988296182112062,-0.00019343944669003577,-0.15927452371671436,0.0,-1.8882359199051038,0.009808222476019073,-0.7197352612608716,-9.504775969534077e-08,-0.1667358676233242,-0.0003201606524132169,-0.1347778159256518,2.6089076994708223e-20,-0.021042233922538692,-0.0030582585282978416,-0.0026384268397447105,-9.504775969536686e-08,-0.14569363370078553,0.0027380978758846245,-0.13213938908590708
137,597762.410603,40.0,120,0.0,0.18263174876048743,1.0809006091961906,0.5204776797526229,0.0,-0.22638989622850536,0.00024062251567968929,-0.17672795376281147,0.0,-1.5214659891992324,0.010984960901354413,-0.7867321354503538,-7.63111725433703e-08,-0.20028225489287427,2.7340156321162495e-05,-0.14941426996091947,2.545275804361745e-20,-0.020757720990937464,-0.003199066530477868,-0.0027033775064712797,-7.631117254339575e-08,-0.1795245339019368,0.0032264066867990306,-0.14671089245444818
138,597762.445303,39.0,120,0.0,0.1742618374782767,1.0809190080173527,0.5141352191633503,0.0,-0.28249268091031166,0.0005334446131151083,-0.2132692823681097,0.0,-0.8650707196234269,0.0027501455348046076,-0.6979117429566912,-4.231503646040311e-08,-0.23860427180554677,0.00016791857936055874,-0.17776273648950566,2.4816439092526644e-20,-0.020503159920840577,-0.0033688230232676026,-0.0027839809204220608,-4.231503646042792e-08,-0.2181011118847062,0.0035367416026281613,-0.1749787555690836
139,597762.475499,40.0,120,0.0,0.1646468621697399,1.0809352005011015,0.5068941807799753,0.0,-0.2888615910666026,0.00046701267344495534,-0.2250112216795941,0.0,0.6752445820181427,-0.002691235865837592,0.1663952187167399,3.8336443123545584e-08,-0.22827638220563579,5.643613120528046e-05,-0.17851444392439902,2.5452758043616978e-20,-0.021337696143845956,-0.0037482774224968612,-0.0030287881524747057,3.8336443123520134e-08,-0.20693868606178983,0.003804713553702142,-0.17548565577192432
140,597762.508624,39.0,120,0.0,0.1561523766085603,1.0809481544881003,0.4999781255764338,0.0,-0.23429260301902088,0.0003600157918270952,-0.19932254685179984,0.0,1.7564330388217027,-0.003135309386832357,1.0672081500124126,9.465800080145623e-08,-0.17379867347795933,-3.9952675025694466e-05,-0.14895733768693384,2.4816439092526593e-20,-0.021073394965247922,-0.003911472777520035,-0.003106942888144181,9.465800080143142e-08,-0.1527252785127114,0.003871520102494341,-0.14585039479878967
141,597762.539967,38.0,120,0.0,0.1494656858456213,1.0809585176776997,0.49401143231730243,0.0,-0.17600612630740364,0.00026455682027393124,-0.15722210510043633,0.0,1.2398557232190934,-0.002482311258751112,0.9688910126753941,6.789449429897099e-08,-0.1323664949427282,-0.00013004151244241317,-0.11626648519482692,2.4180120141436206e-20,-0.020743142956914807,-0.004012731530253396,-0.0031498499241599887,6.789449429894681e-08,-0.1116233519858134,0.003882690017810983,-0.11311663527066693
142,597762.604742,37.0,120,0.0,0.14306256513691573,1.080966808229379,0.4882644727924711,0.0,-0.17866233791726982,0.00017917413353174538,-0.14457213605869867,0.0,-0.9447381959419432,-0.0034583253456689864,-0.3579968006316463,-4.399739234765452e-08,-0.1564169860756192,-0.00024638476382867207,-0.11942732899505858,2.354380119034621e-20,-0.02039232800002298,-0.004094911981436127,-0.003181113074723035,-4.3997392347678066e-08,-0.13602465807559624,0.0038485272176074555,-0.11624621592033554
143,597762.637132,40.0,120,0.0,0.1359830594332745,1.0809734406707223,0.4826772165377336,0.0,-0.22389946866909227,3.249604082000701e-05,-0.16512883861264704,0.0,-0.9263790050630023,-0.0047121857342581515,-0.17725662575176582,-3.982385034974848e-08,-0.19243937960898883,-0.00039084394810923314,-0.13406975573701108,2.837998134389097e-20,-0.022226069132259857,-0.004599381940402632,-0.003523504760052656,-3.982385034977686e-08,-0.17021331047672897,0.0042085379922933985,-0.13054625097695843
144,597762.669974,43.0,120,0.0,0.128452304206032,1.0809687711904474,0.47749949789678237,0.0,-0.2386638119999569,-0.000128378377286964,-0.1557185605908069,0.0,-0.5228423054441804,-0.006928029869462684,0.17668929568898184,-1.7835521142922742e-08,-0.20022130043675523,-0.0005529306271496912,-0.12300527156267776,3.050847994468245e-20,-0.024139662394101244,-0.005183029091986131,-0.003925753742608437,-1.7835521142953252e-08,-0.17608163804265398,0.004630098464836439,-0.11907951782006933
145,597762.702545,43.0,120,0.0,0.12037639633952651,1.0809650356062277,0.47249015288857765,0.0,-0.25806059555059635,-0.00041959167599259217,-0.15351177269071403,0.0,-0.23362345756176728,-0.008835190546219406,0.20976683438518196,-4.107274124900998e-09,-0.21285723757961603,-0.0008188433327638709,-0.12091293835786493,3.050847994468225e-20,-0.02439629093216984,-0.005432332583362845,-0.004067156091900066,-4.107274124931506e-09,-0.1884609466474462,0.004613489250598974,-0.11684578226596487
146,597762.734365,44.0,120,0.0,0.11185053868006925,1.0809422059446991,0.4676142968122812,0.0,-0.2542443667046803,-0.0006974420431440365,-0.14242230978103976,0.0,0.5978604239459813,-0.006680263625068721,0.5172603914681422,3.4729874974369535e-08,-0.2014850247926212,-0.001028397572481693,-0.10896857356781885,3.121797947827988e-20,-0.025234566120951138,-0.0058230458149990845,-0.004309400391088012,3.4729874974338313e-08,-0.17625045867167005,0.004794648242517392,-0.10465917317673083
147,597762.766705,43.0,120,0.0,0.1040784378481806,1.0809203087163306,0.46336367188967487,0.0,-0.2192007637464708,-0.0008460462109738387,-0.12014740749599007,0.0,0.6820482128831284,-0.0012349092482226154,0.5036736283389285,3.700221205652595e-08,-0.17262315070188905,-0.0011080948586531256,-0.09128859999009764,3.050847994468205e-20,-0.02489840676249889,-0.005923432816587589,-0.004340284582935566,3.700221205649544e-08,-0.14772474393939017,0.004815337957934464,-0.08694831540716208
148,597762.799851,44.0,120,0.0,0.09753043360574251,1.0808865260181695,0.45976474689703956,0.0,-0.2102351242321847,-0.0007728272524509805,-0.10974083620286734,0.0,-0.08614635428402195,0.005830965556796624,0.22314400349517705,1.664184818304486e-09,-0.17316870318351743,-0.0010004301856195523,-0.08577475520714528,3.121797947827935e-20,-0.025681143678104496,-0.00626181476366673,-0.004552141423920469,1.664184818273268e-09,-0.14748755950541292,0.005261384578047177,-0.08122261378322482
149,597762.831623,46.0,120,0.0,0.09046452930222516,1.0808694752929902,0.45624264563927464,0.0,-0.22383349058629798,-0.00047725850116719926,-0.10541695095347858,0.0,-0.3366078319228931,0.007168336632288441,0.18518179902114862,-8.699793056786236e-09,-0.18657407488049607,-0.0007674025560902024,-0.08269979060059482,3.263697854547423e-20,-0.02707207315825711,-0.006767553211468525,-0.004879327477146494,-8.699793056818873e-09,-0.15950200172223897,0.006000150655378323,-0.07782046312344833
150,597762.864417,48.0,120,0.0,0.08307541094740681,1.0808558347128467,0.4529696912432466,0.0,-0.23177873871230426,-0.0003144294538799386,-0.09768243287508316,0.0,-0.35421175609179745,0.005249803106299106,0.27832172278623646,-8.279049990622097e-09,-0.19312194697191407,-0.0006710785290563314,-0.07558451464280702,3.4055977612668896e-20,-0.02848633712494783,-0.007297421702682889,-0.005217229604202555,-8.279049990656153e-09,-0.16463560984696624,0.006626343173626558,-0.07036728503860447
151,597762.896507,50.0,120,0.0,0.07543479500727218,1.0808489324492325,0.44990166432577405,0.0,-0.24666025438649664,-0.0001370266845981405,-0.08741748034632923,0.0,-0.538428021842881,0.0077311795573444565,0.37720010797910364,-1.4206885952972547e-08,-0.20688960594717148,-0.0005210075546896295,-0.06638797800516766,3.547497667986379e-20,-0.029922683387543614,-0.007850450903691636,-0.005565477407754852,-1.4206885953008021e-08,-0.17696692255962787,0.007329443349002006,-0.06082250059741281
152,597762.928791,51.0,120,0.0,0.0671935721368898,1.0808470441374864,0.4473454654766562,0.0,-0.2664685695854869,0.00018411480526125956,-0.07337824570151419,0.0,-0.4951935010258617,0.006727394733646604,0.43456701206320303,-1.1121904772512806e-08,-0.2223187915145359,-0.00028950617200590494,-0.054586486681668364,3.618447621346081e-20,-0.030783716536468293,-0.008271022530727316,-0.005810651370884297,-1.112190477254899e-08,-0.1915350749780676,0.007981516358721411,-0.04877583531078407
153,597762.962513,52.0,120,0.0,0.057813354070178895,1.0808617984035562,0.4450753128968431,0.0,-0.27899797991407793,0.00029755478525217427,-0.05873433105406356,0.0,0.06372900617302513,-0.0008525378687037149,0.48874327122830097,1.1923964416361007e-08,-0.2267555554269158,-0.0002868215341775641,-0.042331888285118864,3.689397574705776e-20,-0.03168060556434048,-0.00872952418810569,-0.006070871001549229,1.1923964416324113e-08,-0.19507494986257534,0.008442702653928125,-0.03626101728356963
154,597762.99381,52.0,120,0.0,0.049057305785312665,1.0808670453054865,0.4434864764565431,0.0,-0.26436017034009707,0.0001483984364121227,-0.04185541761288558,0.0,0.7417624850697386,0.000809706156688403,0.7687022257611055,4.047428356509603e-08,-0.20826169772198858,-0.0003988199905887714,-0.02603046049506538,3.6893975747057507e-20,-0.03194523206558544,-0.00899880887327516,-0.006200173912955795,4.0474283565059137e-08,-0.17631646565640313,0.008599988882686389,-0.019830286582109585
155,597763.026534,52.0,120,0.0,0.040933741983982405,1.0808712428270308,0.4424216989798707,0.0,-0.2307096167313175,0.00036566834837969964,-0.008851647172422261,0.0,1.1515113826891348,0.005982707702147867,1.0809332505766054,5.776492597080894e-08,-0.1772460961467361,-0.00018383717502885947,0.003493207018802915,3.8122050264804197e-20,-0.032042396223229914,-0.009101867971972013,-0.006173543399224069,5.7764925970770816e-08,-0.14520369992350618,0.008918030796943154,0.009666750418026983
156,597763.058605,53.0,120,0.0,0.034085803674804106,1.0808904318379187,0.4428823080955634,0.0,-0.1899072804593392,0.0005368971513952658,0.028090062277828842,0.0,2.01451993413792,0.0010035447596314943,1.2741225690115423,9.061576852911987e-08,-0.13596153166787994,-0.00010015153602195662,0.034979027316270346,3.885516661605014e-20,-0.03284397366241059,-0.009468544844436013,-0.006372885969357713,9.061576852908101e-08,-0.10311755800546935,0.009368393308414056,0.04135191328562806
157,597763.090924,51.0,120,0.0,0.028717371517513697,1.0809057830466289,0.4442372534512432,0.0,-0.10062508889001065,0.00042812786930568336,0.07324997549520784,0.0,3.2091433951902695,-0.001437108845435033,1.565325015297259,1.3610516885981223e-07,-0.05256458347125634,-0.0002086643439195254,0.07402140784159528,3.7388933913558154e-20,-0.031731343589791634,-0.009243468948842877,-0.006180979124564367,1.3610516885977482e-07,-0.020833239881464703,0.009034804604923351,0.08020238696615964
158,597763.12312,52.0,120,0.0,0.0275778980175307,1.0809180640135971,0.4476003387641074,0.0,0.017020947654410423,0.0004437085951032316,0.1290357544670071,0.0,3.1757257006607342,0.00039450975651626145,1.5101096176465445,1.3386791054799885e-07,0.04121618427797189,-0.00017928478172457362,0.11809846920553006,3.812205026480352e-20,-0.03234251978672903,-0.009414973627218416,-0.006274487212258546,1.3386791054796074e-07,0.07355870406470091,0.009235688845493842,0.12437295641778862
159,597763.155476,53.0,120,0.0,0.029832921481935552,1.0809344452980971,0.45257465434639943,0.0,0.10422091004237588,0.0004535655763788782,0.17065916793057845,0.0,1.9932437388256512,-0.0012666571829650598,0.9139591365899773,8.50386920638628e-08,0.09912257770010192,-0.00019498141462820888,0.1454341450203925,3.885516661605028e-20,-0.032838481879635825,-0.009467494743850745,-0.006303480543130623,8.503869206382394e-08,0.13196105957973775,0.009272513329222536,0.15173762556352313
160,597763.188221,54.0,120,0.0,0.03438980678264966,1.080947550325697,0.45872366581415563,0.0,0.1462338469879924,0.00036001812705066527,0.1882438916305258,0.0,0.8627990148620193,-0.0057149893896922595,0.31379654372960397,3.7592007849826716e-08,0.12140550295606155,-0.00031621319523227043,0.15350010049310758,3.83129748142527e-20,-0.03339508948092281,-0.009578307842424218,-0.0064302184855336815,3.75920078497884e-08,0.15480059243698435,0.009262094647191948,0.15993031897864127
161,597763.221007,53.0,120,0.0,0.03941635188595192,1.0809580343477767,0.4649105024660065,0.0,0.16072651142775918,7.88220929770489e-05,0.19120425343456038,0.0,-0.18635630484964993,-0.01101190444196841,-0.2146537283011143,-7.409959141728987e-09,0.12248852126064014,-0.0005942738600080539,0.1505841925449496,3.76034752806549e-20,-0.03255631148766845,-0.009175912554307553,-0.006168003979575922,-7.409959141766591e-09,0.1550448327483086,0.008581638694299499,0.15675219652452552
162,597763.253017,53.0,120,0.0,0.04479287338960756,1.0809530272096668,0.4711091015596735,0.0,0.13512243031462579,-0.00034977454015816534,0.1748028656937617,0.0,-1.068903237647244,-0.008856505775582463,-0.7467124497721684,-4.737741048966128e-08,0.09316562934441541,-0.0009134992881316341,0.13214345804833377,3.760347528065485e-20,-0.03232488201403215,-0.008940143066584695,-0.0060196388084962985,-4.737741048969888e-08,0.12549051135844758,0.00802664377845306,0.13816309685683006
163,597763.285331,52.0,120,0.0,0.04808790473309031,1.0809354173350554,0.4761430111614504,0.0,0.0918060352933121,-0.00048809466245103295,0.14302957316310572,0.0,-0.7541214179157343,-0.0006930613970833549,-0.7932103959283732,-3.618102669655801e-08,0.06167644638211474,-0.0009318168420084988,0.10626363829108494,3.689397574705753e-20,-0.03155984070890661,-0.008614041409175507,-0.005801005168738227,-3.61810266965949e-08,0.09323628709102136,0.007682224567167008,0.11206464345982317
164,597763.318055,52.0,120,0.0,0.050755367681716845,1.080921329435366,0.48040093637209247,0.0,0.08655974914595865,-0.0003918895036534309,0.12337088317435896,0.0,0.0266314366524536,0.0027097639377829993,-0.6559376444837575,-4.225317297859783e-09,0.06531492975470085,-0.0008065055724756848,0.09191424830126192,3.689397574705777e-20,-0.03143142512877113,-0.008483961056686732,-0.005713340597815298,-4.2253172978966766e-09,0.09674635488347198,0.007677455484211047,0.09762758889907722
165,597763.34986,52.0,120,0.0,0.05366437485244669,1.0809100591156144,0.4841162348326135,0.0,0.09318574485199249,-0.0003128192618930825,0.1008025975249609,0.0,-0.2196903277454625,0.005362185339369036,-0.987893608888824,-1.6972227957371874e-08,0.06815132159738806,-0.0007131853417510584,0.07054140519600256,3.689397574705741e-20,-0.031302573343979304,-0.008353479878052942,-0.005629203742934538,-1.697222795740877e-08,0.09945389494136736,0.007640294536301883,0.0761706089389371
166,597763.383371,54.0,120,0.0,0.056847920520518604,1.0809010428598134,0.4869288595148793,0.0,0.07071087607443982,-3.1576597383065064e-05,0.057870560436993124,0.0,-1.0428160090610963,0.0062663755155762954,-1.376911701306128,-5.382168787391579e-08,0.041923292082485596,-0.0004812674637502597,0.03230497347452015,3.8312974814252053e-20,-0.032376063762585956,-0.008542692223521447,-0.005766387371240515,-5.38216878739541e-08,0.07429935584507155,0.008061424759771188,0.03807136084576067
167,597763.415217,54.0,120,0.0,0.058364699088267,1.0809072242109465,0.4879831076962845,0.0,0.026238874583678018,0.0001036365064415179,0.011122800237195918,0.0,-1.8071325036824393,0.0006837096315059078,-1.544655381452857,-8.664688770089128e-08,-0.0013157390537983076,-0.0004337129696862126,-0.006772162061700111,3.8312974814252486e-20,-0.03231722455759171,-0.008483165836673244,-0.005732177962953094,-8.664688770092959e-08,0.031001485503793398,0.008049452866987031,-0.0010399840987470174
168,597763.447119,55.0,120,0.0,0.05851819854695122,1.0809076393388501,0.4876354516588129,0.0,-0.04453624154320224,1.1609214034535853e-05,-0.04060673152682792,0.0,-2.51114888127164,-0.0014978826919406036,-1.7530337407629077,-1.1676232227938885e-07,-0.0649957009625665,-0.0005363495817432705,-0.05024187921039743,3.902247434784903e-20,-0.03291577371445773,-0.008640275816357177,-0.005840950071523375,-1.1676232227942787e-07,-0.03207992724810877,0.008103926234613907,-0.04440092913887406
169,597763.479764,57.0,120,0.0,0.05541583348158565,1.080907971441173,0.48531740316092786,0.0,-0.13628816794985288,9.037461584426865e-06,-0.10222798339480921,0.0,-2.6094466046907314,-6.495396918562e-05,-2.0025588654869173,-1.2116885816417627e-07,-0.13939011264237972,-0.0005318785064109894,-0.10203650147569904,4.0441473415043894e-20,-0.0342414920864874,-0.009084782328358269,-0.0061292371240801126,-1.2116885816421672e-07,-0.10514862055589232,0.00855290382194728,-0.09590726435161892
170,597763.513558,57.0,120,0.0,0.049366877103968004,1.080908237123031,0.4807705200381265,0.0,-0.21743488699741076,7.326067155588589e-06,-0.17392352503989628,0.0,-1.5530888069983662,-4.537296331589755e-05,-1.9325182532786924,-7.554963212848534e-08,-0.1937273820002885,-0.0005348809978446187,-0.15869303817763442,4.044147341504461e-20,-0.03449168005667668,-0.009338656605413631,-0.006277068170176454,-7.554963212852579e-08,-0.1592357019436118,0.008803775607569012,-0.15241597000745796
171,597763.544664,57.0,120,0.0,0.041502743576130596,1.0809084496685175,0.47423303537902717,0.0,-0.2414618327400364,6.065556675594053e-06,-0.2286242184544367,0.0,-0.10165518027196763,0.004153796395554745,-1.5085931511993427,-1.300832787864897e-08,-0.19840984441057233,-0.0004952055616931237,-0.1982147092898874,4.044147341504431e-20,-0.0348230081777898,-0.009676153247130188,-0.0064768657480168135,-1.300832787868941e-08,-0.16358683623278253,0.009180947685437063,-0.1917378435418706
172,597763.576932,58.0,120,0.0,0.03409135782229807,1.0809086197049067,0.4662379953331747,0.0,-0.22228920492592547,0.000280498423737896,-0.26893741576262453,0.0,0.7300177818635594,0.004896897642831173,-1.1050403019761035,2.2468172490792193e-08,-0.17474664431496542,-0.00027550282974175697,-0.2264322705326172,4.115097294864128e-20,-0.035774412824102056,-0.010193748826901862,-0.006806468798412757,2.2468172490751042e-08,-0.13897223149086335,0.009918245997160105,-0.21962580173420443
173,597763.609605,58.0,120,0.0,0.027073086248338964,1.0809268898511446,0.45675071740682915,0.0,-0.19394301947927522,0.00032113424573410043,-0.30026903715897557,0.0,1.0348746643429965,-0.003185277546099029,-0.5553887471577719,3.7768888045467335e-08,-0.14902630853600088,-0.0003357867659722741,-0.2460053645472407,4.2520748372281056e-20,-0.03596265592596034,-0.010390260458718015,-0.006878603044788539,3.776888804542481e-08,-0.11306365261004053,0.01005447369274574,-0.23912676150245216
174,597763.641841,57.0,120,0.0,0.021484600329008542,1.0809296708698684,0.4467564258141199,0.0,-0.15526176993542717,7.759029483267454e-05,-0.3053374937175626,0.0,1.1299299139549226,-0.005105100851738924,0.24745639322406454,4.70641641062682e-08,-0.11713838283733755,-0.0005608902495074063,-0.2420360459167896,4.178763202103502e-20,-0.03564436214392572,-0.010520225874867227,-0.00697169857605145,4.706416410622641e-08,-0.08149402069341183,0.009959335625359821,-0.23506434734073814
175,597763.674134,56.0,120,0.0,0.01705626471423964,1.0809318956848473,0.4370481302867634,0.0,-0.12103776025989574,-8.013267679629621e-06,-0.2842547484981939,0.0,0.8931522518041788,-0.006659019947078387,0.7708512590125487,4.1565992713240064e-08,-0.09214230459908096,-0.0006575427398759649,-0.2199409309730231,4.1054515669788417e-20,-0.035275753288842616,-0.010598665325479926,-0.007036632065857919,4.156599271319901e-08,-0.05686655131023834,0.009941122585603961,-0.2129042989071652
176,597763.707859,55.0,120,0.0,0.013541039195065954,1.0809289167019915,0.4280384389980875,0.0,-0.09678549579879048,-0.0003737588341188314,-0.2541020101308602,0.0,0.6270143641206467,-0.008424563324384791,1.014197028892435,3.2930048662650286e-08,-0.07541706505857385,-0.0009793214787130985,-0.19339003444094346,4.0321399318542416e-20,-0.03486154083949668,-0.010630344922067719,-0.007072823201202327,3.2930048662609966e-08,-0.04055552421907717,0.00965102344335462,-0.18631721123974113
177,597763.739051,55.0,120,0.0,0.010736933178810856,1.0809090240552577,0.42048896300190636,0.0,-0.07988479279515151,-0.0005667117980792113,-0.21900179673496467,0.0,0.538362328086793,0.0014974404120788988,1.2077630506951578,3.1145138936766105e-08,-0.06279172633212401,-0.0010424630824996195,-0.16337769528635013,4.0321399318542807e-20,-0.035037731703988884,-0.010810922274948247,-0.007205996935928169,3.1145138936725785e-08,-0.02775399462813513,0.009768459192448627,-0.15617169835042197
178,597763.771316,58.0,120,0.0,0.008493648365806777,1.0808931099378707,0.41419151582236247,0.0,-0.06263020304263815,-0.00026196354294683033,-0.17728097053848124,0.0,0.4565268545153216,0.008353874279401406,1.1154634513941435,2.712406994188784e-08,-0.04981446730829654,-0.0007371643985904496,-0.13092710730271598,4.25207483722811e-20,-0.037100231539279896,-0.011555805018721239,-0.007714277781754006,2.712406994184532e-08,-0.012714235769016646,0.01081864062013079,-0.12321282952096198
179,597763.804043,59.0,120,0.0,0.006672889175566649,1.0808922137422279,0.4089837742480847,0.0,-0.05028702052143258,-2.4792372773418947e-05,-0.14667087721573147,0.0,0.3371092726016047,0.0047992986110152345,0.8367929587374414,1.9950176651525583e-08,-0.04114279182202962,-0.000589682566237578,-0.10922857872205582,4.3253864723527815e-20,-0.03786525216366072,-0.011883675431316859,-0.007943145201987991,1.995017665148233e-08,-0.003277539658368904,0.01129399286507928,-0.10128543352006783
180,597763.836281,60.0,120,0.0,0.005221561049835973,1.0808914967857135,0.40465095143582125,0.0,-0.04069102610737367,5.219881713713903e-05,-0.12282308010560605,0.0,0.2706279248409108,0.006408871922422681,0.6647527846611507,1.594706578854082e-08,-0.03413680128858959,-0.0005169703272905253,-0.09187292366527888,4.3986981074773653e-20,-0.03861080440126201,-0.01219157615438734,-0.008157703226814866,1.5947065788496834e-08,0.004474003112672417,0.011674605827096816,-0.08371522043846402
181,597763.869027,61.0,120,0.0,0.004033055576609993,1.0808956820553408,0.4010140951559202,0.0,-0.03272821740744502,0.00039579893520880205,-0.10354937135969244,0.0,0.23782594191441658,0.008044236620525882,0.6175556923327388,1.4290981178373837e-08,-0.028098607762779247,-0.0002294237253718265,-0.07692759770995729,4.472009742601971e-20,-0.03934154018686608,-0.012484293325964606,-0.008361176542000885,1.4290981178329116e-08,0.011242932424086832,0.01225486960059278,-0.0685664211679564
182,597763.900822,59.0,120,0.0,0.0031025642677192282,1.080916539731492,0.3979536887872423,0.0,-0.025331487268510318,0.0005759715993782777,-0.08301972580422134,0.0,0.20738327719001381,0.0012416777078178053,0.6074598039274692,1.2732510753308899e-08,-0.022488965562357098,-0.00015628623744070816,-0.06060621575892269,4.325386472352715e-20,-0.03811986317899907,-0.01214495045538556,-0.008140668840776513,1.2732510753265646e-08,0.01563089761664197,0.011988664217944853,-0.05246554691814617
183,597763.934854,58.0,120,0.0,0.0023837789406240496,1.0809332258724127,0.39561045025731767,0.0,-0.01919376358467716,0.0004570408647346369,-0.06373916386892287,0.0,0.14324320918896927,-0.002933952585257366,0.46241121336080737,8.97267107293822e-09,-0.018224260738792762,-0.00029613353336688095,-0.04663352913052026,4.2520748372281875e-20,-0.03752516360904472,-0.01199186188028876,-0.008043046613982384,8.9726710728957e-09,0.019300902870251956,0.011695728346921879,-0.03859048251653788
184,597763.966157,58.0,120,0.0,0.0018384433159835296,1.0809465747851497,0.39376249317284934,0.0,-0.015778275565997882,0.00038134409759749133,-0.052262530235010374,0.0,0.11722027910520616,-0.002549884123493113,0.3867169511487183,7.3844333485009255e-09,-0.015754447649979686,-0.00035478544817596464,-0.03821005255541592,4.252074837228113e-20,-0.037565006620130174,-0.012032744173788152,-0.008074532469085093,7.384433348458405e-09,0.02181055897015049,0.011677958725612187,-0.03013552008633083
185,597763.997989,58.0,120,0.0,0.001389370406200002,1.080957253915339,0.3923180806951246,0.0,-0.011784408680389538,0.00029591342639534446,-0.03930235807121907,0.0,0.10949953163770565,-0.002273643807648759,0.34710287666451434,6.7579964185816105e-09,-0.012638023690127105,-0.00042175682459257073,-0.028238702535237005,4.252074837228108e-20,-0.037596764062092856,-0.01206536314478073,-0.008099408967909453,6.75799641853909e-09,0.02495874037196575,0.01164360632018816,-0.020139293567327552
186,597764.031608,62.0,120,0.0,0.001075678105775126,1.0809657972194904,0.3912124314559715,0.0,-0.00867009145453178,0.00023403887578510307,-0.029764906005010694,0.0,0.29669650113816926,-0.0015899793796205481,0.32829805601264805,1.3314516656510771e-08,-0.008270322564120185,-0.00046349007276444074,-0.020796674815250334,4.545321377726637e-20,-0.040214663721003206,-0.012923123109153544,-0.00867789442434992,1.3314516656465318e-08,0.03194434115688302,0.012459633036389103,-0.012118780390900414
187,597764.063389,60.0,120,0.0,0.0008199840384213988,1.0809726318628117,0.39036029049978394,0.0,0.0068899200010039165,0.00019103316470037157,-0.01799115365306747,0.0,0.6801117258388202,-0.0012724154073959822,0.43369913472530897,2.7907788163768122e-08,0.008022055176955901,-0.0004914284006071951,-0.010322758349763844,4.398698107477422e-20,-0.03893647229176341,-0.012525815910252307,-0.008412984087475296,2.7907788163724136e-08,0.04695852746871931,0.012034387509645111,-0.001909774262288548
188,597764.096295,64.0,120,0.0,0.0015555658383782796,1.0809780995774685,0.39006883795440783,0.0,0.03576053153794291,0.0001519150984172768,-0.0015654153717976627,0.0,1.2708145477326933,-0.0010487914094652706,0.6533806741176044,5.102544067045975e-08,0.03704354531558832,-0.0005129755986806658,0.005016759186415798,4.691944647975915e-20,-0.04151282103836649,-0.01333988823065216,-0.008967307885930899,5.102544067041283e-08,0.0785563663539548,0.012826912631971494,0.013984067072346697
189,597764.127943,62.0,120,0.0,0.0030953834059386574,1.0809824737491942,0.39024124141836636,0.0,0.08795508854812914,0.00012298399987997755,0.02380660864039985,0.0,1.7355544110113694,-0.0008781164642795122,0.8725623416576946,7.014388689802346e-08,0.08346248901566448,-0.0005265294727319207,0.02750832500366656,4.545321377726672e-20,-0.040165302942455954,-0.01286964637998307,-0.008662866794158229,7.014388689797801e-08,0.12362779195812043,0.012343116907251149,0.03617119179782479
190,597764.160559,64.0,120,0.0,0.007285161177900177,1.0809859730865745,0.3916348325912513,0.0,0.14746389701325452,9.555465473631841e-05,0.05464822947102821,0.0,1.5940347030116653,-0.00068939465088186,0.8720229526362313,6.652977922886982e-08,0.12965744183473593,-0.0005399535967107041,0.05217757241894922,4.6919446479758746e-20,-0.04130609361023764,-0.013121484772858474,-0.0088607867657738,6.65297792288229e-08,0.17096353544497356,0.01258153117614777,0.06103835918472302
191,597764.194089,64.0,120,0.0,0.012884760385876541,1.0809887725564788,0.3938781001332885,0.0,0.19296686229405752,7.766427863487024e-05,0.08135105932593412,0.0,0.8306389627435786,-0.0004903830121080731,0.5830168468013723,3.791991758093311e-08,0.15841358056297403,-0.0005495416685861709,0.07064973630746837,4.691944647975853e-20,-0.041092271363191456,-0.012897145404067013,-0.008745831195977362,3.791991758088619e-08,0.1995058519261655,0.012347603735480842,0.07939556750344573
192,597764.225074,68.0,120,0.0,0.019607276036243154,1.0809910121324022,0.3968124479582696,0.0,0.20363047208482749,6.370614843120848e-05,0.09330639465899715,0.0,-0.09837057139126415,-0.00043855095986905556,0.20806147104690287,1.0535854320795035e-09,0.15763949007375988,-0.0005571040552793804,0.07646443450969591,4.985191188474343e-20,-0.04338187064629697,-0.0134123747966562,-0.009141289225861188,1.0535854320296516e-09,0.20102136072005686,0.01285527074137682,0.0856057237355571
193,597764.257869,66.0,120,0.0,0.025822648431977045,1.080992803793141,0.3998239815656971,0.0,0.18504405956780323,4.973794372631346e-05,0.09395885483191524,0.0,-1.2750072612805532,-0.0003622893642066474,-0.1985790460921375,-4.700460185579532e-08,0.1309816220607933,-0.0005678920520724204,0.07291908277509736,4.8385679182250416e-20,-0.041849231256629205,-0.012751435674377613,-0.008731481036736889,-4.700460185584371e-08,0.1728308533174225,0.012183543622305193,0.08165056381183425
194,597764.289733,65.0,120,0.0,0.03158025937368108,1.080994237121732,0.40288382414377777,0.0,0.1224898421490122,4.016407305584835e-05,0.08086749678877592,0.0,-2.4197285390144163,-0.00028554733654071704,-0.598395804929624,-9.55875638085412e-08,0.06946901192942949,-0.0005757129767194324,0.05844689994799848,4.7652562831004765e-20,-0.040975095312951626,-0.012310263076571612,-0.008465854272608032,-9.558756380858886e-08,0.11044410724238111,0.01173455009985218,0.06691275422060651
195,597764.322268,66.0,120,0.0,0.03363194033674107,1.080995383784605,0.4050112076075637,0.0,0.028596798714342675,3.1369204867459644e-05,0.05516842830390889,0.0,-2.1657236668046744,-0.00022686482793464404,-0.4082852520132355,-8.568359116577214e-08,-0.0030936290828596355,-0.0005750175412611302,0.03979102213704678,4.83856791822512e-20,-0.041502181554260845,-0.012393722173745061,-0.008531691614084238,-8.568359116582053e-08,0.03840855247140121,0.011818704632483931,0.048322713751131015
196,597764.355773,67.0,120,0.0,0.03340093524145449,1.080996301114903,0.40650702655091,0.0,-0.0191165621877164,2.5267479973223317e-05,0.054655687676485876,0.0,-0.9244201261916587,-0.00016746526802202747,0.3558677362721715,-3.199022073309619e-08,-0.028814755787450432,-0.0005654664646586697,0.04702711899596634,4.911879553349792e-20,-0.042115606375265645,-0.01256640409263739,-0.008641132541603834,-3.199022073314531e-08,0.013300850587815213,0.01200093762797872,0.05566825153757017
197,597764.387295,68.0,120,0.0,0.03243588535447808,1.0809970349791418,0.4085267741662193,0.0,-0.0334384273021085,2.042306378058356e-05,0.07688093701434084,0.0,-0.6632204748802593,-0.00014027337528754112,0.8562387649869483,-1.76530048413828e-08,-0.0376525231754027,-0.000566580636339131,0.06981254314957912,4.985191188474324e-20,-0.04274623946592142,-0.012757269702805826,-0.008753314289871129,-1.7653004841432654e-08,0.005093716290518718,0.012190689066466694,0.07856585743945024
198,597764.421121,69.0,120,0.0,0.03120231565354182,1.0809976220705326,0.41159221205567753,0.0,-0.06345436695577061,1.6164948366537146e-05,0.11133121645800426,0.0,-0.7823930882895606,-0.00010743575616507323,1.1142027649696606,-1.970975877875218e-08,-0.06286055876909286,-0.0005715263651821531,0.09995284296837119,5.058502823598943e-20,-0.04336964372608253,-0.01294134223038438,-0.008852435613949126,-1.9709758778802764e-08,-0.01949091504301033,0.012369815865202227,0.10880527858232031
199,597764.452293,68.0,120,0.0,0.028449102103045392,1.0809980917436455,0.4156574771678879,0.0,-0.08482773502864865,1.3345878322468252e-05,0.14881360016093392,0.0,-0.2824803444643784,-8.930098039850606e-05,1.3333320675937457,1.3645575611825136e-09,-0.07494902233426283,-0.0005718211965496768,0.13213215871538983,4.985191188474309e-20,-0.04277365469704619,-0.012790208476092491,-0.008703224551519607,1.3645575611326617e-09,-0.03217536763721664,0.012218387279542813,0.14083538326690945
200,597764.484826,66.0,120,0.0,0.025808087397952525,1.0809984674821358,0.42112355954459785,0.0,-0.08032836649458563,1.0479186286715958e-05,0.19663520891506625,0.0,-0.1231166439708895,-7.718254924983688e-05,1.1780472132127193,6.085204722858818e-09,-0.06975460851332796,-0.0005756727277350074,0.16883789421745637,4.8385679182251554e-20,-0.04152140748562843,-0.012423633444530941,-0.008403499077021708,6.085204722810432e-09,-0.02823320102769953,0.011847960716795935,0.17724139329447808
201,597764.5167,64.0,120,0.0,0.023274282481803715,1.0809987680729278,0.4282848237118044,0.0,-0.09241624896900519,8.360516956074093e-06,0.22506890745890207,0.0,-0.5774147823869369,-5.9408958765416584e-05,0.4711076483111545,-1.692615813027575e-08,-0.0839843355496943,-0.0005852408967842444,0.1845150895830729,4.691944647975898e-20,-0.04023944760612597,-0.012027150231480675,-0.008079223783742828,-1.6926158130322672e-08,-0.043744887943568324,0.01144190933469643,0.1925943133668157
202,597764.549885,63.0,120,0.0,0.01976100083388624,1.0809990085455616,0.4357673738925392,0.0,-0.11842469621232538,6.632994022481853e-06,0.2261585506376198,0.0,-0.353858470297582,-4.524970539549931e-05,-0.19769596657858646,-1.407008541149042e-08,-0.10255471196046752,-0.000589389364193243,0.17870026727216082,4.6186330128512444e-20,-0.0396140831304119,-0.011847983428285273,-0.007894062742915793,-1.4070085411536606e-08,-0.06294062883005562,0.01125859406409203,0.1865943300150766
203,597764.581711,63.0,120,0.0,0.0156088006576095,1.0809992009236686,0.4429858104013391,0.0,-0.11656543811032166,5.400664075949635e-06,0.2128302492628391,0.0,0.402115129465934,-3.680977450585674e-05,-0.7806697032185079,8.87857540507773e-09,-0.0934929894243018,-0.000589050244724015,0.16221074586255735,4.618633012851208e-20,-0.03964160677225235,-0.011882307960446913,-0.007848459640833822,8.878575405031543e-09,-0.05385138265204945,0.011293257715722899,0.17005920550339118
204,597764.614151,63.0,120,0.0,0.012287040516588108,1.080999354826154,0.4494277906912953,0.0,-0.09215623565670908,4.269746497698179e-06,0.1755393521580979,0.0,0.6545578031796537,-3.0326714963520815e-05,-1.3422105154978103,1.286758881971859e-08,-0.07143920944693893,-0.0005923828795985674,0.12676398888839052,4.618633012851219e-20,-0.03965323245545009,-0.011899718947252077,-0.0078019785230119985,1.2867588819672404e-08,-0.03178597699148884,0.011307336067653509,0.13456596741140253
205,597764.646592,62.0,120,0.0,0.009629632403770997,1.0809994779481427,0.4543749330439878,0.0,-0.07409726897522292,3.4330455491726752e-06,0.12574590337557545,0.0,0.5133249083696118,-2.3783167917096215e-05,-1.5307689752062255,5.702386577062817e-09,-0.05841141539363835,-0.000597917982769051,0.08504383907946189,4.545321377726677e-20,-0.039035698754148425,-0.011727488977252912,-0.007644521698083056,5.7023865770173636e-09,-0.019375716639489927,0.01112957099448386,0.09268836077754494
