SII-Hqs/linker_mujoco/src/linker_hand_mujoco_ros2/retargeting_data/linker_l20a_052202/l20a_dynamics_torque.csv
frame_idx,timestamp,fsr_force_g,contact_point_count,qpos_index_joint0,qpos_index_joint1,qpos_index_joint2,qpos_index_joint3,qvel_index_joint0,qvel_index_joint1,qvel_index_joint2,qvel_index_joint3,qacc_index_joint0,qacc_index_joint1,qacc_index_joint2,qacc_index_joint3,tau_motion_no_contact_index_joint0,tau_motion_no_contact_index_joint1,tau_motion_no_contact_index_joint2,tau_motion_no_contact_index_joint3,tau_contact_fsr_index_joint0,tau_contact_fsr_index_joint1,tau_contact_fsr_index_joint2,tau_contact_fsr_index_joint3,tau_required_with_fsr_index_joint0,tau_required_with_fsr_index_joint1,tau_required_with_fsr_index_joint2,tau_required_with_fsr_index_joint3
0,98523.583638,39.0,120,0.0,0.3441099593639374,0.36176901888847357,0.47197806406021126,0.0,-0.19303765393250227,0.044109336836315016,0.07598969988476156,0.0,-2.5898013251846157,2.429016902084575,2.14904224572322,-2.4354644202338424e-08,-0.18514550769832216,0.058332153882577426,0.0819298040088224,-2.4930179503055157e-20,-0.030769150716598262,-0.01416508837252405,-0.007319414344080675,-2.4354644202313493e-08,-0.15437635698172392,0.07249724225510147,0.08924921835290307
1,98523.61582,40.0,120,0.0,0.33643859820365907,0.3646109126567841,0.4756717921733856,0.0,-0.28371091097411405,0.1325045322479026,0.15356272768563883,0.0,-3.0452280088311503,3.0644387802425674,2.6718531477857814,-1.8323168241133004e-08,-0.2622575782192172,0.13539577679130382,0.14921603737158842,-2.5569414874927885e-20,-0.031651357379906826,-0.014586246912888666,-0.007515280287744761,-1.8323168241107434e-08,-0.23060622083931037,0.1499820237041925,0.15673131765933318
2,98523.649042,40.0,120,0.0,0.3254583070421219,0.3705287617492676,0.48210366022109985,0.0,-0.39268904357580325,0.24520740748899428,0.2512920920525863,0.0,-2.7429913767478435,3.4286039776016928,2.8156539847704383,1.288767250948709e-08,-0.3464165760085605,0.2292019338988396,0.22883988660035343,-2.5569414874928183e-20,-0.031742251002481146,-0.014628358164422196,-0.007505405557944189,1.288767250951266e-08,-0.3146743250060794,0.24383029206326182,0.2363452921582976
3,98523.680232,40.0,120,0.0,0.3113896687622071,0.3801409480609894,0.49163073858833317,0.0,-0.46250931462306166,0.35320520500281916,0.3354212419483371,0.0,-1.4493429747177613,3.1154737980969873,2.2545799898164853,6.102181009705523e-08,-0.3893118393643722,0.3124807309596967,0.2905375391797522,-2.5569414874928345e-20,-0.031810663905425564,-0.014637284284035637,-0.007468719615663209,6.10218100970808e-08,-0.3575011754589466,0.32711801524373235,0.2980062587954154
4,98523.713062,39.0,120,0.0,0.29580992796382904,0.39329251866645815,0.5036782082813263,0.0,-0.482819337415588,0.4434916075847539,0.3941399652049471,0.0,-0.259311681730253,1.970124485406803,1.3015932043728364,7.241336823571511e-08,-0.39365019995018663,0.37326270617170243,0.32798638554492654,-2.4930179503054922e-20,-0.031031562460805306,-0.014227155568055863,-0.007213632220120846,7.241336823574004e-08,-0.36261863748938133,0.3874898617397583,0.3352000177650474
5,98523.745039,39.0,120,0.0,0.2801135066220093,0.40881007966285704,0.5171280095495605,0.0,-0.4799195807894927,0.4821964459825212,0.4205935807885499,0.0,0.5765583977528559,0.19041673067974507,0.21764810902392284,4.466891965110853e-08,-0.38298118788125585,0.38642875900860213,0.3383116856998553,-2.493017950305451e-20,-0.03099461257867338,-0.014133516653300572,-0.007118214357405477,4.4668919651133455e-08,-0.3519865753025825,0.4005622756619027,0.34542990005726076
6,98523.77728,40.0,120,0.0,0.26499625588011166,0.42425657913594056,0.5306878788882752,0.0,-0.4455363088068469,0.4551790169630685,0.407793682369336,0.0,1.1551538716753393,-0.9615032812867463,-0.4415434216224332,2.5524131180059997e-08,-0.3496948069783722,0.3532972797713261,0.3214824596702633,-2.631881051803401e-20,-0.03189197365240554,-0.014546572252796085,-0.007354749269291221,2.5524131180086315e-08,-0.31780283332596665,0.3678438520241222,0.3288372089395545
7,98523.810491,40.0,120,0.0,0.2509982376857712,0.4385553618709931,0.5437937461228577,0.0,-0.40413776669737667,0.4190209003062808,0.39160598011794967,0.0,1.211849483386457,-1.3100469200981912,-0.6349450703948953,1.2697585698288845e-08,-0.3160193987670548,0.3208863761945883,0.3066008192829428,-2.6318810518033788e-20,-0.031832388911276925,-0.014442399795851843,-0.007253645768319726,1.2697585698315165e-08,-0.2841870098557779,0.33532877599044014,0.3138544650512625
8,98523.842373,40.0,120,0.0,0.23864452358596436,0.4515619210752399,0.5561865490986035,0.0,-0.3665630512626401,0.37048059908792563,0.3668474790548011,0.0,1.1554205638082795,-1.8098346744407499,-0.9668311449162283,-1.052601758219205e-08,-0.28653886835107717,0.27705460089806794,0.2834768353309023,-2.6318810518034005e-20,-0.0317626120840083,-0.014336103103591376,-0.0071540128462977345,-1.0526017582165731e-08,-0.25477625626706885,0.29139070400165934,0.29063084817720003
9,98523.875003,41.0,120,0.0,0.22738218459695902,0.46239908038398037,0.5674267230282725,0.0,-0.3296342915774937,0.30182994855802736,0.3289457947805108,0.0,1.0306833563918616,-1.8041699369211202,-1.0621809835750664,-1.842411040435729e-08,-0.25825300529342166,0.22219070595966678,0.2522041107803177,-2.6976780780985065e-20,-0.03250726816342168,-0.014613345811030768,-0.007247254516271141,-1.8424110404330313e-08,-0.22574573712999998,0.23680405177069755,0.2594513652965888
10,98523.907348,41.0,120,0.0,0.21721772852111124,0.47119051336304674,0.5775686143120528,0.0,-0.29953704801596803,0.253084550597527,0.2977758713278984,0.0,0.9275507888150738,-1.344698657335623,-1.0377825971958572,-9.101981779806535e-09,-0.23520907842124741,0.18779160803986392,0.22751489657550913,-2.6976780780984686e-20,-0.032478297680903226,-0.014557668265965003,-0.007177219720951828,-9.101981779779559e-09,-0.20273078074034417,0.2023492763058289,0.23469211629646097
11,98523.939772,41.0,120,0.0,0.20798379721298427,0.47878815268720254,0.586710872513485,0.0,-0.2695582221584889,0.21476084339827395,0.2617179297318515,0.0,0.8335725586444527,-1.339253939222,-1.2499835417276963,-1.555142741331924e-08,-0.2121751185162855,0.1571851302536142,0.19654792007182828,-2.6976780780984617e-20,-0.03245765997802335,-0.014514373368867612,-0.007116832830922471,-1.5551427413292265e-08,-0.17971745853826215,0.1716995036224818,0.20366475290275074
12,98523.972326,43.0,120,0.0,0.19970634175979782,0.4851401474892701,0.5945692485669709,0.0,-0.24539688162207884,0.16602152839677675,0.21651851281533396,0.0,0.6864226778022324,-1.5095093511966098,-1.3138229733577753,-2.8455198371364512e-08,-0.19433063972464623,0.11648664400415758,0.15975055655342935,-2.829272130688636e-20,-0.03403160721828887,-0.015193101096020291,-0.007413637907810221,-2.845519837133622e-08,-0.16029903250635735,0.13167974510017788,0.16716419446123956
13,98524.005335,43.0,120,0.0,0.19190297101850262,0.4896463558530494,0.6008836798746948,0.0,-0.22460539750306951,0.11578158699528807,0.17564813412169222,0.0,0.8260845300269395,-1.2269597490756312,-1.0799923114441268,-1.3001872785565133e-08,-0.17629800857273717,0.07912156533625998,0.12939457774360857,-2.829272130688701e-20,-0.03405951855558008,-0.015203399025601276,-0.007387927666762738,-1.300187278553684e-08,-0.1422384900171571,0.09432496436186126,0.13678250541037132
14,98524.036831,44.0,120,0.0,0.1851832942161159,0.4926699388389337,0.6059456914964966,0.0,-0.19269042729335784,0.08600413718394861,0.14638596625507994,0.0,1.0423009631163556,-0.7549412946695004,-0.864301811190352,1.1179117211864448e-08,-0.1485958930333121,0.0600227927498095,0.10814399236231696,-2.8950691569837374e-20,-0.03489544689613272,-0.015586234325570398,-0.007547807590804241,1.11791172118934e-08,-0.11370044613717939,0.07560902707537989,0.1156917999531212
15,98524.06907,48.0,120,0.0,0.1796529091193832,0.49511280205762764,0.610192039037041,0.0,-0.1581307453720462,0.06795181749828494,0.12065924749057899,0.0,0.8753391453408215,-0.5040429703396232,-0.721334446472583,1.3066720604483546e-08,-0.12262556259786361,0.04808631503105705,0.08899258462102727,-2.911902017360563e-20,-0.038280265311135445,-0.017203294106681203,-0.008396647842124362,1.3066720604512665e-08,-0.08434529728672817,0.06528960913773825,0.09738923246315163
16,98524.101313,50.0,120,0.0,0.17498681480046563,0.49705154535703966,0.6137259526445803,0.0,-0.13624838178224374,0.0535028856782116,0.09987349184060257,0.0,0.5432183472513223,-0.4012171147610155,-0.583893635201725,4.337873355705597e-09,-0.10845586007037533,0.03754870779559031,0.07373769243038976,-3.0332312680838304e-20,-0.03991203368691855,-0.01794650095662356,-0.00873852093492868,4.33787335573593e-09,-0.06854382638345678,0.055495208752213865,0.08247621336531843
17,98524.134185,50.0,120,0.0,0.17079185254857104,0.49858822534507996,0.6166829429780909,0.0,-0.12293114320390286,0.041886152250109276,0.08271620249742995,0.0,0.38513796632803565,-0.2451972240471677,-0.44802147588002716,4.161205151776032e-09,-0.09939063342285959,0.029811659261859642,0.061370500404384326,-3.033231268083859e-20,-0.039951428209125894,-0.01797699480395743,-0.008735561443649016,4.161205151806365e-09,-0.05943920521373369,0.047788654065817074,0.07010606184803334
18,98524.166701,51.0,120,0.0,0.1669452763198627,0.49979383953433426,0.6191397255830343,0.0,-0.11105082739052818,0.037393311371290316,0.07052591690657017,0.0,0.40437283960762604,-0.07539359409679214,-0.3486220824427124,1.0830865723436078e-08,-0.08969528212437847,0.02791401280474904,0.052612705083674834,-3.093895893445585e-20,-0.04079413032588158,-0.018372230191032086,-0.00891213404525304,1.0830865723467016e-08,-0.04890115179849689,0.04628624299578113,0.06152483912892787
19,98524.198942,54.0,120,0.0,0.16359656505575285,0.5010095310848649,0.6212527446883818,0.0,-0.0967665330061096,0.036969506488683024,0.06012608994097235,0.0,0.40616145152125305,-0.055034445832783385,-0.31307560968327297,1.153825777804174e-08,-0.07825328858632734,0.027776256293066168,0.044648374000536645,-3.2758897695305815e-20,-0.04322995024434115,-0.01948204680795134,-0.009436591227405129,1.1538257778074499e-08,-0.03502333834198619,0.04725830310101751,0.054084965227941775
20,98524.231755,55.0,120,0.0,0.16065841895572747,0.5021980033430811,0.623044921790592,0.0,-0.08467097227940856,0.033764753799822245,0.050170048668631395,0.0,0.3708582174593307,-0.1375759689168502,-0.29143376552844646,7.521857527871545e-09,-0.06893536580432222,0.024383857474655813,0.03689968688272159,-3.3365543948922225e-20,-0.04406023086860417,-0.01986645855728584,-0.009610879712927423,7.52185752790491e-09,-0.024875134935718052,0.044250316031941656,0.04651056659564901
21,98524.263453,55.0,120,0.0,0.15812367782777473,0.5031931103160665,0.6244990148822721,0.0,-0.0728470027785737,0.028181827717035368,0.04129913641592964,0.0,0.4120835845260561,-0.14112528798280943,-0.2462441665861469,9.062839200727778e-09,-0.05906510556682421,0.019880809173303718,0.030255003851104557,-3.33655439489235e-20,-0.04408742931087598,-0.019888568472453926,-0.009611811928469573,9.062839200761143e-09,-0.01497767625594823,0.03976937764575764,0.03986681577957413
22,98524.295841,57.0,120,0.0,0.1559998761477941,0.5039995837919462,0.6256852371438548,0.0,-0.058207688393903556,0.02476942898498713,0.03443613580179239,0.0,0.42909886731389424,-0.05479498084209328,-0.1652269245269195,1.2866765628085027e-08,-0.04718371904411696,0.01801366705423116,0.025575037753619568,-3.457883645615645e-20,-0.04571514242772178,-0.02063202847541686,-0.009962812951997316,1.2866765628119606e-08,-0.0014685766163951772,0.038645695529648014,0.03553785070561688
23,98524.328268,57.0,120,0.0,0.15435152140163375,0.5047985306352415,0.6267308221613729,0.0,-0.045036746913275305,0.024634237478706744,0.03059359595659572,0.0,0.3989401925879281,0.036613002306373876,-0.08861781636644939,1.513450890390716e-08,-0.036949581489549944,0.018819076063746706,0.023267280964766563,-3.457883645615561e-20,-0.045728267821670776,-0.020641898712885885,-0.009960597444762909,1.513450890394174e-08,0.008778686332120832,0.03946097477663259,0.03322787840952947
24,98524.360642,61.0,120,0.0,0.15308083603305017,0.5055959074473412,0.6276679075841399,0.0,-0.03235519902211026,0.027137668777365676,0.02869044795555631,0.0,0.38212251962546506,0.009628937075598198,-0.1025625585743829,1.3478399584707126e-08,-0.02697442053181862,0.02055105672672561,0.021605307609482673,-3.70054214706237e-20,-0.048941501367221724,-0.022092049660568908,-0.010653979936684047,1.3478399584744131e-08,0.021967080835403104,0.042643106387294516,0.03225928754616672
25,98524.393882,58.0,120,0.0,0.15224066920695617,0.5065835427265192,0.6286128693488671,0.0,-0.019981005323377266,0.025147206711293446,0.023787221681546677,0.0,0.3246326438608827,-0.023923167618213073,-0.10283464381689326,1.027317189120249e-08,-0.017652314188844026,0.018622544666804797,0.01768001165006177,-3.5185482709773373e-20,-0.04652147691191954,-0.0209908557197181,-0.010117447750524863,1.0273171891237675e-08,0.028869162723075513,0.0396134003865229,0.027797459400586633
26,98524.490442,67.0,120,0.0,0.1517964889416529,0.5077312597450275,0.6296078963015425,0.0,-0.001996259493391328,0.032923521076078544,0.026388912459241354,0.0,0.20881613915336417,0.3148276586640396,0.1756984894664796,1.8991178499580646e-08,-0.004419917308357729,0.028233963954243137,0.0225476190465561,-4.06452989923234e-20,-0.0537069559428077,-0.024213696936478055,-0.011664798892021313,1.899117849962129e-08,0.04928703863444997,0.05244766089072119,0.03421241793857741
27,98524.522838,64.0,120,0.0,0.15176011838987932,0.5090265042636124,0.6306376086023607,0.0,0.005013767040081163,0.04566919732880681,0.03369764059936742,0.0,0.27815464985274957,0.38897921239568223,0.1887865455152803,2.4083634645741085e-08,0.00188710567081481,0.039175689641703884,0.028526490223556522,-3.88253602314735e-20,-0.051252988942880134,-0.02308024645933612,-0.011113359657564697,2.408363464577991e-08,0.05314009461369494,0.06225593610104001,0.03963984988112122
28,98524.556193,70.0,120,0.0,0.15213809306204687,0.5107451253774427,0.631827272283805,0.0,0.016412913551418384,0.05849062322070786,0.038730151874768026,0.0,0.25446272934550984,0.2880908101450236,0.10525957148667242,1.9544326112487723e-08,0.010770377618880111,0.04842599677532927,0.03171773436458255,-4.246523775317441e-20,-0.05597451158604591,-0.02516145357762458,-0.012109368062613684,1.9544326112530187e-08,0.06674488920492602,0.07358745035295386,0.04382710242719623
29,98524.587518,66.0,120,0.0,0.15280170436525642,0.5127822584821911,0.6331306157968621,0.0,0.02181602751874845,0.06468199969010069,0.04068540161423151,0.0,-0.0025198379673008753,0.06163291986973507,-0.018253152261320182,2.0923476443293185e-09,0.012514732560288028,0.05111314063005054,0.03204637728440428,-4.003865273870688e-20,-0.05267699156853482,-0.023626144986436327,-0.011364542805210627,2.0923476443693574e-09,0.06519172412882285,0.07473928561648686,0.043410920089614904
30,98524.620006,64.0,120,0.0,0.1535317349102044,0.5148718481790328,0.6344213460653767,0.0,0.015837495806029445,0.06210135672532324,0.03737423865925571,0.0,-0.2740736136319853,-0.095024487227092,-0.113089608908013,-1.3658646134445e-08,0.005008870294755784,0.04748125882845334,0.028448799986627082,-3.882536023147344e-20,-0.05098104294034547,-0.022812102435348775,-0.010967359089019838,-1.3658646134406175e-08,0.05598991323510126,0.07029336126380212,0.03941615907564692
31,98524.652629,62.0,120,0.0,0.1538311048480625,0.5168251399621411,0.6355634526228702,0.0,0.003946456214408034,0.058490642050673,0.033319001911090496,0.0,-0.3791628017466794,-0.20558760449147806,-0.16023699509603778,-2.157588119338421e-08,-0.005556596277571498,0.04348820772073785,0.024733399649546642,-3.761206772423932e-20,-0.0493097489797752,-0.02202171871128157,-0.010582245670839695,-2.1575881193346595e-08,0.0437531527022037,0.06550992643201942,0.035315645320386335
32,98524.685073,63.0,120,0.0,0.15379038625023803,0.5186781529128586,0.6365899170093375,0.0,-0.008828254853788131,0.04875827176170322,0.02696092608270284,0.0,-0.43542698393443596,-0.3921093103439922,-0.22337083691199744,-3.0315731857049617e-08,-0.016340908000300202,0.03383764044930912,0.019015727386894256,-3.821871397785672e-20,-0.05004029162321917,-0.022312044500262584,-0.010716818546260947,-3.03157318570114e-08,0.033699383622918966,0.056149684949571704,0.029732545933155205
33,98524.718082,69.0,120,0.0,0.15324463683813447,0.520006990714076,0.6373227949661125,0.0,-0.024601055232361002,0.03272089239975795,0.018667478855359576,0.0,-0.6143943428094345,-0.602127944220445,-0.28168065693081423,-4.4225571622429906e-08,-0.0307571325867027,0.018904627548049998,0.011797161667207224,-4.18585914995571e-20,-0.05477253171052662,-0.024402221994545663,-0.011716309886590313,-4.422557162238805e-08,0.024015399123823923,0.04330684954259566,0.023513471553797537
34,98524.750809,69.0,120,0.0,0.15217774203180975,0.5208333256111167,0.6378190275607197,0.0,-0.049139389959041324,0.009242090584592688,0.008461457085447321,0.0,-0.7151432708769709,-0.7360285846594875,-0.3074707724763144,-5.2331429228612765e-08,-0.051401384700974696,-0.0012201370656147103,0.003373858340684861,-4.185859149955757e-20,-0.054775616422693296,-0.024402836105832812,-0.011712738858218812,-5.233142922857091e-08,0.0033742317217186,0.0231826990402181,0.015086597198903673
35,98524.782564,65.0,120,0.0,0.1501077061157203,0.5206335951698321,0.6378812405727456,0.0,-0.07078127416083557,-0.014704053051014299,-0.0011672445384753871,0.0,-0.4935389080949185,-0.6145636773675467,-0.23993838320307154,-3.934370465616923e-08,-0.06649304059406153,-0.019161495779950844,-0.0036532729879363767,-3.943200648509067e-20,-0.05167082821300562,-0.023054366003611774,-0.011062761582763259,-3.9343704656129796e-08,-0.014822212381055903,0.0038928702236609297,0.007409488594826882
36,98524.8145,66.0,120,0.0,0.14766758126106075,0.5198937551031508,0.6377435496061764,0.0,-0.08050513097696443,-0.02984943192589995,-0.006797485808979431,0.0,-0.2675104314023302,-0.425077821029205,-0.15820180752134394,-2.4010995372668508e-08,-0.07200634945962348,-0.02938278930487135,-0.00733972300021755,-4.0038652738707726e-20,-0.052567846165836395,-0.02350599687300616,-0.011277142217531224,-2.401099537262847e-08,-0.01943850329378708,-0.005876792431865188,0.003937419217313674
37,98524.846768,72.0,120,0.0,0.14493621919223634,0.5187126815994579,0.6374431554960982,0.0,-0.08793183885396649,-0.04196293506008075,-0.011312355304248456,0.0,-0.004014476393569444,-0.21534217452783744,-0.06964501610642623,-6.762360070519384e-09,-0.07530678103334741,-0.03697647950363993,-0.010065725365478208,-4.367853026040803e-20,-0.05748443192754287,-0.025774551276609794,-0.012363348475736466,-6.762360070475706e-09,-0.01782234910580454,-0.011201928227030134,0.0022976231102582578
38,98524.879139,70.0,120,0.0,0.14198307719762301,0.5171802068297068,0.6370119169940771,0.0,-0.08071796300188039,-0.043735909602285794,-0.011284770697704616,0.0,0.40757688071467746,0.11909381012308029,0.07296266797072755,1.9696579813872288e-08,-0.06540743523866818,-0.035048434404834294,-0.008616606698535666,-4.2465237753174123e-20,-0.05604118431828555,-0.025206038102580812,-0.012088881717182682,1.9696579813914752e-08,-0.00936625092038263,-0.009842396302253482,0.0034722750186470166
39,98524.912231,79.0,120,0.0,0.13966750345178586,0.5158548541501362,0.6367073905937052,0.0,-0.060981290783135744,-0.033913192630808275,-0.006430858776703019,0.0,0.523011714212404,0.2754393624986957,0.13394614671115268,2.882873245220919e-08,-0.04846319760601235,-0.0256291844980423,-0.004123896204325622,-4.7925054035724796e-20,-0.06338555195479798,-0.028580705121711507,-0.013705378177227433,2.8828732452257112e-08,0.014922354348785624,0.0029515206236692057,0.00958148197290181
40,98524.945475,72.0,120,0.0,0.1379405623002699,0.5149324113238016,0.6365861640351753,0.0,-0.04604582475999042,-0.02547088191052005,-0.0024031988826109796,0.0,0.3410245205625041,0.20694798303760792,0.09547794337711156,1.9624913956169236e-08,-0.03834656197570435,-0.019567269919336817,-0.0012879974302334317,-4.367853026040734e-20,-0.0578596456768304,-0.026135361197924586,-0.012530677257511065,1.9624913956212914e-08,0.019513083701126047,0.006568091278587769,0.011242679827277634
41,98524.97711,70.0,120,0.0,0.13666156453481126,0.5141951794710286,0.6365475691141878,0.0,-0.03851606280897779,-0.020339022525738493,-0.00015571772209455048,0.0,0.08611591559530063,0.10132062616991017,0.053774995307358915,6.832476181227993e-09,-0.03488577213869326,-0.016525454851667905,9.125840352516162e-05,-4.2465237753173684e-20,-0.056318421181440266,-0.025472969753364195,-0.01221116792298839,6.832476181270458e-09,0.021432649042747005,0.00894751490169629,0.012302426326513552
42,98525.010645,69.0,120,0.0,0.13543796120159474,0.5136185236999613,0.6365801816608265,0.0,-0.04102822036464948,-0.01910618747269055,0.0010337241849462941,0.0,-0.23327347651056407,-0.06859710354747134,-0.010077064458953039,-1.0272620582690622e-08,-0.04010625804665187,-0.017246881183930952,0.00040228721062558683,-4.185859149955768e-20,-0.055571049672389516,-0.025164033609424222,-0.01206090381036836,-1.0272620582648764e-08,0.015464791625737648,0.00791715242549327,0.012463191020993948
43,98525.041171,76.0,120,0.0,0.1340593566741359,0.512982199846047,0.6366134385606252,0.0,-0.05254952867485296,-0.024127812625645007,-0.0005394671560736697,0.0,-0.3116328729538057,-0.10229488324839286,-0.03497109787503144,-1.4110391553246138e-08,-0.050113493974543455,-0.02160544360055688,-0.0011060890320419084,-5.000573998426501e-20,-0.06100409372358171,-0.027509620541033307,-0.013039295110114492,-1.4110391553196132e-08,0.010890599749038256,0.0059041769404764265,0.011933206078072583
44,98525.074351,73.0,120,0.0,0.13204932135310266,0.5120632563100956,0.6365367921464129,0.0,-0.060516692423801866,-0.025278429228934307,-0.001102395193012029,0.0,-0.11209413736024454,0.04087553248453396,0.03580390051758864,-1.9540177334967008e-09,-0.054487200291451605,-0.021094360667763767,-0.0008483930768154006,-4.8031829195412767e-20,-0.05869602413174244,-0.026520047193180966,-0.012568111607925763,-1.954017733448669e-09,0.004208823840290837,0.005425686525417198,0.011719718531110363
45,98525.107327,79.0,120,0.0,0.13005578873130874,0.5113088968647879,0.6365400173085914,0.0,-0.060017302181952115,-0.02145438198318672,0.0018077118013071214,0.0,0.12771608292078862,0.10161919868965963,0.0879856702746311,8.624752568451131e-09,-0.051684419502578495,-0.017427646263205598,0.0020018308875624337,-5.197965077311771e-20,-0.06362054037938471,-0.028796179674913023,-0.013644013082679853,8.624752568503111e-09,0.011936120876806212,0.011368533411707425,0.015645843970242285
46,98525.138759,81.0,120,0.0,0.12818240986325896,0.5106771352492462,0.6366480666651715,0.0,-0.05263023921531418,-0.018690078482412886,0.004565380711419209,0.0,0.27025054651250613,0.007063206506602582,0.043208884766429034,1.0100946269390714e-08,-0.04434982324536032,-0.016164127716038652,0.003759869153784165,-5.329559129901936e-20,-0.06532294067244775,-0.029613434997063367,-0.014027766129081016,1.010094626944401e-08,0.020973117427087427,0.013449307281024715,0.01778763528286518
47,98525.170927,79.0,120,0.0,0.1267188866222585,0.5101223065537365,0.636832055112075,0.0,-0.0427768968409048,-0.02112561473149288,0.004489487904688616,0.0,0.1839809556922658,-0.48730461325417523,-0.12934197145606913,-9.84832618668807e-09,-0.03734364817786732,-0.023064492544838538,0.0019717238889890207,-5.197965077311744e-20,-0.06378032444426773,-0.028949941364230753,-0.013709959795106377,-9.84832618663609e-09,0.026436676266400415,0.005885448819392215,0.015681683684095397
48,98525.203932,81.0,120,0.0,0.12539912257867533,0.5092937397227407,0.6369385740441887,0.0,-0.040847089356725874,-0.051147150207699,-0.004079558133462058,0.0,0.07137310850021916,-1.1515800920424506,-0.3173898906343776,-3.5900264047990824e-08,-0.03694326095141854,-0.05373465982703648,-0.006766422028864179,-5.3295591299020045e-20,-0.06547253541571922,-0.029758038034749554,-0.014089584431364351,-3.590026404793753e-08,0.02852927446430068,-0.023976621792286924,0.007323162402500172
49,98525.235574,81.0,120,0.0,0.12408054158510747,0.5068853237045384,0.6365878312812494,0.0,-0.038197286670057284,-0.09492581083608176,-0.015874610648518583,0.0,0.13430499196549806,-1.2180567131345894,-0.320903776129252,-3.547036394305312e-08,-0.034198532140974444,-0.08942734442914557,-0.016238554318148052,-5.329559129901976e-20,-0.0656134265563089,-0.029896660938432358,-0.014154388828911605,-3.547036394299982e-08,0.03141489441533446,-0.059530683490713214,-0.002084165489236447
50,98525.268168,78.0,120,0.0,0.12295219678022053,0.5031597298632127,0.635909595412115,0.0,-0.03212215605197244,-0.12907037918447806,-0.024592902526055838,0.0,0.16351712528596068,-0.9384938351583836,-0.23796926788069345,-2.471108266816806e-08,-0.029048345040457967,-0.11395159196793127,-0.022384502516366964,-5.132168051016728e-20,-0.06336168376496537,-0.02896593969629847,-0.01371445206545533,-2.4711082668116737e-08,0.034313338724507404,-0.0849856522716328,-0.008670050450911633
51,98525.300907,77.0,120,0.0,0.12198263021975825,0.4984484765728363,0.6349800032950241,0.0,-0.02752086963375855,-0.1562087254693436,-0.03141327924092785,0.0,0.22066191383272632,-0.65088646396148,-0.1446304465581591,-1.2782430913428958e-08,-0.02479788246292686,-0.13279111790258918,-0.02690820867407459,-5.0663710247215154e-20,-0.06275590513470543,-0.028799621457506953,-0.013637520930189015,-1.2782430913378295e-08,0.03795802267177857,-0.10399149644508224,-0.013270687743885576
52,98525.333442,76.0,120,0.0,0.12115494777894074,0.4929683664480884,0.6338603530388512,0.0,-0.01775125634978081,-0.17162875776762032,-0.03405941701303483,0.0,0.40899580960335435,0.06248911318261641,0.07833235965156521,1.728553336185935e-08,-0.015090442028702331,-0.1379937206825547,-0.026795024855532684,-5.0005739984263564e-20,-0.062166877659768596,-0.02865033673973861,-0.013569383615898845,1.7285533361909355e-08,0.04707643563106627,-0.10934338394281609,-0.013225641239633839
53,98525.365338,78.0,120,0.0,0.12082916961221739,0.48739430260976463,0.6327850726494344,0.0,-0.0013064348870881481,-0.1528613288731,-0.02656829425299101,0.0,0.46302025639542554,0.9459497352737372,0.33332459149823734,4.753173035855008e-08,-0.0013873062538708788,-0.11414537411557153,-0.01825171787263038,-5.1321680510166864e-20,-0.06401824469708643,-0.029619191886443127,-0.014030803359849906,4.75317303586014e-08,0.06263093844321556,-0.0845261822291284,-0.004220914512780472
54,98525.398107,79.0,120,0.0,0.12108623219417607,0.48312234244601177,0.6321549580295207,0.0,0.01209692990457012,-0.10982608309215536,-0.012330711961658025,0.0,0.3188776075302684,1.2396430974918822,0.4241254095110003,5.174701376859108e-08,0.00788781316777583,-0.07678547486463665,-0.005954625180857201,-5.1979650773116715e-20,-0.06498447288336852,-0.03014480398843735,-0.01428067097484889,5.174701376864306e-08,0.07287228605114435,-0.046640670876199296,0.008326045793991689
55,98525.430838,80.0,120,0.0,0.12162119553794125,0.4801991340466837,0.6319768870512106,0.0,0.019586895691210415,-0.07165911196601815,0.0012127068096692284,0.0,0.14895473497509004,1.0166999654362026,0.3741326959215612,3.8643379865577856e-08,0.012167964869568277,-0.048488908646663484,0.0043784510075794815,-5.2637621036067824e-20,-0.06589083163052757,-0.030610999253675084,-0.014500460888048017,3.864337986563049e-08,0.07805879650009585,-0.0178779093929884,0.018878911895627497
56,98525.463121,78.0,120,0.0,0.12235676909533866,0.47844778990336256,0.6322278805287248,0.0,0.021852155055595235,-0.04359342284040224,0.012028431607145507,0.0,0.06659721255015699,0.7745770314278999,0.31005272564245007,2.7990469709974372e-08,0.013148806230415283,-0.028462114370842177,0.012389203657472201,-5.13216805101663e-20,-0.06427261195273032,-0.02987592426545263,-0.014149269410655002,2.7990469710025694e-08,0.0774214181831456,0.0014138098946104537,0.026538473068127205
57,98525.495316,79.0,120,0.0,0.12303034277794939,0.4773864443746249,0.6327517086435609,0.0,0.023881578504550083,-0.02169927430640417,0.021208676196712517,0.0,0.014159885513534032,0.5343126334071161,0.22848859937721158,1.8359626945395376e-08,0.014242112112253218,-0.013352637163867392,0.0189170476635417,-5.197965077311705e-20,-0.06510079417214377,-0.03026420537405757,-0.01432863122259796,1.8359626945447356e-08,0.079342906284397,0.016911568210190176,0.03324567888613966
58,98525.527595,78.0,120,0.0,0.12389700789879307,0.4770506461975606,0.6335961194172901,0.0,0.022756877722795332,-0.009168665604899928,0.02675047486730442,0.0,-0.08282122772515038,0.2550717413930106,0.10730455557692753,5.824858395436971e-09,0.012365745968407334,-0.006123445674042647,0.02213796420328946,-5.1321680510166895e-20,-0.06424510891880945,-0.029850887189513668,-0.014126891036510145,5.824858395488293e-09,0.07661085488721679,0.023727441515471022,0.03626485523979961
59,98525.559964,78.0,120,0.0,0.12450079176529681,0.47679393096905015,0.6344811798203311,0.0,0.018518703675385106,-0.005233392305393991,0.02813409659162147,0.0,-0.04998238024066587,0.13590100700963376,0.07628470141443605,3.0457537990320106e-09,0.009303788202421332,-0.004166773223769766,0.022934814403641472,-5.132168051016775e-20,-0.06421940206832406,-0.02982616927341436,-0.014108622980665063,3.0457537990833322e-09,0.0735231902707454,0.025659396049644595,0.037043437384306536
60,98525.593741,79.0,120,0.0,0.12512155923211127,0.47671223961624354,0.6354593540087002,0.0,0.019683658364070933,-0.0001381392301507134,0.03189290390734989,0.0,-0.03573224776752343,0.14163297080353196,0.09906848642541,3.858147872152159e-09,0.010380046236307502,-3.1979276263420465e-05,0.02617014783182936,-5.197965077311802e-20,-0.06500872079234794,-0.030175592142261908,-0.014266689176973667,3.858147872204139e-09,0.07538876702865545,0.03014361286599849,0.04043683700880303
61,98525.62456,88.0,120,0.0,0.12576489361495613,0.4767721075480211,0.6365247412407127,0.0,0.016607785142051634,0.003967670160228032,0.034602621732476635,0.0,-0.13179898495327672,0.15368595443563618,0.0729302609253869,8.680202796175823e-10,0.00695666905465207,0.0033730915617635705,0.02807662672070669,-5.790138313967496e-20,-0.07236913238382713,-0.033568892488923474,-0.015862339712834066,8.680202796754837e-10,0.0793258014384792,0.03694198405068704,0.043938966433540755
62,98525.656921,79.0,120,0.0,0.12615735103584003,0.4769693186811629,0.6376456533975383,0.0,0.01125545887642665,0.009636424891015238,0.03645324151942653,0.0,-0.05547925249224819,0.2672526313920814,0.1010454635257877,7.084567372919222e-09,0.0034436470352305687,0.009046880410291966,0.02983922402623143,-5.1979650773116805e-20,-0.06493015088646131,-0.030098792479993943,-0.014214251975411398,7.084567372971202e-09,0.06837379792169188,0.03914567289028591,0.04405347600164283
63,98525.689229,79.0,120,0.0,0.12649286524372633,0.4773949103301385,0.6388819436317269,0.0,0.01300835590180549,0.02124087806809616,0.041132485593561086,0.0,0.13847565268858347,0.3999322014659611,0.15705525168198986,1.805556740780554e-08,0.006796008696341434,0.0196625084147763,0.03414422554216116,-5.1979650773117774e-20,-0.06488503294302174,-0.030054255967685888,-0.014184069926315282,1.805556740785752e-08,0.07168104163936317,0.049716764382462184,0.048328295468476445
64,98525.721704,78.0,120,0.0,0.1270009498669095,0.47834806813761543,0.6403112991718916,0.0,0.020254529209380756,0.03555887842893313,0.0466318448833416,0.0,0.2169503079611118,0.4051365871540747,0.14609277639009322,2.090075027796859e-08,0.013383013456391235,0.03117245267802343,0.038435086080564576,-5.132168051016706e-20,-0.06399236610798353,-0.029603361756328748,-0.013961299777487762,2.0900750278019913e-08,0.07737537956437476,0.06077581443435218,0.05239638585805234
65,98525.754073,79.0,120,0.0,0.1278052743970066,0.47969937621724557,0.6419051849101756,0.0,0.02707758980250885,0.04751912291749161,0.05061064623356515,0.0,0.280692074555975,0.39898925122818296,0.12016613215418537,2.285283540762189e-08,0.01948452076444974,0.040683347779278296,0.041359985431139085,-5.197965077311759e-20,-0.0647136382528629,-0.02988517328846094,-0.014083327049236835,2.285283540767387e-08,0.08419815901731265,0.07056852106773924,0.05544331248037592
66,98525.786551,75.0,120,0.0,0.12875733706940884,0.4814308011466023,0.6435935468081455,0.0,0.038471832482471324,0.061438574565300996,0.05442365667530069,0.0,0.3213738545293696,0.35300573438878746,0.07155224935605486,2.2754997359780063e-08,0.029011682174799176,0.05136332399505163,0.043925356309072225,-4.9347769721313316e-20,-0.06132381437844054,-0.028260443920771285,-0.01330695446711238,2.275499735982941e-08,0.09033549655323972,0.07962376791582292,0.057232310776184604
67,98525.818974,80.0,120,0.0,0.13030112829677007,0.48368590783546417,0.6454370666030105,0.0,0.04793831171700802,0.07043785431441307,0.05525949806590802,0.0,0.1764624662655263,0.20076890358685306,-0.005268088571007912,1.2874848010665588e-08,0.03513417543041106,0.057042698932397946,0.04382634014366788,-5.2637621036068636e-20,-0.06524857566595423,-0.029983864155440274,-0.014106550949593148,1.2874848010718225e-08,0.10038275109636528,0.08702656308783822,0.05793289109326103
68,98525.852337,73.0,120,0.0,0.13191162524121397,0.4860663140731657,0.6472257986452624,0.0,0.04986029405081194,0.07449990049505395,0.054017875047922104,0.0,-0.042717905637685294,0.09873474400977833,-0.057782877065531535,1.965773740226816e-09,0.03447685025160416,0.059273979999529325,0.042308306440148324,-4.803182919541251e-20,-0.05938397974978079,-0.02720775725311525,-0.012789985811331877,1.9657737402748478e-09,0.09386083000138495,0.08648173725264457,0.055098292251480205
69,98525.884226,76.0,120,0.0,0.13355003319181913,0.48853809077879623,0.6489606773683584,0.0,0.04544011082873389,0.07694685272042445,0.0515483428066279,0.0,-0.21488384745282807,0.11131839805416477,-0.0820833863875674,-3.757568685851938e-09,0.029219573733811906,0.061361170050148746,0.04009054374347485,-5.000573998426465e-20,-0.0616586891964878,-0.02816323927071668,-0.013228558287278985,-3.757568685801932e-09,0.09087826293029971,0.08952440932086543,0.05331910203075384
70,98525.916346,73.0,120,0.0,0.13481744783717725,0.4909913431751,0.6505240325791959,0.0,0.03607042842071584,0.0816413159656415,0.04876164725366117,0.0,-0.303646647465471,0.19064583737542806,-0.058292641011430835,-4.2684818011118725e-09,0.020840195604433495,0.06591504982839193,0.03810030553835466,-4.8031829195412857e-20,-0.05908054297272925,-0.02690963192748696,-0.012630422313365487,-4.268481801063841e-09,0.07992073857716275,0.09282468175587888,0.05073072785172015
71,98525.948655,74.0,120,0.0,0.13587273027577665,0.493800154618205,0.6521023754011253,0.0,0.0258719351448522,0.08924684081016387,0.04780339813830814,0.0,-0.33291539469997156,0.19616113119008216,-0.036616000384807834,-5.049361659340857e-09,0.012393963722036244,0.07206015069221498,0.03755179578842884,-4.8689799458362713e-20,-0.05973852656271196,-0.027128941605258156,-0.012723763216825848,-5.049361659292168e-09,0.0721324902847482,0.09918909229747314,0.05027555900525469
72,98525.981339,74.0,120,0.0,0.136493820278475,0.49679350637736425,0.6536301282032855,0.0,0.014420237652335466,0.09436081674853547,0.04637661542760618,0.0,-0.38878712240326735,0.1164961802103539,-0.06381290229823633,-9.820365729257713e-09,0.0026763605043436424,0.07535872498888492,0.03613934875184391,-4.489182276764178e-20,-0.059864318738048324,-0.02725594169424181,-0.012916095743845986,-9.820365729212822e-09,0.06254067924239197,0.10261466668312673,0.049055444495689896
73,98526.013919,74.0,120,0.0,0.13681480433831955,0.49995794243290037,0.6551291749465091,0.0,0.0005061091365101689,0.09685814827359351,0.04364289929263521,0.0,-0.465776987683751,-0.013115812524610027,-0.12031922601365586,-1.7176815357910618e-08,-0.009224166264385623,0.0760635971965564,0.03338802862728194,-4.4891822767640394e-20,-0.05972719823300159,-0.027119450378464336,-0.012842782186126183,-1.7176815357865725e-08,0.05050303196861597,0.10318304757502074,0.04623081081340812
74,98526.046342,74.0,120,0.0,0.13652964648636456,0.5030896611744087,0.6564677894582448,0.0,-0.01584454097315957,0.09353636885512628,0.038566910419600475,0.0,-0.33681356215351893,-0.15954831274086168,-0.16783458814501828,-1.7831946433951797e-08,-0.021008317081875887,0.07194683691124074,0.02885331155937202,-4.489182276764197e-20,-0.05961422729663498,-0.02700592031238545,-0.012780978425121358,-1.7831946433906904e-08,0.03860591021475909,0.09895275722362619,0.04163428998449338
75,98526.078252,71.0,120,0.0,0.13580265316988846,0.5059785252995428,0.6576130676643132,0.0,-0.02133259095885709,0.08665204473350396,0.03285707784517378,0.0,0.03516367631123307,-0.0897379703932053,-0.13078874637204052,-2.371607446985249e-09,-0.021661400509866646,0.06714673805899696,0.024658283552872404,-4.307188400679061e-20,-0.05711401496704847,-0.025826310205493707,-0.012215820902371801,-2.3716074469421774e-09,0.03545261445718182,0.09297304826449067,0.03687410445524421
76,98526.110637,69.0,120,0.0,0.1351594553281929,0.5086572413593242,0.65857743170866,0.0,-0.013385436226455827,0.08788726071444497,0.03020392783916037,0.0,0.21832661197460745,0.10859553813170297,-0.06053596215803314,1.0945481873759812e-08,-0.013459502966777429,0.07012568751532637,0.02324020059081079,-4.1858591499557425e-20,-0.05543015555789828,-0.025022641937284748,-0.011830160055278838,1.094548187380167e-08,0.04197065259112085,0.09514832945261112,0.03507036064608963
77,98526.143032,69.0,120,0.0,0.13493567414204805,0.5116719655155905,0.6595696866274565,0.0,-0.007189934509795659,0.09368827299036919,0.028935986068972852,0.0,0.15710166156645378,0.1429572223299891,-0.04641778754384379,1.0074090165057995e-08,-0.009112808844815185,0.07511381527953698,0.0223678932839968,-4.18585914995578e-20,-0.05533045054708782,-0.02492253884477345,-0.011777604907665301,1.0074090165099854e-08,0.04621764170227264,0.10003635412431043,0.0341454981916621
78,98526.175645,69.0,120,0.0,0.13469192868169566,0.5147480028438384,0.6604577612686706,0.0,-0.0031875096160134397,0.09716482513907998,0.027183216534998778,0.0,0.17713749959404992,0.08116463830868414,-0.04130302655039997,8.875955429986229e-09,-0.005706418778129926,0.07728124555818675,0.02101776446816537,-4.185859149955661e-20,-0.05523067864188687,-0.02482233507626632,-0.011725758200608966,8.875955430028087e-09,0.04952425986375694,0.10210358063445307,0.03274352266877434
79,98526.207796,70.0,120,0.0,0.13472530572173136,0.5179621376647802,0.6613302240219555,0.0,0.00423227732615028,0.09896815560918881,0.02624962235860906,0.0,0.17897810941888437,0.06315528506481893,-0.029149788393855458,8.519587401554607e-09,0.0002525798946649673,0.078548640886665,0.020393502330542178,-4.246523775317411e-20,-0.05591624253634156,-0.025067258224855997,-0.011837256907051784,8.519587401597073e-09,0.05616882243100653,0.103615899111521,0.03223075923759396
80,98526.241641,69.0,120,0.0,0.13498234890744798,0.5212760216438176,0.6621870477554672,0.0,0.008444203568247932,0.10135739119781206,0.025259057673588714,0.0,-0.008200456603971298,-0.1533246272242479,-0.10877837546473312,-5.667480232852591e-09,0.001745845395021135,0.0782961458711183,0.01880478277468222,-4.185859149955673e-20,-0.05499358529359583,-0.024585756494787357,-0.01160602420830851,-5.667480232810732e-09,0.05673943068861697,0.10288190236590566,0.03041080698299073
81,98526.272599,67.0,120,0.0,0.13526781970537274,0.5245113640183927,0.6629674021051306,0.0,0.00443410626088081,0.09027002008889173,0.01963997150193819,0.0,-0.1315430272770472,-0.5228142212174198,-0.2189156545053148,-2.3040253968019485e-08,-0.0027001478935903944,0.06573182761889493,0.013208023688772504,-4.0645298992324335e-20,-0.05328144399130959,-0.023755495289080563,-0.011210802656321708,-2.304025396797884e-08,0.05058129609771919,0.0894873229079755,0.02441882634509421
82,98526.305047,67.0,120,0.0,0.13524888892393566,0.5269562339110948,0.6634153512037578,0.0,9.745380201353626e-05,0.06770530137400854,0.011264330453327531,0.0,-0.028518107599661377,-0.5257798424277196,-0.18184603048588724,-1.939002085612909e-08,-0.005131799056984029,0.04765554056712555,0.0068793778872965694,-4.0645298992324166e-20,-0.05320144693299388,-0.023675465413308956,-0.011171388863121114,-1.9390020856088444e-08,0.048069647876009855,0.07133100598043451,0.018050766750417682
83,98526.337963,65.0,120,0.0,0.135274831568569,0.5289296488224488,0.6637012884550717,0.0,0.00266916110638471,0.056062866900811414,0.007825699594979696,0.0,0.019342215673443602,-0.39631281495167714,-0.11389172489859625,-1.3018365848964424e-08,-0.002589077738346739,0.0396410800919583,0.0048091266842378855,-3.9432006485090354e-20,-0.0515503019842737,-0.0229057366802687,-0.010807444672355256,-1.3018365848924992e-08,0.04896122424592696,0.062546816772227,0.015616571356593141
84,98526.369849,71.0,120,0.0,0.13541804163882737,0.5305971082257447,0.6639242184586069,0.0,0.0014700749181373318,0.042109844518286366,0.003903030369306393,0.0,-0.208758515376264,-0.6025348816945459,-0.19373168361870235,-2.8598309531260813e-08,-0.005837798326521449,0.02641418956657789,0.0008718524708055733,-4.3071884006791815e-20,-0.05624663568759642,-0.02495822014132078,-0.011775386233237864,-2.859830953121774e-08,0.050408837361074973,0.05137240970789867,0.012647238704043436
85,98526.402425,63.0,120,0.0,0.13536538111551288,0.5316299268569324,0.6639485774379366,0.0,-0.011026577134092719,0.016992177788040408,-0.00476126779481767,0.0,-0.3861250053649082,-0.7135976059011429,-0.24397066698149567,-3.903433223794751e-08,-0.01761531825763752,0.005207428554458096,-0.006562596692655514,-3.8218713977857294e-20,-0.04988055889608472,-0.022117512588137118,-0.01043556232270671,-3.903433223790929e-08,0.0322652406384472,0.027324941142595212,0.003872965630051195
86,98526.434692,65.0,120,0.0,0.13470883311735538,0.5317079813453176,0.6636188720020765,0.0,-0.0235658851636531,-0.004197301129612363,-0.011930291819240324,0.0,-0.2105534340940738,-0.46423588085151124,-0.14184186320628145,-2.374500958256157e-08,-0.02588213573017504,-0.00924686094977576,-0.011275562666544427,-3.9432006485089565e-20,-0.0514867505889365,-0.022841237708590017,-0.01077899560414916,-2.3745009582522135e-08,0.025604614858761462,0.013594376758814256,-0.0004965670623952659
87,98526.467686,69.0,120,0.0,0.13382271541680454,0.5313462782838041,0.6631674770000071,0.0,-0.024505692679059887,-0.013021336517123672,-0.013899884696227716,0.0,0.06673749886413355,-0.17679164032409264,-0.026027863836979137,-3.5272925765679586e-09,-0.023849063777766712,-0.013427241559192893,-0.01169189763602032,-4.18585914995581e-20,-0.054702410550553304,-0.024292541639015678,-0.011466415527820876,-3.5272925765261e-09,0.030853346772786592,0.010865300079822785,-0.00022548210819944327
88,98526.499587,64.0,120,0.0,0.13311348150988864,0.5308673873693224,0.6627173092748714,0.0,-0.019439662005392933,-0.01586507756413269,-0.01369174842713683,0.0,0.21090299404321605,0.006982515559060876,0.037802098418787705,8.072899200341255e-09,-0.018348753559022272,-0.013862771606357616,-0.010886597421661114,-3.882536023147356e-20,-0.05078017909183937,-0.022572785241688556,-0.010657036360627687,8.07289920038008e-09,0.032431425532817096,0.00871001363533094,-0.00022956106103342623
89,98526.533231,61.0,120,0.0,0.13255854400651015,0.5303033459306142,0.6622715542146359,0.0,-0.010495479989932832,-0.0122194207024382,-0.011310133564737868,0.0,0.3344769051129099,0.2072042277472257,0.10995623954206492,1.9485988590675504e-08,-0.00995215334681809,-0.008942343557261225,-0.008259284569908784,-3.7005421470622344e-20,-0.048437350886135835,-0.021551338899551017,-0.010177053095816851,1.9485988590712508e-08,0.03848519753931774,0.012608995342289792,0.0019177685259080673
90,98526.56456,61.0,120,0.0,0.13240473928178437,0.5300531330204313,0.6619737871033982,0.0,0.001985485091110739,-0.0028443018653163676,-0.00672266832251367,0.0,0.4780548647170756,0.43619817036257,0.19466065901509133,3.265197436918009e-08,0.0014762521203720881,0.000850991077279544,-0.0037414136028376074,-3.7005421470623866e-20,-0.048452515283094216,-0.021566272026875017,-0.01018582006775192,3.2651974369217094e-08,0.0499287674034663,0.02241726310415456,0.006444406464914313
91,98526.596711,60.0,120,0.0,0.13269606639643577,0.5301313545303588,0.6618494325910438,0.0,0.019984140406230644,0.015698540048882492,0.001127258622359406,0.0,0.5586805325648848,0.6593177158010045,0.2539273591680717,4.331637686451436e-08,0.016688169545974945,0.017919962210002815,0.003132051788599142,-3.6398775217005723e-20,-0.04764922050789249,-0.021204166742556266,-0.010015827124041895,4.3316376864550756e-08,0.06433739005386743,0.03912412895255908,0.013147878912641037
92,98526.630925,57.0,120,0.0,0.13377750066677785,0.5311514565147594,0.662069868567342,0.0,0.039057481923155724,0.04126295535282232,0.01017082205030384,0.0,0.4421697250129845,0.5717781366458529,0.19927743401783282,3.6217406086911036e-08,0.030779576132610047,0.037496807860116985,0.00982039913106934,-3.457883645615661e-20,-0.04520809346864185,-0.02008683238434518,-0.009487907581021117,3.621740608694561e-08,0.0759876696012519,0.057583640244462164,0.019308306712090457
93,98526.661511,57.0,120,0.0,0.1351758032859171,0.5327265341121066,0.6624828859351114,0.0,0.04942901313436798,0.053955080890223606,0.014487386727427776,0.0,0.29153627698389284,0.3365570436603129,0.10581911579210795,2.2710187822767746e-08,0.03756634000717001,0.045298626978479986,0.012338902341031579,-3.457883645615613e-20,-0.04512388021240387,-0.020004653903052772,-0.009448251780221323,2.2710187822802325e-08,0.08269022021957388,0.06530328088153275,0.0217871541212529
94,98526.694846,55.0,120,0.0,0.1369583779431029,0.5346144429078188,0.6630015694445002,0.0,0.05741954925049342,0.062325557500754414,0.016732029156042216,0.0,0.19636543231118186,0.25022726825044284,0.05578681000553362,1.631754155818597e-08,0.04300830109936642,0.05113513497067054,0.013634888435093306,-3.3365543948922255e-20,-0.043439760317927595,-0.019204482027834143,-0.009069254353768139,1.6317541558219336e-08,0.08644806141729401,0.07033961699850469,0.022704142788861445
95,98526.726731,56.0,120,0.0,0.13890951465421073,0.5367752616588661,0.6635708231405916,0.0,0.062358915311796714,0.07027738414920748,0.018158566431882406,0.0,-0.08423564356619773,-0.01259243378576258,-0.04542637975248742,-3.0869205744094515e-09,0.04414661229323176,0.054868442291236344,0.013763663687328748,-3.397219020253939e-20,-0.04411432468088017,-0.019441360863693722,-0.009179936938728954,-3.086920574375479e-09,0.08826093697411193,0.07430980315493006,0.0229436006260577
96,98526.759048,56.0,120,0.0,0.14096295925659458,0.5391285733369502,0.6641676512302163,0.0,0.05180342924122283,0.06128921112849639,0.013737133158812753,0.0,-0.4839079590193349,-0.4213987279871365,-0.1975446489158137,-3.2580234300941045e-08,0.03169251341870884,0.04358744458349017,0.008704349311127683,-3.397219020253966e-20,-0.04399050638382231,-0.019320754900416348,-0.009121768178744693,-3.258023430090707e-08,0.07568301980253114,0.06290819948390652,0.017826117489872374
97,98526.793142,53.0,120,0.0,0.1423069710944694,0.5408034337351729,0.6644658443881036,0.0,0.029647745822170002,0.041768679808569686,0.004817659694221987,0.0,-0.6405179433049355,-0.44150646908063784,-0.2078197921552306,-3.948910603333966e-08,0.012401045097376742,0.027772141614790247,0.0014663396335801967,-4.648244702818904e-20,-0.041672543671220606,-0.018326429212408114,-0.008714406576592336,-3.948910603329318e-08,0.054073588768597344,0.04609857082719836,0.010180746210172533
98,98526.823517,55.0,120,0.0,0.14294304692066523,0.5418730888994543,0.6645058677635958,0.0,0.010444314260857679,0.03190418701372355,-3.9100750434784004e-05,0.0,-0.5904868753679146,-0.22995360322915387,-0.1145631686467377,-3.0116529729615714e-08,-0.0024536133084758494,0.022001163287953717,-0.0014853321661553998,-4.823650163302662e-20,-0.04320014096384918,-0.018974059776375295,-0.009023159114368082,-3.011652972956748e-08,0.04074652765537333,0.04097522306432901,0.007537826948212682
99,98526.857296,53.0,120,0.0,0.14290155167036703,0.5428264120604203,0.6644535816544191,0.0,-0.007934369442631262,0.027697822469237465,-0.0022061257667544965,0.0,-0.3977264762777458,0.018246688998160066,-0.015358965018035648,-1.4086442024224947e-08,-0.0152170523593376,0.0211242383268042,-0.0022254014428706574,-4.648244702818996e-20,-0.04160745606006378,-0.01826225895033739,-0.008685501232657895,-1.4086442024178464e-08,0.02639040370072618,0.03938649727714159,0.006460099789787238
100,98526.888469,54.0,120,0.0,0.14246129687351744,0.5436747463055933,0.6643658738799012,0.0,-0.016122216624427477,0.03237391889698671,-0.0012812008858418267,0.0,-0.12795162333259186,0.2895950904676722,0.08355694062969873,5.611333641972322e-09,-0.01905554330354587,0.027585250881319565,-0.0004946248703741571,-4.735947433060731e-20,-0.0423839619925377,-0.018597596594165263,-0.008845752925148028,5.611333642019682e-09,0.023328418688991832,0.04618284747548483,0.00835112805477387
101,98526.92179,48.0,120,0.0,0.1418528806823314,0.5449372674233504,0.6643777617984705,0.0,-0.015587843669761181,0.04699530928185247,0.0034222665119951756,0.0,0.11699758878680619,0.4419981821934841,0.15274399125080904,2.022422150540512e-08,-0.01616680835918168,0.0408120971642076,0.003961438096113467,-4.20973105160958e-20,-0.03766078237801233,-0.01651650208160323,-0.007856189235258926,2.022422150544722e-08,0.021493974018830648,0.057328599245810824,0.011817627331372394
102,98526.953135,45.0,120,0.0,0.14144304904602534,0.5466788264279991,0.6645754225392098,0.0,-0.008943615695927054,0.06094392450261843,0.008551705158160061,0.0,0.2119668238621426,0.3431637253160841,0.13341776681002426,2.032453675295672e-08,-0.00989793762179942,0.050985177609348155,0.00787227261080213,-3.9466228608839966e-20,-0.03527780474996734,-0.015454512874717167,-0.0073507359132431675,2.0324536752996186e-08,0.02537986712816792,0.06643969048406533,0.015223008524045298
103,98526.985756,42.0,120,0.0,0.14129155090063863,0.5488496233753706,0.6649306279292866,0.0,-0.0020291844375379675,0.0686809367171719,0.011877758524148518,0.0,0.1742199028342576,0.1431064477095244,0.07120634065408282,1.1855655838663633e-08,-0.004745123497832594,0.0551751025999818,0.009911075297735238,-3.683514670158375e-20,-0.03288354350400249,-0.014381622660333885,-0.006839728201033611,1.1855655838700467e-08,0.028138420006169892,0.06955672526031569,0.016750803498768847
104,98527.017917,40.0,120,0.0,0.14130920557665866,0.5511261645740146,0.6653439841168057,0.0,0.002377176487189381,0.07030058281971208,0.013192688650539353,0.0,0.08164603033120257,-0.07639483353036758,-0.005842320470167722,5.551939936277497e-10,-0.002148779588026233,0.05427618949402592,0.010192458503209614,-3.5081092096746853e-20,-0.031271394544754035,-0.013650537702556776,-0.006491221752117769,5.551939936628308e-10,0.029122614956727803,0.0679267271965827,0.016683680255327384
105,98527.051612,36.0,120,0.0,0.14145384501209293,0.5534778144984147,0.6658005135454282,0.0,0.0031737907359228323,0.06325171856651579,0.011346225605716853,0.0,-0.0403862878489236,-0.3200926347020253,-0.09528303785793359,-1.2835694267018234e-08,-0.0027358420069357246,0.04620020610756659,0.007820716266763523,-3.1572982887072276e-20,-0.028098680147331332,-0.012240057763145523,-0.005819666919997573,-1.2835694266986661e-08,0.025362838140395607,0.05844026387071211,0.013640383186761095
106,98527.08339,33.0,120,0.0,0.14152117070190456,0.5552918074153821,0.6660950602847374,0.0,-2.8533946519804232e-05,0.04975624013092528,0.00710502160205273,0.0,-0.10517165946941999,-0.3908105748436532,-0.12292979906577026,-1.7897390550769893e-08,-0.0059459494001678345,0.034698044643809656,0.004151507843885698,-2.89419009798159e-20,-0.02572596837117798,-0.011188961435344223,-0.005319512293330467,-1.789739055074095e-08,0.019780018971010144,0.04588700607915388,0.009471020137216166
107,98527.116484,32.0,120,0.0,0.14144622561639425,0.5566859171885619,0.6662556172814398,0.0,-0.0036607255070739697,0.03799004489622426,0.003399822529011942,0.0,-0.11700089235164486,-0.23206537917248893,-0.07755146069990587,-1.2698317302878967e-08,-0.008966046190655823,0.026875743667494116,0.0016418713665286109,-2.8064873677396765e-20,-0.024925606848161277,-0.010829046644026423,-0.005148288922407639,-1.2698317302850902e-08,0.015959560657505454,0.03770479031152054,0.00679016028893625
108,98527.147983,33.0,120,0.0,0.14128905973677536,0.5577585733809765,0.6663191844150566,0.0,-0.007563411400002273,0.03438205316376397,0.0019886224240721617,0.0,-0.05989382670489714,0.04303532955439815,0.003331547134477926,-7.154015883843485e-10,-0.011509707989771453,0.026744862377277356,0.0013228475938590022,-2.894190097981617e-20,-0.025690076480810054,-0.011152850615248129,-0.005302325536618884,-7.154015883554066e-10,0.014180368491038601,0.037897712992525485,0.006625173130477886
109,98527.180536,34.0,120,0.0,0.14095625751689833,0.5588888602955099,0.666382929414522,0.0,-0.007359865230156082,0.04108427658099956,0.0037163766597334558,0.0,0.11696924159800123,0.4196929138105093,0.12747460601253394,1.949042834257469e-08,-0.009565334143205352,0.03588007574736783,0.003948217019107977,-2.9818928282234545e-20,-0.026455710056007907,-0.011477640187379403,-0.005456791872207759,1.9490428342604507e-08,0.016890375912802555,0.04735771593474723,0.009405008891315736
110,98527.212747,33.0,120,0.0,0.14081045705855497,0.5604150261483952,0.6665586755514237,0.0,-6.334770148619384e-05,0.061417569662303606,0.010193765875674998,0.0,0.2590902381408674,0.6981626729380904,0.23325663886532153,3.5057410208652093e-08,-0.00229569564269163,0.054937888132692,0.01018954302933163,-2.894190097981587e-20,-0.025655125948137174,-0.011117451131460102,-0.005285397178557046,3.505741020868104e-08,0.023359430305445544,0.06605533926415211,0.015474940207888675
111,98527.244981,30.0,120,0.0,0.14095238044882305,0.5628475615185392,0.6670400846672131,0.0,0.009338703814899318,0.08608044897596123,0.01875008083106522,0.0,0.26060633115504783,0.7077147026645352,0.23599376908066463,3.569801741842283e-08,0.005245301020656494,0.07476782874657172,0.017062863657642563,-2.631081907255985e-20,-0.02328334410566197,-0.010067396802578876,-0.004785411913905313,3.569801741844914e-08,0.028528645126318464,0.08483522554915059,0.021848275571547875
112,98527.277686,29.0,120,0.0,0.1414215866329232,0.5660150773367796,0.667779907279974,0.0,0.016830680456170644,0.10732138383886891,0.02549102065067821,0.0,0.20699046814704594,0.5051909809629882,0.1567988785027693,2.6529368592521093e-08,0.010703578034643453,0.08973855788709222,0.02166425433088331,-2.5433791770141e-20,-0.02245257320170219,-0.009677545084812486,-0.004598833908575913,2.6529368592546528e-08,0.033156151236345646,0.0994161029719047,0.026263088239459224
113,98527.309954,28.0,120,0.0,0.14204376368538213,0.5698114639156272,0.6686938211868333,0.0,0.022806670519387673,0.11902948047397821,0.028980587330991625,0.0,0.12788965869734187,0.22090686748244193,0.06540131632984764,1.3429487600472385e-08,0.014693492852080815,0.0962656537224829,0.023542535509887365,-2.455676446772213e-20,-0.021613888478049934,-0.00927987901453509,-0.00440829992526948,1.3429487600496943e-08,0.03630738133013075,0.10554553273701799,0.027950835435156845
114,98527.343229,26.0,120,0.0,0.14292361461175024,0.5738194446272222,0.6696807277639808,0.0,0.025095731061814508,0.1215099705064393,0.02969019365202996,0.0,-0.05047521050160203,-0.17253142043749525,-0.05215142341417911,-7.542353958572792e-09,0.014737082895761417,0.09431762275167357,0.022934872465695273,-2.280270986288548e-20,-0.020003574348272844,-0.008551230278679855,-0.004060598266806112,-7.54235395854999e-09,0.03474065724403426,0.10286885303035342,0.026995470732501387
115,98527.374397,25.0,120,0.0,0.14366650063238573,0.5776376065021013,0.6706070194594147,0.0,0.02004057711460039,0.1089192546342197,0.02591962187850605,0.0,-0.07624047424466529,-0.3788617182116971,-0.102620704569369,-1.618070806612005e-08,0.010438925779149379,0.08218690992279964,0.019414770102717117,-1.4558798785530866e-20,-0.019197507673601955,-0.008186184669576487,-0.003897951182045147,-1.6180708066105493e-08,0.029636433452751333,0.09037309459237614,0.023312721284762264
116,98527.408295,26.0,120,0.0,0.14420595052593574,0.5808289715771083,0.6713455589574243,0.0,0.02062490797702221,0.09700200864142339,0.02311768242619827,0.0,0.11377208506572856,-0.20871055117287707,-0.035854251937905535,-2.7443339094704162e-09,0.01282176517029101,0.07436461635128805,0.017843256318015303,-1.5141150736951536e-20,-0.019914629522462184,-0.008463270120452396,-0.004028826470702406,-2.744333909455275e-09,0.03273639469275319,0.08282788647174044,0.02187208278871771
117,98527.439383,27.0,120,0.0,0.14498145248694122,0.583925994167662,0.6721021772989961,0.0,0.026914134187870253,0.09458644143685468,0.02333746295311734,0.0,0.10146103254648692,-0.2027907093030621,-0.04775106188862155,-3.069010649607394e-09,0.017736051771891793,0.07249739161164752,0.01790143459861601,-1.5723502688372988e-20,-0.020625565645258883,-0.008734397220223894,-0.004156757528430555,-3.0690106495916707e-09,0.038361617417150676,0.08123178883187142,0.022058192127046565
118,98527.472212,29.0,120,0.0,0.14593326839767218,0.5868566313822559,0.6728336383159426,0.0,0.026749025453741915,0.08359247609100606,0.01986934715216826,0.0,-0.06781797689903052,-0.33987711875376503,-0.12331524650608464,-1.4954315474404205e-08,0.01590971819539108,0.06233403030423515,0.014371736217252936,-1.688820659121551e-20,-0.022093986357609674,-0.009322828852272964,-0.004435640208495908,-1.4954315474387318e-08,0.038003704553000756,0.07165685915650812,0.018807376425748843
119,98527.504313,30.0,120,0.0,0.14672149791687586,0.589361828123688,0.6733957663580152,0.0,0.022601119532752012,0.07252540692509335,0.015356051169311158,0.0,-0.1294679665769622,-0.3483113686945276,-0.13524502778128766,-1.784418093634518e-08,0.011978141044756821,0.05340036615561695,0.010642706108072282,-1.7470558542637213e-20,-0.0228039767172472,-0.009593161615896703,-0.00456342742554638,-1.784418093632771e-08,0.03478211776200402,0.06299352777151365,0.015206133533618663
120,98527.536619,34.0,120,0.0,0.1473881351897705,0.5915255066197389,0.6738217890583971,0.0,0.018410277763629246,0.06115732413529962,0.01116082185480316,0.0,-0.08594755457389514,-0.32043336392683197,-0.1317938368114029,-1.530626832609382e-08,0.009067307156317591,0.04459000811813532,0.007322216388930796,-1.979996634832188e-20,-0.025794302801077706,-0.010822749919722367,-0.0051477358463093556,-1.530626832607402e-08,0.0348616099573953,0.05541275803785769,0.012469952235240151
121,98527.570568,34.0,120,0.0,0.14793377422885806,0.5933942052873988,0.674128398920973,0.0,0.017054169336427005,0.05140108150061984,0.006617531430539003,0.0,0.019376574999655283,-0.28474241172092407,-0.1208216758840584,-1.0005410302892445e-08,0.009043837667635241,0.037147490015973325,0.003798566140320446,-1.9799966348321347e-20,-0.02575184004985714,-0.01078086853145374,-0.005127515792274376,-1.0005410302872645e-08,0.03479567771749238,0.047928358547427066,0.008926081932594823
122,98527.601303,33.0,120,0.0,0.14848525447524952,0.5948726441981809,0.6742646198478379,0.0,0.01930036025004389,0.04272289789314243,0.0032659519629092415,0.0,0.14655320723127233,-0.21928148350698107,-0.05672883140540258,-2.345719245579987e-09,0.012121419709715042,0.030865113057033985,0.001759503469226373,-1.921761439690039e-20,-0.02496050680089366,-0.010430432674650714,-0.004961056462082662,-2.3457192455607696e-09,0.0370819265106087,0.0412955457316847,0.006720559931309035
123,98527.633883,32.0,120,0.0,0.14916093526583804,0.5960787579633725,0.6743307503864796,0.0,0.02661242970419586,0.03775700162300488,0.003224596422301218,0.0,0.27160103461976304,-0.05748193622011999,0.03178646963662968,8.870798525847013e-09,0.019231507740411338,0.0285164828722397,0.0026129892791818352,-1.863526244547874e-20,-0.02417384087616547,-0.010084760661049286,-0.00479705513715159,8.870798525865647e-09,0.04340534861657681,0.03860124353328899,0.007410044416333425
124,98527.666245,32.0,120,0.0,0.1502109666927806,0.5973243391687022,0.6744735123956705,0.0,0.03691817874412173,0.038948650777644644,0.005315864753036692,0.0,0.2776366345073849,0.025977635219253115,0.05625026792080955,1.2325673752611361e-08,0.027541826649753805,0.03030881152709766,0.004531585906322573,-1.8635262445479496e-20,-0.02413616420752294,-0.010048166919419883,-0.004779922306443294,1.2325673752629996e-08,0.05167799085727674,0.04035697844651754,0.009311508212765867
125,98527.698625,31.0,120,0.0,0.15155125302188804,0.5986003880639351,0.6746749426718159,0.0,0.0445857109277954,0.03943845515924593,0.006866049833970322,0.0,0.09675584639106838,-0.05081450396556886,0.01703201939880543,2.392729109177594e-09,0.03186422878502634,0.029933765465653565,0.005379586633887801,-1.8052910494058467e-20,-0.023339814513761027,-0.009693428081446789,-0.004611335598144006,2.392729109195647e-09,0.055204043298787364,0.039627193547100356,0.009990922232031806
126,98527.73155,29.0,120,0.0,0.15312614653200476,0.5998999003521186,0.6749226089950883,0.0,0.0430828882881884,0.035557728738021765,0.006394239257797807,0.0,-0.15900166973590657,-0.1716877173179478,-0.039580235038545755,-1.2308058914026719e-08,0.028098882715206774,0.025620518628322427,0.00443578242121763,-1.6888206591215608e-20,-0.021790384712926835,-0.00902593560451557,-0.004293874397373754,-1.2308058914009831e-08,0.04988926742813361,0.034646454232838,0.008729656818591384
127,98527.763778,29.0,120,0.0,0.15436478367400622,0.6009224751751885,0.6750931021878309,0.0,0.03438262339127851,0.028326719134920353,0.004322105236479246,0.0,-0.26482894144313024,-0.22300387653637838,-0.062273639012001544,-1.8560496234980808e-08,0.02008002128906547,0.01932427177595345,0.0025513890487364552,-1.688820659121543e-20,-0.021756135184811783,-0.008992907947512617,-0.004278302405912545,-1.856049623496392e-08,0.041836156473877256,0.02831717972346607,0.0068296914546490005
128,98527.795721,29.0,120,0.0,0.15533481268844967,0.6017195851930989,0.6752005121953637,0.0,0.026085638619415263,0.02124657149512288,0.0023969298751005397,0.0,-0.34904333634562595,-0.3140306283700471,-0.12556260373162775,-2.5686884306501284e-08,0.012599104061427302,0.01275071560067946,0.0003784022831253948,-1.688820659121509e-20,-0.02172948482610262,-0.008967228160143663,-0.004266281021040605,-2.5686884306484396e-08,0.034328588887529925,0.021717943760823123,0.004644683304166
129,98527.830685,32.0,120,0.0,0.1560830011269408,0.6023205591304313,0.675247363396275,0.0,0.010464117037554566,0.006731310413860214,-0.0044920703577577825,0.0,-0.5383030844047896,-0.4855001502190819,-0.24828232132355224,-4.0279666835487657e-08,-0.0017975303752842979,-0.0005781980802843072,-0.006360669758592919,-1.8635262445478945e-20,-0.0239551205633914,-0.009873465549971074,-0.00469773099842786,-4.027966683546902e-08,0.0221575901881071,0.009295267469686766,-0.0016629387601650586
130,98527.861014,32.0,120,0.0,0.15611269230055466,0.602249604309655,0.6749576911511326,0.0,-0.008269676644758306,-0.009844258980971077,-0.013370560829649492,0.0,-0.5149743962585638,-0.38069297407975633,-0.22262518274985285,-3.54484507897742e-08,-0.016549125709886606,-0.012789545785854842,-0.01320667587225278,-1.8635262445479634e-20,-0.02395778485491507,-0.00987616314432273,-0.004700076195504614,-3.5448450789755566e-08,0.007408659145028463,-0.002913382641532113,-0.008506599676748165
131,98527.893399,35.0,120,0.0,0.15552505715217319,0.6016712807377632,0.6743926036502762,0.0,-0.021395322300935327,-0.01643845268530164,-0.01815570455679172,0.0,-0.2976774042073226,-0.06472762338800003,-0.09360030078575288,-1.4641677592744984e-08,-0.024866735651060408,-0.014901583143446641,-0.015743569574041178,-2.038231829974292e-20,-0.026228840569580185,-0.010826348440970898,-0.005154116367337499,-1.4641677592724602e-08,0.001362104918519777,-0.004075234702475743,-0.010589453206703679
132,98527.925907,35.0,120,0.0,0.15472348462363977,0.6011832136122748,0.6737793388482605,0.0,-0.027560330960727075,-0.014010396538859382,-0.019431217047014115,0.0,-0.19595032663884177,0.06254008514359294,-0.04544443471829668,-5.737430788018748e-09,-0.02877858632882544,-0.011686205748839116,-0.016282348103995866,-2.0382318299742535e-20,-0.02625656611401693,-0.01085310264056807,-0.005168837722606235,-5.737430787998366e-09,-0.002522020214808511,-0.0008331031082710449,-0.011113510381389632
133,98527.958967,39.0,120,0.0,0.15371474966065807,0.6007537641690861,0.673117907247279,0.0,-0.03425041250753269,-0.012351352923467118,-0.021142316577853038,0.0,-0.047928848458354656,0.17445734155595954,0.029589756700317438,4.6347173103944565e-09,-0.032646384388773764,-0.009239228918503845,-0.016900722538714212,-2.271172610542827e-20,-0.02929167824496332,-0.012126472532576567,-0.005777637358368866,4.634717310417168e-09,-0.003354706143810445,0.0028872436140727226,-0.011123085180345346
134,98527.990127,40.0,120,0.0,0.15253771996225293,0.600387652601138,0.672425769489077,0.0,-0.031208303506126356,-0.003265419086529775,-0.017831199319481073,0.0,0.22298096998197775,0.3785847577737561,0.16887245464746264,2.3434472360820135e-08,-0.0274940746874368,7.369727630853352e-05,-0.012858214887812733,-2.32940780568488e-20,-0.030080469868484287,-0.012473541994350587,-0.0059454898408346155,2.343447236084343e-08,0.0025863951810474878,0.012547239270659122,-0.006912725046978117
135,98528.023102,42.0,120,0.0,0.1517377317406764,0.6005760303221824,0.6719906701414325,0.0,-0.019481246897505855,0.012254169815623328,-0.010077785790548077,0.0,0.23911054812359847,0.29348826688118385,0.1637210208756655,2.0942545777757648e-08,-0.017953088791990802,0.011636847840674666,-0.006707437961459654,-2.4458781959691866e-20,-0.031602123256745884,-0.013113729845025913,-0.0062524436432460145,2.0942545777782106e-08,0.013649034464755083,0.02475057768570058,-0.0004549943182136397
136,98528.055289,44.0,120,0.0,0.1512608409291927,0.60117597270669,0.671764227054003,0.0,-0.015445934026963482,0.016134729690193694,-0.007051614204318213,0.0,-0.099165536118001,-0.06331444489247398,0.01094651464246052,-5.980823357741861e-09,-0.01812457825524321,0.011165724660973072,-0.00581629739647087,-2.5623485862533805e-20,-0.03310724085657212,-0.013737754740169595,-0.0065511802934094575,-5.9808233577162376e-09,0.014982662601328911,0.024903479401142667,0.0007348828969385877
137,98528.0875,45.0,120,0.0,0.1507430142455438,0.6016149543814775,0.6715365595034624,0.0,-0.02587809086154591,0.008168016785402799,-0.009376841081200737,0.0,-0.4521759052067028,-0.27930369903885394,-0.10517856997171231,-2.8175247729708728e-08,-0.030016192789370698,0.002625590371000358,-0.008839575330989032,-2.620583781395467e-20,-0.033864421391106285,-0.014053955174158195,-0.006703106047242881,-2.8175247729682523e-08,0.003848228601735587,0.016679545545158554,-0.002136469283746151
138,98528.120298,46.0,120,0.0,0.1495669197077067,0.6017004985088441,0.6711519127219411,0.0,-0.044993441826689295,-0.0020604048738146474,-0.013928252461637314,0.0,-0.5253606794435043,-0.269665189678882,-0.12407354003255386,-3.065298361014753e-08,-0.046044972792494636,-0.005463522588543251,-0.012670345060816619,-2.6788189765376114e-20,-0.03464697735783484,-0.01439452378673589,-0.0068669879706937855,-3.0652983610120745e-08,-0.011397995434659795,0.008931001198192639,-0.005803357090122833
139,98528.152488,50.0,120,0.0,0.14782998530344257,0.6014866772074965,0.670634041240175,0.0,-0.06008945437316049,-0.009407819251425309,-0.017457838763824896,0.0,-0.48473066276204313,-0.21859471528149088,-0.12929010288073906,-2.709371146734278e-08,-0.057717180448133516,-0.010833008092511821,-0.015546679068162438,-2.911759757106145e-20,-0.03771553102158567,-0.015699233307101833,-0.00749122683999754,-2.7093711467313664e-08,-0.02000164942654785,0.0048662252145900125,-0.008055452228164898
140,98528.18674,53.0,120,0.0,0.1455483636719075,0.6010636546436523,0.6699861486835157,0.0,-0.07726701268133773,-0.016543175030623303,-0.022602141682769528,0.0,-0.5982687237261961,-0.32982490517704627,-0.2267930683162549,-3.5782043723221585e-08,-0.07260547369517875,-0.017660596500407615,-0.02063885003244529,-3.086465342532453e-20,-0.040059160796310805,-0.01671814746125154,-0.007979648129725049,-3.578204372319072e-08,-0.032546312898867946,-0.0009424490391560757,-0.01265920190272024
141,98528.21755,53.0,120,0.0,0.14287249735689855,0.6004377586224535,0.6691876045928697,0.0,-0.09838136375992468,-0.03007247059861662,-0.03171260900444217,0.0,-0.5067621954778918,-0.43386378101819456,-0.26881383895395394,-3.566901950009386e-08,-0.0885865068705537,-0.02952944950046645,-0.028348583386087468,-3.086465342532546e-20,-0.04015722042898263,-0.016811978300992163,-0.00802716096153004,-3.5669019500062996e-08,-0.048429286441571066,-0.012717471199474285,-0.02032142242455743
142,98528.249679,54.0,120,0.0,0.1393252696927126,0.5991446314318067,0.6679745763195595,0.0,-0.10868103163280196,-0.04383596409957313,-0.03944857635110921,0.0,-0.11448981658227031,-0.31132845060465414,-0.18625717917911905,-1.535345494738508e-08,-0.09289703588836357,-0.039316338995956046,-0.03371191644405961,-3.1447005376746735e-20,-0.04106057561487529,-0.017269408141365405,-0.00824983308705143,-1.5353454947353635e-08,-0.051836460273488275,-0.02204693085459064,-0.02546208335700818
143,98528.283114,56.0,120,0.0,0.13575153083290542,0.5975541351686388,0.6665966844282978,0.0,-0.10533854628366246,-0.050172450545300507,-0.043779071051874396,0.0,0.18376265494101274,-0.1417611640823735,-0.10104251361002525,2.4920998667966944e-09,-0.08723706932194349,-0.04269272635353952,-0.03632465213938749,-3.261170927958901e-20,-0.04274229005877116,-0.018064589040467406,-0.008634846676973038,2.492099866829306e-09,-0.04449477926317233,-0.02462813731307211,-0.02768980546241445
144,98528.314723,59.0,120,0.0,0.13246813172647068,0.5958904598911976,0.6651361326950735,0.0,-0.09702602936495985,-0.053226317625899355,-0.046121944804419,0.0,0.2840755516230349,-0.07617000877025004,-0.04053676044683685,8.817933455322705e-09,-0.0795882792314511,-0.04448597240875532,-0.037595247385567146,-3.4358765133853176e-20,-0.04519515830341472,-0.019190523340272818,-0.0091790503210425,8.817933455357064e-09,-0.03439312092803638,-0.025295449068482502,-0.028416197064524647
145,98528.347355,59.0,120,0.0,0.12953272237021693,0.5941335896460513,0.6636339410605389,0.0,-0.08704538765190195,-0.055023183119718766,-0.046313368912942465,0.0,0.44943243388804777,0.12252771980980659,0.12833746343632302,2.2846033862575597e-08,-0.06994958575118757,-0.04393999352319019,-0.03606034250536174,-5.1744610842701526e-20,-0.045295954971308554,-0.019287163947603166,-0.009203294883850155,2.2846033862627342e-08,-0.02465363077987901,-0.024652829575587024,-0.026857047621511587
146,98528.379186,60.0,120,0.0,0.1268523210178929,0.5923453744100173,0.6621510755588498,0.0,-0.06828145535379138,-0.045608824228542844,-0.03806128241022799,0.0,0.5106466685099506,0.2786497920491135,0.22715004260703808,3.069168035045516e-08,-0.05432958349078344,-0.0348523053299027,-0.028471665452824993,-5.262163814511994e-20,-0.0462140291685527,-0.019760750912360566,-0.009436064922105783,3.0691680350507784e-08,-0.00811555432223074,-0.015091554417542136,-0.01903560053071921
147,98528.476369,67.0,120,0.0,0.12494185011713643,0.5910490628756396,0.660981398548276,0.0,-0.04204762984237176,-0.02360575766577888,-0.025509562871205205,0.0,-0.16999819992523313,0.018819369193654456,-0.06041109456419669,-5.804280907389416e-09,-0.040182575219834975,-0.0198652337714513,-0.02131028496385353,-5.876082926205051e-20,-0.05172713639974629,-0.022184858643124916,-0.010599750561374363,-5.804280907330655e-09,0.011544561179911317,0.0023196248716736145,-0.010710534402479167
148,98528.50995,65.0,120,0.0,0.12327005150817982,0.5901372239333242,0.6599684164727456,0.0,-0.052861285080976206,-0.025382590068003807,-0.029737904112376867,0.0,-0.33942192438844165,-0.011688827563263338,-0.07080555846195946,-1.2954292435754705e-08,-0.050538633888634485,-0.021598547082882745,-0.02479859692831033,-5.700677465721315e-20,-0.0502788407582864,-0.021616144634795813,-0.010333270894956417,-1.29542924356977e-08,-0.0002597931303480877,1.759755191306847e-05,-0.014465326033353914
149,98528.541625,69.0,120,0.0,0.12150373157185834,0.5893861377510905,0.6590392387552838,0.0,-0.06413248251574633,-0.0245212063526683,-0.03033416463252081,0.0,-0.5184786968893741,0.004661276663447678,-0.06614227595787747,-1.868033480502372e-08,-0.061356579132608155,-0.020752302437403718,-0.02523054634927622,-6.05148838668879e-20,-0.05347105351126698,-0.0230420373147394,-0.011019823741226165,-1.8680334804963203e-08,-0.007885525621341177,0.0022897348773356814,-0.014210722608050053
150,98528.575147,63.0,120,0.0,0.11905699101148066,0.5885354395130062,0.6579869204079136,0.0,-0.08728284841993705,-0.02516435312841736,-0.03423007074618134,0.0,-0.6361797452707301,0.02337519447175357,-0.09931799245366835,-2.2102931467895713e-08,-0.08106362929677294,-0.021086464264839292,-0.02868066369191165,-5.525272005237611e-20,-0.048936295051641085,-0.021150309799257236,-0.010119782459081338,-2.210293146784046e-08,-0.03212733424513185,6.38455344179438e-05,-0.018560881232830312
151,98528.606358,63.0,120,0.0,0.11591743937776898,0.5877562233145066,0.6568360895566165,0.0,-0.10555717583743207,-0.023197996043542446,-0.03683874173220758,0.0,-0.3139019765962088,0.15664448752875804,-0.0018724168435650945,-4.874661842855337e-09,-0.0924539076940205,-0.018181288963441913,-0.029793108068558886,-5.52527200523754e-20,-0.04907114840500756,-0.021281595245228657,-0.010187377247982759,-4.874661842800085e-09,-0.04338275928901294,0.003100306281786744,-0.01960573082057613
152,98528.6395,63.0,120,0.0,0.11224429815329245,0.5870496184297425,0.6556163716834402,0.0,-0.10640198649429933,-0.014710975931517822,-0.0340252430492729,0.0,0.04911232552879463,0.2547480379807163,0.0772287620716885,1.19167676428877e-08,-0.08949306055969355,-0.010411711300875303,-0.026751346652455512,-5.52527200523758e-20,-0.04922031145542391,-0.02142693170123034,-0.010261732550450191,1.1916767642942953e-08,-0.040272749104269645,0.011015220400355038,-0.01648961410200532
153,98528.672284,64.0,120,0.0,0.10889962839537567,0.5867816806370434,0.6545909634051017,0.0,-0.1023725238875628,-0.006402527998808694,-0.03174190094810925,0.0,0.2456592587024502,0.3116239818309552,0.09536882999859425,2.0707266784446358e-08,-0.08430265726376211,-0.0031987498421826074,-0.02474375546151209,-5.612974735479498e-20,-0.050126427056967245,-0.02188867419911739,-0.010486935628258042,2.0707266784502487e-08,-0.03417623020679487,0.018689924356934784,-0.01425681983325405
154,98528.704284,65.0,120,0.0,0.1056127405361629,0.5866320944257114,0.6535607235286469,0.0,-0.09067736741913635,0.005387114948781857,-0.02788671669850018,0.0,0.5806412585337959,0.4193071860538097,0.19003551007426123,3.635778152203974e-08,-0.07158927153299967,0.007309943706847121,-0.02071272525643217,-3.9432006485090035e-20,-0.050885758110113005,-0.022203900740556712,-0.010566846483969761,3.635778152207917e-08,-0.020703513422886663,0.029513844447403834,-0.010145878772462407
155,98528.735836,75.0,120,0.0,0.10312618990312392,0.5871150904041555,0.6528148735883899,0.0,-0.06566305127911876,0.020200012179971694,-0.01972665458285583,0.0,0.728182759170989,0.38784221671351443,0.22923051685977716,4.022563875687666e-08,-0.0501011535699413,0.018844225211403973,-0.013793012278808622,-4.5498469021258224e-20,-0.0587979006497238,-0.02570116505979786,-0.012235412695702658,4.0225638756922164e-08,0.008696747079782505,0.04454539027120183,-0.0015575995831059643
156,98528.768962,66.0,120,0.0,0.10140819821413655,0.5879543751988433,0.6522974654295498,0.0,-0.043788440577195775,0.030208581746103746,-0.013155379674165246,0.0,0.4380907630611002,0.1625852375436389,0.12673438432340875,2.163197337430549e-08,-0.03551753012205283,0.02459113113952354,-0.009562897667503657,-4.003865273870634e-20,-0.05177737267938587,-0.022650961395592348,-0.010786300942616532,2.163197337434553e-08,0.016259842557333037,0.04724209253511589,0.0012234032751128748
157,98528.80067,78.0,120,0.0,0.10026480266377368,0.5890601110866565,0.6519551193124814,0.0,-0.03664305054234007,0.031128359843691555,-0.011311141245547773,0.0,0.11621607386622823,-0.004851488149598349,0.04327936833022711,4.2428947431173964e-09,-0.033033962293622314,0.023646583757506147,-0.008923695328470779,-4.731840778210824e-20,-0.061199295209578605,-0.026776219190514112,-0.012753598444142294,4.2428947431647145e-09,0.02816533291595629,0.05042280294802026,0.003829903115671515
158,98528.834799,67.0,120,0.0,0.09899279959142239,0.5899849520056166,0.6515501884942663,0.0,-0.036685721629567514,0.029718968933067913,-0.010380814648804915,0.0,-0.009656101015610874,-0.034012260997258126,0.035156732771948945,-1.1398812207482238e-09,-0.03433239047342381,0.02222488455274783,-0.008261374811935944,-4.064529899232326e-20,-0.05258587747126826,-0.02301647199274897,-0.010965467875751547,-1.1398812207075784e-09,0.018253486997844445,0.0452413565454968,0.0027040930638156033
159,98528.866607,74.0,120,0.0,0.09784323423814799,0.5910079396509105,0.6512639855007658,0.0,-0.03724205189499208,0.02885303200039324,-0.00902842587640329,0.0,-0.016757647214625027,-0.11369647418695877,0.02480694252580737,-4.114242176583148e-09,-0.03485024549786139,0.020734283880210577,-0.007283272068184178,-4.4891822767642404e-20,-0.05808946578246491,-0.025429900657414267,-0.012117447809327575,-4.114242176538256e-09,0.02323922028460352,0.046164184537624844,0.004834175741143397
160,98528.897892,78.0,120,0.0,0.09664422929058095,0.5918088083857674,0.6509805897601707,0.0,-0.03774377188053912,0.02263522402094864,-0.008797297537189053,0.0,0.08567090115147302,-0.12723373014756373,0.033897600972764355,-9.697331540100563e-10,-0.034224772937196966,0.015625293729965257,-0.007007314315814973,-4.7318407782107646e-20,-0.061249224810971135,-0.026823426106244674,-0.012783463489956303,-9.697331539627379e-10,0.02702445187377417,0.04244871983620993,0.00577614917414133
161,98528.930143,78.0,120,0.0,0.09544628667648332,0.5924402765746417,0.6507055528742682,0.0,-0.03159933199565512,0.02090940693729415,-0.006822700304681462,0.0,0.29005851392930776,0.021586992881710454,0.08867048171372702,1.1366143779714742e-08,-0.02725715342915801,0.01573597017487236,-0.004879080095728015,-4.7318407782108374e-20,-0.06127488467153204,-0.026848284465591038,-0.012797060226411576,1.136614377976206e-08,0.03401773124237403,0.0425842546404634,0.007917980130683561
162,98528.962901,76.0,120,0.0,0.0945956551656381,0.5931694668384793,0.6505387956128605,0.0,-0.018785631891552246,0.02411532182730447,-0.0030048706676399917,0.0,0.2837143930592717,0.04245291794794953,0.0887872354839678,1.1794816535343818e-08,-0.017069903030900696,0.01850920719194331,-0.0018237086376993873,-4.610511527487557e-20,-0.05971114603498695,-0.02616675385948585,-0.012473465621724788,1.1794816535389923e-08,0.042641243004086254,0.04467596105142917,0.010649756984025401
163,98528.995071,77.0,120,0.0,0.0942182035148347,0.5940038738133432,0.6505080218494805,0.0,-0.013053099007521718,0.023730371650202642,-0.001025570790833541,0.0,0.05174433901820022,-0.06974931652819621,0.02766169691141515,-3.3951837266991465e-10,-0.014812683573731148,0.017075751807596774,-0.0008524931168427095,-4.671176152849066e-20,-0.060481285429985994,-0.02649529138750316,-0.01263079508347971,-3.395183726232029e-10,0.04566860185625485,0.04357104319509993,0.011778301966637
164,98529.02735,78.0,120,0.0,0.09375410772563654,0.5946983836080171,0.6504726835394599,0.0,-0.015478373933073719,0.019607430048159458,-0.0012294969467046002,0.0,-0.032199594167265894,-0.13957420580102187,-0.014606865374947323,-5.848160097920773e-09,-0.017596046308707754,0.013077714103124695,-0.00143873369903966,-4.731840778210962e-20,-0.061259301585293406,-0.026831653385670947,-0.012791679905811325,-5.848160097873455e-09,0.043663255276585655,0.039909367488795644,0.011352946206771665
165,98529.060021,77.0,120,0.0,0.0932120149111878,0.5952758711167604,0.6504280597611029,0.0,-0.015110597086994915,0.014655683396471275,-0.001980824933335512,0.0,-0.1678006057522474,-0.4875047637890742,-0.18101754318299385,-2.3297227057458268e-08,-0.018667807558936628,0.0056321510261979,-0.0037052172971673704,-4.671176152849067e-20,-0.06047368918181755,-0.02648711024634688,-0.012627831206163235,-2.3297227057411555e-08,0.041805881622880924,0.03211926127254478,0.008922613908995864
166,98529.09228,81.0,120,0.0,0.09277176328707784,0.5956524500519776,0.650344572118422,0.0,-0.026227054117241355,-0.011771184455103167,-0.012853577927737447,0.0,-0.3383357700227047,-0.9792867779684326,-0.41059374903015966,-4.7114905148775826e-08,-0.02927981487689323,-0.02043390632751802,-0.014700998444146752,-4.913834654295956e-20,-0.06361922099782456,-0.02786684766699528,-0.013286291302295182,-4.7114905148726685e-08,0.03433940612093134,0.007432941339477257,-0.0014147071418515698
167,98529.12436,76.0,120,0.0,0.09152908349600672,0.5945268948293323,0.6496047382764026,0.0,-0.03688101863056081,-0.04829349982055753,-0.028371758957119297,0.0,-0.0194728490711516,-0.9185234315882829,-0.38000375287435617,-3.366942706566839e-08,-0.034606340696668354,-0.04904299214099892,-0.02680924044441678,-4.610511527487411e-20,-0.05978746124184256,-0.026241376779154706,-0.012515011147036986,-3.3669427065622285e-08,0.025181120545174206,-0.022801615361844215,-0.014294229297379793
168,98529.157504,77.0,120,0.0,0.09037025053951929,0.592473982923555,0.6484825662940347,0.0,-0.02682083485669895,-0.0712051352651848,-0.0374145445089038,0.0,0.3410752238654898,-0.6700590963597304,-0.2528999925291674,-1.2130675771712845e-08,-0.022941686270096857,-0.06488563712571101,-0.032771757177494636,-4.671176152849053e-20,-0.06070639296293577,-0.026718347945394544,-0.012748506820662213,-1.2130675771666133e-08,0.03776470669283891,-0.03816728918031646,-0.020023250356832424
169,98529.189648,76.0,120,0.0,0.08976196501377257,0.5898963063187024,0.6471690243220014,0.0,-0.014686857937096232,-0.09208211079789486,-0.044922358788818784,0.0,0.26569869282307507,-0.7607994643379483,-0.2754345468778576,-1.775785634142979e-08,-0.01399732124027988,-0.08250145656972317,-0.039005049829233786,-4.610511527487542e-20,-0.06004995916589618,-0.026503042788436123,-0.012653217816027188,-1.7757856341383685e-08,0.0460526379256163,-0.055998413781287046,-0.026351832013206598
170,98529.223397,78.0,120,0.0,0.08941642943003202,0.586367294726898,0.6455091457156883,0.0,-0.00968095365120325,-0.1217027417466543,-0.05570149945126701,0.0,0.2404688903433997,-0.4908909398893597,-0.14502209654524445,-8.505390491337043e-09,-0.010247885412191012,-0.10350297863676894,-0.04632517873569515,-4.7318407782108314e-20,-0.06179518359606535,-0.02736529924624157,-0.013074551304728468,-8.505390491289725e-09,0.05154729818387434,-0.07613767939052737,-0.033250627430966684
171,98529.254573,77.0,120,0.0,0.08913066985590001,0.5820795778736509,0.6435848697494305,0.0,0.0004694998969583253,-0.12586771952278575,-0.05520101795499244,0.0,0.24497693006670512,-0.020577056015312456,0.07180211409496107,8.605114841603755e-09,-0.002082366789067436,-0.10213484570671587,-0.043757159743251395,-4.671176152849056e-20,-0.06119377481446543,-0.027205176265087904,-0.013008827253392606,8.605114841650468e-09,0.05911140802539799,-0.07492966944162796,-0.03074833248985879
172,98529.287851,79.0,120,0.0,0.0894885638545572,0.5783053091609508,0.6419795620020896,0.0,0.005758486761535675,-0.12253786766824248,-0.05083129753190185,0.0,-0.049642195544192795,-0.12096423923727428,0.033752441371865616,-4.8743586903081205e-09,-0.0008144484706563071,-0.10048512673255197,-0.040644494752361024,-4.792505403572545e-20,-0.06293134496036279,-0.028060084135442236,-0.013427129059928255,-4.874358690260195e-09,0.06211689648970648,-0.07242504259710973,-0.02721736569243277
173,98529.31896,79.0,120,0.0,0.08952240867937558,0.5742280118818307,0.6403228726050592,0.0,-0.0018514977121164566,-0.1327286804174772,-0.052618388416918904,0.0,-0.11026413751049807,-0.12265372112545836,0.029772547153896767,-6.80707830168017e-09,-0.007517157316366884,-0.10866184495456581,-0.04211570597243589,-4.792505403572574e-20,-0.06310229992091881,-0.02823105431275946,-0.013517992732811072,-6.807078301632245e-09,0.055585142604551926,-0.08043079064180635,-0.02859771323962482
174,98529.351694,78.0,120,0.0,0.08936055599470895,0.5698259634300251,0.6386223670690327,0.0,-0.0008330346755909268,-0.12968503046410795,-0.04863966480579762,0.0,0.09732801119392966,0.14940468918337269,0.1430386701462414,9.665615844222396e-09,-0.004622192554317112,-0.1035082035094359,-0.03780034671423113,-4.7318407782108554e-20,-0.06249068960473531,-0.02806078067705224,-0.013444972973563604,9.665615844269714e-09,0.0578684970504182,-0.07544742283238366,-0.024355373740667527
175,98529.383913,78.0,120,0.0,0.08946409909979472,0.5657996807514969,0.6371601984380935,0.0,0.004402583955551043,-0.12308205656276172,-0.043349559832522644,0.0,0.07366600629507422,0.1250908174900136,0.12889748550239466,7.862237384177076e-09,-0.0006775280359801478,-0.09847554966671268,-0.03371123069029195,-4.731840778210728e-20,-0.06265078721601271,-0.028220923920309424,-0.013528873457883978,7.862237384224394e-09,0.06197325918003256,-0.07025462574640326,-0.020182357232407973
176,98529.415992,78.0,120,0.0,0.08964330118144329,0.5619115069722608,0.6358345091723803,0.0,0.003928361944864012,-0.12161963178052027,-0.04034195326454615,0.0,-0.0465129356498993,0.049174036252317865,0.09950169335895453,1.224064166047464e-09,-0.0022696901369240585,-0.09807276005332151,-0.03160101948802972,-4.731840778210855e-20,-0.06280067598832194,-0.02837089254015414,-0.013606962047925214,1.2240641660947825e-09,0.06053098585139788,-0.06970186751316737,-0.01799405744010451
177,98529.449357,77.0,120,0.0,0.08971683719750066,0.5578393209151804,0.6345226407355787,0.0,0.001275346047791226,-0.11985450337410342,-0.03682269751706713,0.0,0.04664371048852919,0.3144733901736152,0.18911100396063252,1.338907833250314e-08,-0.0034593692473095343,-0.09401019079104052,-0.027889957327042258,-5.0663710247216e-20,-0.06187422436248681,-0.027885881055827712,-0.01323495585231325,1.3389078332553804e-08,0.05841485511517727,-0.0661243097352128,-0.014655001474729007
178,98529.480794,79.0,120,0.0,0.08972942353483693,0.5541364755767487,0.6334389782195666,0.0,0.0064785552166839455,-0.10222059888151946,-0.02840035531245988,0.0,0.19824495773767645,0.6550830817967679,0.2769101657028862,2.9600912082382424e-08,0.002224032334071471,-0.07649757977734961,-0.02027401735781234,-5.1979650773117726e-20,-0.06362800491829121,-0.028756853254159824,-0.013653376180302622,2.9600912082434404e-08,0.06585203725236267,-0.04774072652318979,-0.006620641177509719
179,98529.513709,76.0,120,0.0,0.0901521346664163,0.5513083145251196,0.6327133875088198,0.0,0.01413183791807171,-0.07741373290758347,-0.018975749987601986,0.0,0.18824859803938543,0.7576610280622209,0.2779415488942764,3.231688295293652e-08,0.00824425500377765,-0.05562924614648483,-0.012724643754526999,-5.0005739984264256e-20,-0.06130355322561054,-0.02775681151882779,-0.013181835358149034,3.2316882952986525e-08,0.06954780822938819,-0.027872434627657042,0.0004571916036220352
180,98529.546118,77.0,120,0.0,0.09065127694175502,0.5490709555332122,0.6321963247455201,0.0,0.018820161469258245,-0.05273116331831851,-0.01023567608386422,0.0,0.10588420467285792,0.8856171452123563,0.29898665923303436,3.370727532036883e-08,0.011167710179076546,-0.03460632077267619,-0.005522723548824996,-5.066371024721602e-20,-0.06217704903284881,-0.028189136769085285,-0.013389456419945845,3.370727532041949e-08,0.07334475921192536,-0.006417184003590905,0.007866732871120849
181,98529.578321,75.0,120,0.0,0.09136673886430947,0.5478945527223156,0.6320496914225453,0.0,0.02098915348051489,-0.020243172190181014,0.00033034025276101886,0.0,-0.07739469802011603,0.9672125615790657,0.29129164470260704,3.0232671048163214e-08,0.011064178742465748,-0.007802575642851292,0.00285249328801612,-4.9347769721314333e-20,-0.06057917407723099,-0.027474405728247196,-0.013050634858530372,3.023267104821256e-08,0.07164335281969673,0.019671830085395903,0.015903128146546493
182,98529.611139,75.0,120,0.0,0.09201448771439145,0.5477749493716086,0.6322238681664175,0.0,0.013608140171468497,0.010106261776126502,0.008658683177893423,0.0,-0.36255311034622223,0.7875728544611021,0.20161442888335765,1.46277853188534e-08,0.002295822146495665,0.01467583340567262,0.008617123067766276,-4.934776972131381e-20,-0.060558760022795276,-0.02745431501574332,-0.013040281173337751,1.4627785318902748e-08,0.06285458216929093,0.042130148421415936,0.021657404241104027
183,98529.643337,76.0,120,0.0,0.09225901445215662,0.5485347316263457,0.6326085279742961,0.0,-0.0024135312022461886,0.031130194411540302,0.013502570425030669,0.0,-0.5784936001003035,0.5002954267222426,0.0999590756516805,-2.2527658867008836e-09,-0.01269128834116315,0.028618288293155242,0.011474600618095243,-5.000573998426421e-20,-0.06132654051026387,-0.0277808302525781,-0.01319338310679459,-2.252765886650878e-09,0.04863525216910072,0.056399118545733345,0.024667983724889833
184,98529.675572,78.0,120,0.0,0.09185823564104811,0.5497813189505212,0.6330939944871334,0.0,-0.023671927646535362,0.04233049350455431,0.015095608518484127,0.0,-0.6328333884920709,0.2265634594925211,0.005796929244802268,-1.3371999088580797e-08,-0.030246131664587544,0.03483945615868449,0.011806927606019256,-5.132168051016641e-20,-0.06290391709030002,-0.028475211843455955,-0.013520123224239159,-1.3371999088529475e-08,0.032657785425712474,0.06331466800214045,0.025327050830258414
185,98529.708262,79.0,120,0.0,0.09071181497472584,0.5512863917731183,0.6335886427790378,0.0,-0.043475817730286304,0.045729036825019165,0.013838959340761292,0.0,-0.3739796073455057,0.07589234856755966,-0.023573930859913828,-9.847864783827094e-09,-0.043493272302373924,0.03605456534292079,0.010508711859194383,-5.197965077311802e-20,-0.06369069555717509,-0.028820010078284383,-0.013680166883591176,-9.847864783775113e-09,0.020197423254801165,0.06487457542120517,0.02418887874278556
186,98529.740121,78.0,120,0.0,0.08906570886769344,0.5527335940665354,0.6339894063496951,0.0,-0.048192340182561466,0.047275328797445226,0.013549539199102512,0.0,0.1573437061763544,0.10615503289599049,0.04104109981111426,8.90343884977143e-09,-0.04193431823198222,0.03760175171941345,0.010925378961806339,-5.1321680510165986e-20,-0.06288595159839724,-0.028455914752209103,-0.01350389434992164,8.903438849822752e-09,0.02095163336641502,0.06605766647162255,0.024429273311727978
187,98529.772783,79.0,120,0.0,0.0876080500300602,0.554339651971368,0.6344644504566482,0.0,-0.03282721150373802,0.05267196888684467,0.01656848821982848,0.0,0.5123948039489009,0.10781215137058675,0.06530485086675952,2.0603113913899193e-08,-0.026078975321273325,0.041940915883811596,0.01358461711133237,-5.197965077311772e-20,-0.06368017164130826,-0.028808128098625468,-0.013667302251155151,2.0603113913951173e-08,0.03760119632003494,0.07074904398243706,0.027251919362487522
188,98529.805109,76.0,120,0.0,0.08692444431510575,0.5561543001407846,0.6350648059669726,0.0,-0.014920883107198746,0.054320209128793095,0.017811705196670857,0.0,0.4017228358574461,-0.1820880219794283,-0.06984582458646399,6.8308368478519445e-09,-0.012867303630064327,0.04035818806507803,0.013227037999743759,-5.0005739984264756e-20,-0.061215009259326714,-0.027666976207630003,-0.01312229793296829,6.83083684790195e-09,0.04834770562926238,0.06802516427270804,0.026349335932712048
189,98529.83777,77.0,120,0.0,0.08664257987520702,0.557868536605395,0.6356214677670473,0.0,-0.006822956514819012,0.0406816444583491,0.011956477566092971,0.0,0.16563216521984958,-0.5413331588665036,-0.22803055889768664,-1.3442698280320839e-08,-0.008761478355080253,0.025850677592359646,0.006959827334021667,-5.066371024721548e-20,-0.06196306256010191,-0.027973510579148188,-0.01326465702526323,-1.3442698280270175e-08,0.053201584205021656,0.05382418817150783,0.020224484359284898
190,98529.869959,82.0,120,0.0,0.08648028206174856,0.5588035673252401,0.6358449511034389,0.0,-0.0041025012231392655,0.01933073307087696,0.003069618229721627,0.0,0.12381194132036143,-0.5630153478750872,-0.2224150113236039,-1.5506316505427833e-08,-0.00700390295269508,0.008553551538837892,-9.34364544884379e-05,-5.3953561561970353e-20,-0.06595487152113645,-0.029758147329473444,-0.014109814591346189,-1.550631650537388e-08,0.05895096856844137,0.03831169886831134,0.01401637813685775
191,98529.902581,82.0,120,0.0,0.0863775117702904,0.5591129088681267,0.6358170360170284,0.0,0.0012356792023984209,0.004279485956534046,-0.002411672019487554,0.0,0.11815170492527999,-0.4072254252140325,-0.13212134401622017,-1.0096461812637169e-08,-0.0027874148190373464,-0.0019279327646115605,-0.003575119471837143,-5.395356156196949e-20,-0.06594782136938261,-0.029751060661720077,-0.014106910792906192,-1.0096461812583215e-08,0.06316040655034527,0.027823127897108516,0.010531791321069049
192,98529.93493,82.0,120,0.0,0.08655818063081286,0.5590844388231696,0.635689108359216,0.0,0.0035986644885290797,-0.007156556518015833,-0.005533958626971369,0.0,0.021760328624977416,-0.29753344261108466,-0.05849558788403134,-9.217782014018093e-09,-0.001862341031080847,-0.009979978658045965,-0.005336747276195002,-5.39535615619705e-20,-0.06594428008570988,-0.029747583827421882,-0.014106516265480084,-9.217782013964139e-09,0.06408193905462903,0.019767605169375917,0.008769768989285082
193,98529.967333,80.0,120,0.0,0.08661031779099292,0.5586488290965606,0.6354585304160105,0.0,0.002639160459343204,-0.014980347842888264,-0.006195268392247044,0.0,0.07752253836603212,-0.006440323986898561,0.08317036340358122,2.8902218894477435e-09,-0.0020664687183580884,-0.01332535084538342,-0.004448394113318562,-5.2637621036068197e-20,-0.06435317602983187,-0.02903934438114406,-0.013772190336945165,2.890221889500381e-09,0.06228670731147378,0.01571399353576064,0.009323796223626602
194,98529.9999,81.0,120,0.0,0.08672998562613157,0.5581106602621118,0.635286904517745,0.0,0.008670532725280955,-0.007497705236417573,-9.632013899540937e-05,0.0,0.2283130838624804,0.3900180192922661,0.24133015060240082,2.1556801406903013e-08,0.004277197427785392,-0.00336979106661567,0.0020136758357300025,-5.3295591299019245e-20,-0.06517538455828532,-0.029420173047701812,-0.013953810861167705,2.155680140695631e-08,0.06945258198607071,0.02605038198108614,0.01596748669689771
195,98530.033197,80.0,120,0.0,0.08718876969940685,0.5581683277664216,0.6354598245175164,0.0,0.01774042562380007,0.010944395814625807,0.009779507344941152,0.0,0.098645052761619,0.4586116625271101,0.22381818044631874,1.946703092944656e-08,0.010233594260480632,0.012069326172386484,0.009739063110671863,-5.263762103606768e-20,-0.06434945786415704,-0.029035836350130885,-0.013770617217130137,1.94670309294992e-08,0.07458305212463767,0.04110516252251737,0.023509680327802
196,98530.064368,81.0,120,0.0,0.08785736725431459,0.5587783026359582,0.635898491633056,0.0,0.015745175838880465,0.022460165714155877,0.01463237115019389,0.0,-0.1482238434373075,0.25669611762860545,0.08460254083023996,4.032764072098087e-09,0.006158791546666337,0.019259463105440102,0.01222824737261416,-5.3295591299019155e-20,-0.06510039728521147,-0.029345616326033698,-0.013915168119494356,4.032764072151382e-09,0.0712591888318778,0.0486050794314738,0.026143415492108517
197,98530.097048,79.0,120,0.0,0.0881764830406648,0.5596113695829792,0.6363958453274714,0.0,0.008015875105266135,0.02698620690292053,0.014961743995751675,0.0,-0.2979068880765376,0.021290403666142654,-0.042262085147264095,-9.298951661453736e-09,-0.0015285935084642746,0.020523853276328052,0.01122241842072893,-4.7925054035725446e-20,-0.063730346362065,-0.028858526411495895,-0.013831585611946076,-9.298951661405811e-09,0.062201752853600724,0.04938237968782395,0.025054004032675006
198,98530.130455,80.0,120,0.0,0.08838454107492305,0.5605639373564468,0.6368868903427878,0.0,-0.004032853789091906,0.023694872493692287,0.011762446683384553,0.0,-0.40788040866298714,-0.20407034010589475,-0.1376028378034062,-2.0840988703151594e-08,-0.012272772963617968,0.01563549686543599,0.007709079100895055,-4.85317002893425e-20,-0.06448783106062285,-0.02917468139536148,-0.013980507214049505,-2.084098870310306e-08,0.052215058097004885,0.04481017826079747,0.02168958631494456
199,98530.161591,80.0,120,0.0,0.08796121116518288,0.5611618523044385,0.6371679128098137,0.0,-0.018102786046358066,0.01427799942992447,0.006264002509194455,0.0,-0.46617765604365435,-0.37966903860595824,-0.19527280471528133,-2.8785034806080787e-08,-0.024116051639001324,0.006344043707201033,0.0027331337081777057,-4.853170028934136e-20,-0.0644773218809505,-0.029163999396941438,-0.013973283871530495,-2.8785034806032255e-08,0.040361270241949174,0.03550804310414247,0.0167064175797082
200,98530.195475,81.0,120,0.0,0.08718163648080277,0.5614640286956627,0.6372783280124383,0.0,-0.03442573632131585,-0.0014343711180071494,-0.0010413775456630248,0.0,-0.5934171895792459,-0.6692285216450691,-0.29697297623610575,-4.283478476182089e-08,-0.038456315285215634,-0.009126319939582081,-0.0041293866938168795,-4.913834654295864e-20,-0.06529905980448385,-0.029544015324994316,-0.014153841141957765,-4.2834784761771746e-08,0.026842744519268213,0.020417695385412236,0.010024454448140886
201,98530.226544,80.0,120,0.0,0.08578677250012913,0.5611245482281366,0.6371234756080403,0.0,-0.05604433517082574,-0.028081398039962124,-0.01258618186991356,0.0,-0.6453618542436317,-0.8893046416905338,-0.38674916238081586,-5.1810197164666684e-08,-0.05627847020409375,-0.032649833218199684,-0.014264183621408681,-5.26376210360691e-20,-0.06426814545423255,-0.028954035022460325,-0.013719537531042336,-5.181019716461405e-08,0.0079896752501388,-0.003695798195739359,-0.0005446460903663457
202,98530.259413,80.0,120,0.0,0.08355697600495941,0.559605014253896,0.6364454326127444,0.0,-0.07550195131694659,-0.058411905739037095,-0.025825514284955275,0.0,-0.423131816452327,-0.7292894467178281,-0.3123296674734387,-3.826187308604247e-08,-0.06961781336820287,-0.055315140199238194,-0.024111428015275466,-5.263762103606899e-20,-0.06441307068985386,-0.029098325652312358,-0.013789779644287407,-3.8261873085989837e-08,-0.005204742678349014,-0.026216814546925836,-0.010321648370988059
203,98530.291501,80.0,120,0.0,0.08089421974382502,0.5573490881357522,0.635453948743699,0.0,-0.08379030787095054,-0.07575247785899286,-0.033013801727294734,0.0,-0.11637691709289366,-0.36316617856747224,-0.1385384713350804,-1.5043865052020597e-08,-0.07317205954370642,-0.06552616169620848,-0.028123695559288453,-5.263762103606775e-20,-0.06460376069984611,-0.02928848786971396,-0.013883125386749472,-1.504386505196796e-08,-0.008568298843860317,-0.036237673826494524,-0.01424057017253898
204,98530.323769,79.0,120,0.0,0.07816427548139653,0.5547279209640767,0.6343200328886969,0.0,-0.08294026828405121,-0.08171984274825306,-0.03471043722715805,0.0,0.1909918511087747,0.023866737931806714,0.03367817613467522,8.278033852064499e-09,-0.0694096717075625,-0.06642996494712963,-0.027758475396412643,-5.1979650773118316e-20,-0.06400067851676923,-0.02912656895293984,-0.013810180030805579,8.278033852116479e-09,-0.005408993190793271,-0.03730339599418979,-0.013948295365607065
205,98530.355917,79.0,120,0.0,0.0755511412970969,0.5520851398108122,0.6332179381800065,0.0,-0.07152681901057356,-0.07426509643025625,-0.030865051683234057,0.0,0.5342776660467243,0.43972776644024303,0.20874805431538906,3.300269666881051e-08,-0.05683542433180771,-0.05630688930358743,-0.02293086867911049,-5.197965077311807e-20,-0.06420008408930511,-0.029325952220515022,-0.013908239676059305,3.300269666886249e-08,0.007364659757497401,-0.02698093708307241,-0.009022629003051185
206,98530.388691,79.0,120,0.0,0.07353294690074515,0.5499165220735643,0.6323205315552053,0.0,-0.04802728841227033,-0.0529090882163068,-0.02104541504819224,0.0,0.6868628274385029,0.6062514266395724,0.28765821901596145,4.2819547047054546e-08,-0.036508104893669215,-0.03755937485980671,-0.014286386229756282,-5.197965077311703e-20,-0.06435835672093343,-0.02948437060825974,-0.013986249263587457,4.2819547047106527e-08,0.027850251827264215,-0.008075004251546971,-0.00030013696616882496
