SII-Hqs/linker_mujoco/src/linker_hand_mujoco_ros2/retargeting_data/linker_l20a_052203/l20a_dynamics_torque.csv
frame_idx,timestamp,fsr_force_g,contact_point_count,qpos_index_joint0,qpos_index_joint1,qpos_index_joint2,qpos_index_joint3,qvel_index_joint0,qvel_index_joint1,qvel_index_joint2,qvel_index_joint3,qacc_index_joint0,qacc_index_joint1,qacc_index_joint2,qacc_index_joint3,tau_motion_no_contact_index_joint0,tau_motion_no_contact_index_joint1,tau_motion_no_contact_index_joint2,tau_motion_no_contact_index_joint3,tau_contact_fsr_index_joint0,tau_contact_fsr_index_joint1,tau_contact_fsr_index_joint2,tau_contact_fsr_index_joint3,tau_required_with_fsr_index_joint0,tau_required_with_fsr_index_joint1,tau_required_with_fsr_index_joint2,tau_required_with_fsr_index_joint3
0,98523.583638,39.0,120,0.0,0.3441099593639374,0.36176901888847357,0.47197806406021126,0.0,-0.19303765393250227,0.044109336836315016,0.07598969988476156,0.0,-2.5898013251846157,2.429016902084575,2.14904224572322,-2.9013921895324824e-06,-0.18562184675454438,0.05799928946125965,0.08188392923434747,-3.3582924480062054e-05,-0.03401342490020357,-0.016797351490603966,-0.007580502570226939,3.068153229052957e-05,-0.1516084218543408,0.07479664095186361,0.0894644318045744
1,98523.61582,40.0,120,0.0,0.33643859820365907,0.3646109126567841,0.4756717921733856,0.0,-0.28371091097411405,0.1325045322479026,0.15356272768563883,0.0,-3.0452280088311503,3.0644387802425674,2.6718531477857814,-2.8953607135713216e-06,-0.2627252106716986,0.13506432978487898,0.14917027384166467,-3.444402510775642e-05,-0.03493119265454037,-0.017273428653921074,-0.007780990524470467,3.15486643941851e-05,-0.2277940180171582,0.15233775843880004,0.15695126436613513
2,98523.649042,40.0,120,0.0,0.3254583070421219,0.3705287617492676,0.48210366022109985,0.0,-0.39268904357580325,0.24520740748899428,0.2512920920525863,0.0,-2.7429913767478435,3.4286039776016928,2.8156539847704383,-2.8641498728205783e-06,-0.3468725191424262,0.2288717290987062,0.2287939889438305,-3.444402510775658e-05,-0.03496328655822076,-0.017306968841669886,-0.007773614755537647,3.1579875234936e-05,-0.31190923258420544,0.24617869794037608,0.23656760369936813
3,98523.680232,40.0,120,0.0,0.3113896687622071,0.3801409480609894,0.49163073858833317,0.0,-0.46250931462306166,0.35320520500281916,0.3354212419483371,0.0,-1.4493429747177613,3.1154737980969873,2.2545799898164853,-2.816015735233286e-06,-0.38975365329123035,0.3121512478881309,0.2904911456388638,-3.444402510775642e-05,-0.034966701150679486,-0.017315347501450914,-0.007746177396116372,3.162800937252313e-05,-0.3547869521405509,0.32946659538958184,0.2982373230349802
4,98523.713062,39.0,120,0.0,0.29580992796382904,0.39329251866645815,0.5036782082813263,0.0,-0.482819337415588,0.4434916075847539,0.3941399652049471,0.0,-0.259311681730253,1.970124485406803,1.3015932043728364,-2.8046241770945582e-06,-0.39407741211046066,0.37293295146831207,0.3279390545682889,-3.3582924480063294e-05,-0.03405086607572168,-0.016850130749816023,-0.007501240771374305,3.077830030296873e-05,-0.360026546034739,0.3897830822181281,0.33544029533966324
5,98523.745039,39.0,120,0.0,0.2801135066220093,0.40881007966285704,0.5171280095495605,0.0,-0.4799195807894927,0.4821964459825212,0.4205935807885499,0.0,0.5765583977528559,0.19041673067974507,0.21764810902392284,-2.83236862567908e-06,-0.38339462832531296,0.38609776731996526,0.33826306862859545,-1.2395648307242667e-05,-0.03413438568740397,-0.016947276784134116,-0.007596993181023178,9.563279681563587e-06,-0.349260242637909,0.40304504410409936,0.34586006180961865
6,98523.77728,40.0,120,0.0,0.26499625588011166,0.42425657913594056,0.5306878788882752,0.0,-0.4455363088068469,0.4551790169630685,0.407793682369336,0.0,1.1551538716753393,-0.9615032812867463,-0.4415434216224332,-2.8515134141500907e-06,-0.3500952004934876,0.35296486085940043,0.3214325057699774,-1.2713485443325483e-05,-0.03491093552853465,-0.01730069729915497,-0.007713294256030433,9.861972029175392e-06,-0.31518426496495294,0.3702655581585554,0.32914580002600785
7,98523.810491,40.0,120,0.0,0.2509982376857712,0.4385553618709931,0.5437937461228577,0.0,-0.40413776669737667,0.4190209003062808,0.39160598011794967,0.0,1.211849483386457,-1.3100469200981912,-0.6349450703948953,-2.864339959631785e-06,-0.31640773962494895,0.3205525934829426,0.30654958413018824,-3.712725788188491e-05,-0.03503962509941983,-0.0174492407451896,-0.007864242380676458,3.4262917922253125e-05,-0.2813681145255291,0.33800183422813224,0.3144138265108647
8,98523.842373,40.0,120,0.0,0.23864452358596436,0.4515619210752399,0.5561865490986035,0.0,-0.3665630512626401,0.37048059908792563,0.3668474790548011,0.0,1.1554205638082795,-1.8098346744407499,-0.9668311449162283,-2.887563562912134e-06,-0.28691677678224814,0.2767194011801974,0.28342436226256035,-3.7127257881885726e-05,-0.03493766718529309,-0.017367667830650194,-0.00778789208956638,3.4239694318973594e-05,-0.251979109596955,0.2940870690108476,0.2912122543521267
9,98523.875003,41.0,120,0.0,0.22738218459695902,0.46239908038398037,0.5674267230282725,0.0,-0.3296342915774937,0.30182994855802736,0.3289457947805108,0.0,1.0306833563918616,-1.8041699369211202,-1.0621809835750664,-2.8954616557342996e-06,-0.2586210082527528,0.22185460337963023,0.25215061822678664,-3.8055439328932094e-05,-0.03572724377724571,-0.017739438188176485,-0.007916681196524425,3.515997767319779e-05,-0.2228937644755071,0.23959404156780673,0.2600672994233111
10,98523.907348,41.0,120,0.0,0.21721772852111124,0.47119051336304674,0.5775686143120528,0.0,-0.29953704801596803,0.253084550597527,0.2977758713278984,0.0,0.9275507888150738,-1.344698657335623,-1.0377825971958572,-2.8861395271099454e-06,-0.2355677682206924,0.18745506039896304,0.22746058200425937,-2.1301850208641095e-05,-0.035825223045263914,-0.01785872967017933,-0.008024724779441429,1.841571068153115e-05,-0.19974254517542847,0.20531379006914235,0.2354853067837008
11,98523.939772,41.0,120,0.0,0.20798379721298427,0.47878815268720254,0.586710872513485,0.0,-0.2695582221584889,0.21476084339827395,0.2617179297318515,0.0,0.8335725586444527,-1.339253939222,-1.2499835417276963,-2.8925889727433513e-06,-0.21252519180429685,0.15684833222882016,0.19649290518581564,-2.130185020864097e-05,-0.03577095833658771,-0.01782543526524815,-0.007978049972365002,1.840926123589762e-05,-0.17675423346770913,0.17467376749406832,0.20447095515818065
12,98523.972326,43.0,120,0.0,0.19970634175979782,0.4851401474892701,0.5945692485669709,0.0,-0.24539688162207884,0.16602152839677675,0.21651851281533396,0.0,0.6864226778022324,-1.5095093511966098,-1.3138229733577753,-2.905492743701296e-06,-0.19467278453678408,0.11614982503286801,0.1596949903112574,-2.2340964852964817e-05,-0.037472255191704294,-0.018672419967351323,-0.00832819677107058,1.943547210926352e-05,-0.15720052934507978,0.13482224500021933,0.16802318708232797
13,98524.005335,43.0,120,0.0,0.19190297101850262,0.4896463558530494,0.6008836798746948,0.0,-0.22460539750306951,0.11578158699528807,0.17564813412169222,0.0,0.8260845300269395,-1.2269597490756312,-1.0799923114441268,-2.8900394181156343e-06,-0.17663202787173032,0.0787853774089464,0.1293387318504483,-2.234096485296453e-05,-0.03745937100243639,-0.018680587263975455,-0.008308236814090828,1.9450925434848896e-05,-0.13917265686929392,0.09746596467292185,0.13764696866453913
14,98524.036831,44.0,120,0.0,0.1851832942161159,0.4926699388389337,0.6059456914964966,0.0,-0.19269042729335784,0.08600413718394861,0.14638596625507994,0.0,1.0423009631163556,-0.7549412946695004,-0.864301811190352,-2.865858428118241e-06,-0.14892256067350382,0.05968750289621837,0.10808802003816341,-2.2860522175127215e-05,-0.03833388700671404,-0.019137874574226266,-0.008492180152973101,1.9994663747008974e-05,-0.11058867366678977,0.07882537747044463,0.11658020019113652
15,98524.06907,48.0,120,0.0,0.1796529091193832,0.49511280205762764,0.610192039037041,0.0,-0.1581307453720462,0.06795181749828494,0.12065924749057899,0.0,0.8753391453408215,-0.5040429703396232,-0.721334446472583,-2.8639708247256816e-06,-0.12294616756675257,0.04775177673993678,0.08893650511644882,-2.4938751463775528e-05,-0.04182114067141358,-0.020898241851931346,-0.009255602119147511,2.2074780639049848e-05,-0.08112502689533899,0.06865001859186813,0.09819210723559633
16,98524.101313,50.0,120,0.0,0.17498681480046563,0.49705154535703966,0.6137259526445803,0.0,-0.13624838178224374,0.0535028856782116,0.09987349184060257,0.0,0.5432183472513223,-0.4012171147610155,-0.583893635201725,-2.8726996719745006e-06,-0.10877129805679493,0.037214855725179366,0.07368153837083277,-2.597786610809933e-05,-0.04356766127701426,-0.021789493985546346,-0.009635013462840538,2.3105166436124827e-05,-0.06520363677978067,0.05900434971072571,0.08331655183367331
17,98524.134185,50.0,120,0.0,0.17079185254857104,0.49858822534507996,0.6166829429780909,0.0,-0.12293114320390286,0.041886152250109276,0.08271620249742995,0.0,0.38513796632803565,-0.2451972240471677,-0.44802147588002716,-2.872876340178512e-06,-0.09970132751076566,0.0294785230868178,0.061314318742878626,-2.59778661080988e-05,-0.04357606019317375,-0.021813148748176484,-0.009632701371490934,2.3104989767920287e-05,-0.05612526731759191,0.05129167183499428,0.07094702011436956
18,98524.166701,51.0,120,0.0,0.1669452763198627,0.49979383953433426,0.6191397255830343,0.0,-0.11105082739052818,0.037393311371290316,0.07052591690657017,0.0,0.40437283960762604,-0.07539359409679214,-0.3486220824427124,-2.866206679606691e-06,-0.09000152546537496,0.02758163423913294,0.052556540440572286,-2.649742343026079e-05,-0.04446065032490129,-0.022277092624646475,-0.009826809619523553,2.3631216750654102e-05,-0.04554087514047367,0.049858726863779415,0.062383350060095835
19,98524.198942,54.0,120,0.0,0.16359656505575285,0.5010095310848649,0.6212527446883818,0.0,-0.0967665330061096,0.036969506488683024,0.06012608994097235,0.0,0.40616145152125305,-0.055034445832783385,-0.31307560968327297,-2.865499287551819e-06,-0.07855571570184668,0.02744447913367091,0.044592211205629256,-2.805609539674689e-05,-0.04708475924268562,-0.023610038382683267,-0.01040502443053069,2.519059610919507e-05,-0.03147095645916106,0.051054517516354175,0.05499723563615995
20,98524.231755,55.0,120,0.0,0.16065841895572747,0.5021980033430811,0.623044921790592,0.0,-0.08467097227940856,0.033764753799822245,0.050170048668631395,0.0,0.3708582174593307,-0.1375759689168502,-0.29143376552844646,-2.869515687802288e-06,-0.06923448370560548,0.024052569129577026,0.03684352016024451,-2.8575652718909704e-05,-0.047962463711433166,-0.024065536021131807,-0.010597348196269292,2.5706137031107416e-05,-0.02127201999417231,0.04811810515070883,0.0474408683565138
21,98524.263453,55.0,120,0.0,0.15812367782777473,0.5031931103160665,0.6244990148822721,0.0,-0.0728470027785737,0.028181827717035368,0.04129913641592964,0.0,0.4120835845260561,-0.14112528798280943,-0.2462441665861469,-2.8679747061294184e-06,-0.05936134833695139,0.019549963020227025,0.030198845033265333,-2.8575652718908694e-05,-0.04796859889648118,-0.024082629543062818,-0.010598076471572621,2.5707678012779275e-05,-0.01139274944047021,0.04363259256328984,0.040796921504837956
22,98524.295841,57.0,120,0.0,0.1559998761477941,0.5039995837919462,0.6256852371438548,0.0,-0.058207688393903556,0.02476942898498713,0.03443613580179239,0.0,0.42909886731389424,-0.05479498084209328,-0.1652269245269195,-2.864170779702283e-06,-0.04747753926660217,0.017683205115193973,0.025518891051753412,-2.9614767363232498e-05,-0.04971891530311789,-0.024974003329051683,-0.010984617707097872,2.6750596583530217e-05,0.0022413760365157173,0.042657208444245656,0.036503508758851284
23,98524.328268,57.0,120,0.0,0.15435152140163375,0.5047985306352415,0.6267308221613729,0.0,-0.045036746913275305,0.024634237478706744,0.03059359595659572,0.0,0.3989401925879281,0.036613002306373876,-0.08861781636644939,-2.8619030364261123e-06,-0.03724159775469092,0.018488836175434075,0.023211116133824036,-2.961476736323233e-05,-0.04971895425689494,-0.024981599659392912,-0.01098288693265876,2.6752864326806217e-05,0.012477356502204016,0.04347043583482699,0.03419400306648279
24,98524.360642,61.0,120,0.0,0.15308083603305017,0.5055959074473412,0.6276679075841399,0.0,-0.03235519902211026,0.027137668777365676,0.02869044795555631,0.0,0.38212251962546506,0.009628937075598198,-0.1025625585743829,-2.863559145745353e-06,-0.027265126336491762,0.020220907907776087,0.021549099928690866,-3.169299665188004e-05,-0.05320289659884004,-0.02673587105984476,-0.01174923523071387,2.8829437506134685e-05,0.025937770262348277,0.04695677896762085,0.03329833515940474
25,98524.393882,58.0,120,0.0,0.15224066920695617,0.5065835427265192,0.6286128693488671,0.0,-0.019981005323377266,0.025147206711293446,0.023787221681546677,0.0,0.3246326438608827,-0.023923167618213073,-0.10283464381689326,-2.866764373438726e-06,-0.01794235639398077,0.0182922532307688,0.01762370308389235,-3.0134324685394676e-05,-0.05057092137038179,-0.025409525583140885,-0.011161583404088323,2.726756031195595e-05,0.03262856497640102,0.043701778813909686,0.02878528648798067
26,98524.490442,67.0,120,0.0,0.1517964889416529,0.5077312597450275,0.6296078963015425,0.0,-0.001996259493391328,0.032923521076078544,0.026388912459241354,0.0,0.20881613915336417,0.3148276586640396,0.1756984894664796,-2.8580463668304517e-06,-0.0047098890314631724,0.027903316780246233,0.02249115375240294,-3.481034058485221e-05,-0.058388953249171045,-0.029325637467990908,-0.012875883751431743,3.195229421802176e-05,0.05367906421770787,0.05722895424823714,0.03536703750383468
27,98524.522838,64.0,120,0.0,0.15176011838987932,0.5090265042636124,0.6306376086023607,0.0,0.005013767040081163,0.04566919732880681,0.03369764059936742,0.0,0.27815464985274957,0.38897921239568223,0.1887865455152803,-2.852953910684345e-06,0.0015966021751900403,0.0388444757956207,0.028469814017216898,-3.3251668618367904e-05,-0.055736002017252574,-0.02797421939523089,-0.012276554269372526,3.0398714707683558e-05,0.05733260419244261,0.0668186951908516,0.040746368286589424
28,98524.556193,70.0,120,0.0,0.15213809306204687,0.5107451253774427,0.631827272283805,0.0,0.016412913551418384,0.05849062322070786,0.038730151874768026,0.0,0.25446272934550984,0.2880908101450236,0.10525957148667242,-2.85749321921771e-06,0.010478617560803698,0.04809388905713086,0.03166075582165022,-3.749660691415764e-05,-0.06135585928320921,-0.030989244326295635,-0.013848277231115588,3.463911369493993e-05,0.07183447684401291,0.0790831333834265,0.04550903305276581
29,98524.587518,66.0,120,0.0,0.15280170436525642,0.5127822584821911,0.6331306157968621,0.0,0.02181602751874845,0.06468199969010069,0.04068540161423151,0.0,-0.0025198379673008753,0.06163291986973507,-0.018253152261320182,-2.8749451976858855e-06,0.01222120795885882,0.05077990515895967,0.03198903119645968,-3.5353943661920745e-05,-0.05777766900700694,-0.029142714839755314,-0.01301577371771352,3.247899846423486e-05,0.06999887696586576,0.07992261999871499,0.045004804914173205
30,98524.620006,64.0,120,0.0,0.1535317349102044,0.5148718481790328,0.6344213460653767,0.0,0.015837495806029445,0.06210135672532324,0.03737423865925571,0.0,-0.2740736136319853,-0.095024487227092,-0.113089608908013,-2.8906961914643582e-06,0.004713477283229761,0.04714685549272491,0.02839107755595778,-3.4282612035800866e-05,-0.05595434217609846,-0.02818331507366817,-0.012580160580342814,3.139191584433651e-05,0.06066781945932822,0.07533017056639307,0.040971238136300596
31,98524.652629,62.0,120,0.0,0.1538311048480625,0.5168251399621411,0.6355634526228702,0.0,0.003946456214408034,0.058490642050673,0.033319001911090496,0.0,-0.3791628017466794,-0.20558760449147806,-0.16023699509603778,-2.8986134265235484e-06,-0.00585321744829828,0.043152863510574645,0.024675367129744562,-3.32112804096831e-05,-0.05414691241318011,-0.027242224920123913,-0.012153914657173876,3.0312666983159554e-05,0.048293694964881825,0.07039508843069855,0.03682928178691844
32,98524.685073,63.0,120,0.0,0.15379038625023803,0.5186781529128586,0.6365899170093375,0.0,-0.008828254853788131,0.04875827176170322,0.02696092608270284,0.0,-0.43542698393443596,-0.3921093103439922,-0.22337083691199744,-2.9073532771871326e-06,-0.016638255337398412,0.03350153099772858,0.018957436078978616,-3.374694622274247e-05,-0.0549694643939297,-0.027631038185912712,-0.012321697565877646,3.083959294555534e-05,0.038331209056531285,0.061132569183641294,0.031279133644856266
33,98524.718082,69.0,120,0.0,0.15324463683813447,0.520006990714076,0.6373227949661125,0.0,-0.024601055232361002,0.03272089239975795,0.018667478855359576,0.0,-0.6143943428094345,-0.602127944220445,-0.28168065693081423,-2.92126311695239e-06,-0.031054312771079902,0.01856816153445489,0.011738732352408191,-3.696094110109828e-05,-0.0601744446433531,-0.030235414816437066,-0.01347862622859047,3.403967798414589e-05,0.0291201318722732,0.048803576350891956,0.02521735858099866
34,98524.750809,69.0,120,0.0,0.15217774203180975,0.5208333256111167,0.6378190275607197,0.0,-0.049139389959041324,0.009242090584592688,0.008461457085447321,0.0,-0.7151432708769709,-0.7360285846594875,-0.3074707724763144,-2.9293689745588695e-06,-0.051697497241889746,-0.00155655922065068,0.003315405763797714,-3.696094110109875e-05,-0.060168900179852686,-0.030235870372860234,-0.013475829206857056,3.4031572126539876e-05,0.00847140293796294,0.028679311152209553,0.01679123497065477
35,98524.782564,65.0,120,0.0,0.1501077061157203,0.5206335951698321,0.6378812405727456,0.0,-0.07078127416083557,-0.014704053051014299,-0.0011672445384753871,0.0,-0.4935389080949185,-0.6145636773675467,-0.23993838320307154,-2.9163812499862816e-06,-0.06678633179918429,-0.01949708285947456,-0.003711524587324741,-3.481827784886094e-05,-0.05672137785882608,-0.028534654333963967,-0.012717344640886136,3.190189659887466e-05,-0.01006495394035821,0.009037571474489407,0.009005820053561396
36,98524.8145,66.0,120,0.0,0.14766758126106075,0.5198937551031508,0.6377435496061764,0.0,-0.08050513097696443,-0.02984943192589995,-0.006797485808979431,0.0,-0.2675104314023302,-0.425077821029205,-0.15820180752134394,-2.901048540702681e-06,-0.07229610617099641,-0.02971718302874342,-0.007397672023857075,-3.535394366192054e-05,-0.057656100974425924,-0.02904912877622967,-0.012947552586363452,3.2452895121217864e-05,-0.014640005196570487,-0.0006680542525137473,0.005549880562506377
37,98524.846768,72.0,120,0.0,0.14493621919223634,0.5187126815994579,0.6374431554960982,0.0,-0.08793183885396649,-0.04196293506008075,-0.011312355304248456,0.0,-0.004014476393569444,-0.21534217452783744,-0.06964501610642623,-2.8837999054004876e-06,-0.07559243256789036,-0.03730938829567673,-0.010123289253253134,-3.856793854027585e-05,-0.0629833182361182,-0.031792287245435376,-0.01417224842291575,3.568413863487536e-05,-0.012609114331772156,-0.005517101050241356,0.004048959169662615
38,98524.879139,70.0,120,0.0,0.14198307719762301,0.5171802068297068,0.6370119169940771,0.0,-0.08071796300188039,-0.043735909602285794,-0.011284770697704616,0.0,0.40757688071467746,0.11909381012308029,0.07296266797072755,-2.8573409655162e-06,-0.06568853727486916,-0.03537962630376247,-0.008673719797080407,-3.749660691415829e-05,-0.061330487855083785,-0.031023552014016242,-0.013832328759235986,3.463926594864209e-05,-0.004358049419785376,-0.0043560742897462285,0.0051586089621555795
39,98524.912231,79.0,120,0.0,0.13966750345178586,0.5158548541501362,0.6367073905937052,0.0,-0.060981290783135744,-0.033913192630808275,-0.006430858776703019,0.0,0.523011714212404,0.2754393624986957,0.13394614671115268,-2.848208812877662e-06,-0.048740684419863074,-0.025958981930567816,-0.004180646575153508,-4.104502845079572e-05,-0.06878841454260541,-0.03460072457398019,-0.015143948129856756,3.8196819637918055e-05,0.020047730122742337,0.008641742643412373,0.010963301554703249
40,98524.945475,72.0,120,0.0,0.1379405623002699,0.5149324113238016,0.6365861640351753,0.0,-0.04604582475999042,-0.02547088191052005,-0.0024031988826109796,0.0,0.3410245205625041,0.20694798303760792,0.09547794337711156,-2.857412631373722e-06,-0.038621384459963035,-0.019896059066932648,-0.0013444925548893223,-3.74081271956625e-05,-0.06274992113886721,-0.031602403638075115,-0.013833149772313272,3.455071456428878e-05,0.024128536678904175,0.011706344571142467,0.012488657217423949
41,98524.97711,70.0,120,0.0,0.13666156453481126,0.5141951794710286,0.6365475691141878,0.0,-0.03851606280897779,-0.020339022525738493,-0.00015571772209455048,0.0,0.08611591559530063,0.10132062616991017,0.053774995307358915,-2.8702050691488514e-06,-0.03515860429472634,-0.016853480058366715,3.495286250193932e-05,-3.6369012551338675e-05,-0.061048230733865456,-0.030773816830175053,-0.013471232277582249,3.349880748218982e-05,0.02588962643913912,0.013920336771808338,0.013506185140084188
42,98525.010645,69.0,120,0.0,0.13543796120159474,0.5136185236999613,0.6365801816608265,0.0,-0.04102822036464948,-0.01910618747269055,0.0010337241849462941,0.0,-0.23327347651056407,-0.06859710354747134,-0.010077064458953039,-2.887310165912845e-06,-0.040377239969682184,-0.017574229344645382,0.00034614494767470666,-3.5849455229176554e-05,-0.06021115350826647,-0.030376721873339875,-0.013297681685541622,3.296214506326371e-05,0.019833913538584283,0.012802492528694493,0.01364382663321633
43,98525.041171,76.0,120,0.0,0.1340593566741359,0.512982199846047,0.6366134385606252,0.0,-0.05254952867485296,-0.024127812625645007,-0.0005394671560736697,0.0,-0.3116328729538057,-0.10229488324839286,-0.03497109787503144,-2.891147936883278e-06,-0.050382394867163706,-0.021932032431342622,-0.0011620480388288305,-3.948635648431155e-05,-0.06636252001245116,-0.03351076155992217,-0.014669999928521858,3.6595208547428266e-05,0.015980125145287453,0.01157872912857955,0.013507951889693028
44,98525.074351,73.0,120,0.0,0.13204932135310266,0.5120632563100956,0.6365367921464129,0.0,-0.060516692423801866,-0.025278429228934307,-0.001102395193012029,0.0,-0.11209413736024454,0.04087553248453396,0.03580390051758864,-2.878991563063528e-06,-0.05475305658499813,-0.02141983177031096,-0.0009040737175722768,-3.7927684517824894e-05,-0.06380399680182654,-0.03226222664212306,-0.014124727816191621,3.504869295476137e-05,0.00905094021682841,0.0108423948718121,0.013220654098619344
45,98525.107327,79.0,120,0.0,0.13005578873130874,0.5113088968647879,0.6365400173085914,0.0,-0.060017302181952115,-0.02145438198318672,0.0018077118013071214,0.0,0.12771608292078862,0.10161919868965963,0.0879856702746311,-2.8684127927618894e-06,-0.05194732077395445,-0.01775207315663237,0.0019464048836295433,-4.104502845079734e-05,-0.06910805313074311,-0.034988121544633995,-0.015318952736864566,3.817661565803545e-05,0.017160732356788666,0.017236048388001624,0.01726535762049411
46,98525.138759,81.0,120,0.0,0.12818240986325896,0.5106771352492462,0.6366480666651715,0.0,-0.05263023921531418,-0.018690078482412886,0.004565380711419209,0.0,0.27025054651250613,0.007063206506602582,0.043208884766429034,-2.8669365990607504e-06,-0.04460998477162624,-0.01648761028659483,0.003704665881924034,-4.208414309512121e-05,-0.07091153248846226,-0.03594172256553528,-0.015736486414210278,3.921720649606046e-05,0.026301547716836016,0.01945411227894045,0.01944115229613431
47,98525.170927,79.0,120,0.0,0.1267188866222585,0.5101223065537365,0.636832055112075,0.0,-0.0427768968409048,-0.02112561473149288,0.004489487904688616,0.0,0.1839809556922658,-0.48730461325417523,-0.12934197145606913,-2.88688587151672e-06,-0.037601653978340456,-0.023387221857175247,0.001916691276184586,-4.1045028450795814e-05,-0.06920191858455435,-0.03510624815115272,-0.015370047274923583,3.8158142579279095e-05,0.031600264606213894,0.011719026293977475,0.01728673855110817
48,98525.203932,81.0,120,0.0,0.12539912257867533,0.5092937397227407,0.6369385740441887,0.0,-0.040847089356725874,-0.051147150207699,-0.004079558133462058,0.0,0.07137310850021916,-1.1515800920424506,-0.3173898906343776,-2.9129378093780773e-06,-0.03719919067247373,-0.0540565776469276,-0.006821264465003615,-4.208414309512016e-05,-0.07100159454327244,-0.03605268836677419,-0.01578434044201306,3.917120528574208e-05,0.03380240387079871,-0.018003889280153416,0.008963075977009443
49,98525.235574,81.0,120,0.0,0.12408054158510747,0.5068853237045384,0.6365878312812494,0.0,-0.038197286670057284,-0.09492581083608176,-0.015874610648518583,0.0,0.13430499196549806,-1.2180567131345894,-0.320903776129252,-2.912507909273262e-06,-0.03445173723260835,-0.08974780095821767,-0.016293016265532586,-4.2084143095120536e-05,-0.07109783721333407,-0.036158928699568625,-0.015834426931315815,3.9171635185847274e-05,0.03664609998072572,-0.05358887225864905,-0.00045858933421677114
50,98525.268168,78.0,120,0.0,0.12295219678022053,0.5031597298632127,0.635909595412115,0.0,-0.03212215605197244,-0.12907037918447806,-0.024592902526055838,0.0,0.16351712528596068,-0.9384938351583836,-0.23796926788069345,-2.901748627998331e-06,-0.0292985383615201,-0.11427011770609796,-0.02243844681703246,-4.052547112863482e-05,-0.06859134500413135,-0.034954754990055625,-0.015312995666673487,3.762372250063649e-05,0.03929280664261124,-0.07931536271604234,-0.007125451150358973
51,98525.300907,77.0,120,0.0,0.12198263021975825,0.4984484765728363,0.6349800032950241,0.0,-0.02752086963375855,-0.1562087254693436,-0.03141327924092785,0.0,0.22066191383272632,-0.65088646396148,-0.1446304465581591,-2.8898199762436417e-06,-0.02504486449397566,-0.13310736114783978,-0.026961532273490168,-7.146997142262973e-05,-0.06755714538601752,-0.03435885523189795,-0.014888599787655018,6.858015144638608e-05,0.042512280892041864,-0.09874850591594182,-0.01207293248583515
52,98525.333442,76.0,120,0.0,0.12115494777894074,0.4929683664480884,0.6338603530388512,0.0,-0.01775125634978081,-0.17162875776762032,-0.03405941701303483,0.0,0.40899580960335435,0.06248911318261641,0.07833235965156521,-2.859752011968293e-06,-0.015334075898364392,-0.1383074085940236,-0.026847648257977294,-7.054178997558095e-05,-0.06684499105353166,-0.034083821767723704,-0.014779134185876962,6.768203796361266e-05,0.051510915155167265,-0.1042235868262999,-0.012068514072100332
53,98525.365338,78.0,120,0.0,0.12082916961221739,0.48739430260976463,0.6327850726494344,0.0,-0.0013064348870881481,-0.1528613288731,-0.02656829425299101,0.0,0.46302025639542554,0.9459497352737372,0.33332459149823734,-2.829505814971432e-06,-0.0016282233171609466,-0.11445665726674047,-0.018303681075109192,-7.239815286967567e-05,-0.06876482765763098,-0.03514394201563829,-0.015248154117248383,6.956864705470423e-05,0.06713660434047003,-0.07931271525110217,-0.003055526957860809
54,98525.398107,79.0,120,0.0,0.12108623219417607,0.48312234244601177,0.6321549580295207,0.0,0.01209692990457012,-0.10982608309215536,-0.012330711961658025,0.0,0.3188776075302684,1.2396430974918822,0.4241254095110003,-2.8252905315615874e-06,0.007648283290614375,-0.07709512460333272,-0.006006147325489383,-7.332633431672426e-05,-0.0697588302479738,-0.035704973530573524,-0.015497249241896317,7.050104378516266e-05,0.07740711353858817,-0.041390151072759195,0.009491101916406935
55,98525.430838,80.0,120,0.0,0.12162119553794125,0.4801991340466837,0.6319768870512106,0.0,0.019586895691210415,-0.07165911196601815,0.0012127068096692284,0.0,0.14895473497509004,1.0166999654362026,0.3741326959215612,-2.838394165464408e-06,0.011928877963961089,-0.048797602986515046,0.0043271730197127715,-7.425451576376936e-05,-0.07070986441980558,-0.03622087764051553,-0.015723263391957638,7.141612159830496e-05,0.08263874238376667,-0.012576725345999518,0.02005043641167041
56,98525.463121,78.0,120,0.0,0.12235676909533866,0.47844778990336256,0.6322278805287248,0.0,0.021852155055595235,-0.04359342284040224,0.012028431607145507,0.0,0.06659721255015699,0.7745770314278999,0.31005272564245007,-2.849047075620211e-06,0.012909390482715269,-0.028770432933762257,0.012337998495131314,-7.239815286967725e-05,-0.06897031371802662,-0.035338112883467394,-0.015338834340571877,6.954910579405704e-05,0.08187970420074188,0.006567679949705137,0.027676832835703193
57,98525.495316,79.0,120,0.0,0.12303034277794939,0.4773864443746249,0.6327517086435609,0.0,0.023881578504550083,-0.02169927430640417,0.021208676196712517,0.0,0.014159885513534032,0.5343126334071161,0.22848859937721158,-2.8586779183846758e-06,0.014002153867630557,-0.013660852962761748,0.018865829543117912,-7.332633431672228e-05,-0.06986346610711948,-0.03579505521967376,-0.015533927679334007,7.04676563983376e-05,0.08386561997475003,0.02213420225691201,0.03439975722245192
58,98525.527595,78.0,120,0.0,0.12389700789879307,0.4770506461975606,0.6335961194172901,0.0,0.022756877722795332,-0.009168665604899928,0.02675047486730442,0.0,-0.08282122772515038,0.2550717413930106,0.10730455557692753,-2.8712126869347934e-06,0.012124668097207619,-0.006431950817941503,0.022086615153837537,-7.239815286967741e-05,-0.06896254977501944,-0.03531901958582591,-0.015321726765210965,6.952694018274262e-05,0.08108721787222706,0.028887068767884404,0.0374083419190485
59,98525.559964,78.0,120,0.0,0.12450079176529681,0.47679393096905015,0.6344811798203311,0.0,0.018518703675385106,-0.005233392305393991,0.02813409659162147,0.0,-0.04998238024066587,0.13590100700963376,0.07628470141443605,-2.8739917915310345e-06,0.00906191111680524,-0.004475499115755274,0.022883348135661192,-7.239815286967506e-05,-0.06894817822351967,-0.035300228626607026,-0.015307753758027141,6.952416107814402e-05,0.07801008934032491,0.030824729510851752,0.03819110189368834
60,98525.593741,79.0,120,0.0,0.12512155923211127,0.47671223961624354,0.6354593540087002,0.0,0.019683658364070933,-0.0001381392301507134,0.03189290390734989,0.0,-0.03573224776752343,0.14163297080353196,0.09906848642541,-2.873179397458264e-06,0.010137269407968136,-0.0003410101477833696,0.026118537327689772,-7.332633431672392e-05,-0.0698116747330425,-0.0357277521475299,-0.015486547644922624,7.045315491926566e-05,0.07994894414101064,0.03538674199974653,0.041605084972612394
61,98525.62456,88.0,120,0.0,0.12576489361495613,0.4767721075480211,0.6365247412407127,0.0,0.016607785142051634,0.003967670160228032,0.034602621732476635,0.0,-0.13179898495327672,0.15368595443563618,0.0729302609253869,-2.8761695250504764e-06,0.006712898264490788,0.0030636831401237947,0.028024848237033266,-8.167996734014714e-05,-0.07773643534293456,-0.03976425202281659,-0.01722811763791777,7.880379781509666e-05,0.08444933360742535,0.04282793516294038,0.045252965874951034
62,98525.656921,79.0,120,0.0,0.12615735103584003,0.4769693186811629,0.6376456533975383,0.0,0.01125545887642665,0.009636424891015238,0.03645324151942653,0.0,-0.05547925249224819,0.2672526313920814,0.1010454635257877,-2.8699529779571485e-06,0.003199162245594165,0.008737134036138725,0.029787283226739056,-7.332633431672283e-05,-0.0697609192924462,-0.03566936886518064,-0.015446377451959661,7.045638133876569e-05,0.07296008153804036,0.04440650290131937,0.04523366067869872
63,98525.689229,79.0,120,0.0,0.12649286524372633,0.4773949103301385,0.6388819436317269,0.0,0.01300835590180549,0.02124087806809616,0.041132485593561086,0.0,0.13847565268858347,0.3999322014659611,0.15705525168198986,-2.858981977922585e-06,0.006550786506869389,0.0193523461335672,0.03409209540351509,-7.332633431672403e-05,-0.06972949823814446,-0.03563548483873945,-0.015423231178669899,7.046735233880145e-05,0.07628028474501385,0.054987830972306646,0.04951532658218499
64,98525.721704,78.0,120,0.0,0.1270009498669095,0.47834806813761543,0.6403112991718916,0.0,0.020254529209380756,0.03555887842893313,0.0466318448833416,0.0,0.2169503079611118,0.4051365871540747,0.14609277639009322,-2.8561367950523456e-06,0.013136596194493248,0.03086158218962247,0.03838268230196359,-7.239815286967615e-05,-0.06879695449591636,-0.03513083552102968,-0.015194819963100365,6.95420160746238e-05,0.08193355069040961,0.06599241771065215,0.053577502265063956
65,98525.754073,79.0,120,0.0,0.1278052743970066,0.47969937621724557,0.6419051849101756,0.0,0.02707758980250885,0.04751912291749161,0.05061064623356515,0.0,0.280692074555975,0.39898925122818296,0.12016613215418537,-2.854184709922483e-06,0.01923633837000451,0.04037148292542608,0.04130722735513173,-7.332633431672394e-05,-0.06961051954987499,-0.0355069087731778,-0.015345842247058194,7.047214960680146e-05,0.0888468579198795,0.07587839169860389,0.05665306960218992
66,98525.786551,75.0,120,0.0,0.12875733706940884,0.4814308011466023,0.6435935468081455,0.0,0.038471832482471324,0.061438574565300996,0.05442365667530069,0.0,0.3213738545293696,0.35300573438878746,0.07155224935605486,-2.8542825479702646e-06,0.02876138009992117,0.0510502518553884,0.04387218606763332,-6.961360852853382e-05,-0.06600757079281416,-0.03362415029929282,-0.014520113737623368,6.675932598056356e-05,0.09476895089273533,0.08467440215468122,0.05839229980525669
67,98525.818974,80.0,120,0.0,0.13030112829677007,0.48368590783546417,0.6454370666030105,0.0,0.04793831171700802,0.07043785431441307,0.05525949806590802,0.0,0.1764624662655263,0.20076890358685306,-0.005268088571007912,-2.864162697319347e-06,0.03488074090254372,0.056727973928893255,0.043772639454577794,-4.156458577295788e-05,-0.07061310627335954,-0.03605948566331168,-0.01573678561074134,3.8700423075638534e-05,0.10549384717590327,0.09278745959220494,0.05950942506531913
68,98525.852337,73.0,120,0.0,0.13191162524121397,0.4860663140731657,0.6472257986452624,0.0,0.04986029405081194,0.07449990049505395,0.054017875047922104,0.0,-0.042717905637685294,0.09873474400977833,-0.057782877065531535,-2.8750717715896425e-06,0.03422015538440444,0.058957538333070575,0.04225406417616268,-3.7927684517823945e-05,-0.06432880935688272,-0.03278794869114067,-0.01429643870558989,3.50526127462343e-05,0.09854896474128716,0.09174548702421124,0.056550502881752576
69,98525.884226,76.0,120,0.0,0.13355003319181913,0.48853809077879623,0.6489606773683584,0.0,0.04544011082873389,0.07694685272042445,0.0515483428066279,0.0,-0.21488384745282807,0.11131839805416477,-0.0820833863875674,-2.880795114015888e-06,0.02895955657129197,0.061042976676701735,0.040035755616580716,-3.948635648431034e-05,-0.0668593516402599,-0.03401106504634929,-0.01481672823110002,3.660556137029445e-05,0.09581890821155187,0.09505404172305103,0.05485248384768074
70,98525.916346,73.0,120,0.0,0.13481744783717725,0.4909913431751,0.6505240325791959,0.0,0.03607042842071584,0.0816413159656415,0.04876164725366117,0.0,-0.303646647465471,0.19064583737542806,-0.058292641011430835,-2.881306027131298e-06,0.020577383794359017,0.06559527686651538,0.03804502555388484,-3.792768451782563e-05,-0.06411973357445543,-0.032559806594558795,-0.014173056401148076,3.5046378490694335e-05,0.08469711736881444,0.09815508346107418,0.05221808195503291
71,98525.948655,74.0,120,0.0,0.13587273027577665,0.493800154618205,0.6521023754011253,0.0,0.0258719351448522,0.08924684081016387,0.04780339813830814,0.0,-0.33291539469997156,0.19616113119008216,-0.036616000384807834,-2.882086906989394e-06,0.012128509377150792,0.07173874695528829,0.03749601081425199,-3.844724183998762e-05,-0.06489040255761674,-0.03289119566787174,-0.014305395044632756,3.556515493299822e-05,0.07701891193476754,0.10462994262316003,0.05180140585888474
72,98525.981339,74.0,120,0.0,0.136493820278475,0.49679350637736425,0.6536301282032855,0.0,0.014420237652335466,0.09436081674853547,0.04637661542760618,0.0,-0.38878712240326735,0.1164961802103539,-0.06381290229823633,-2.8868579110594843e-06,0.0024087855817619703,0.07503579617804625,0.036083088164539055,-3.844724183998754e-05,-0.0647860241925908,-0.03278274225381197,-0.014246602910562265,3.5560383928928056e-05,0.06719480977435277,0.10781853843185821,0.050329691075101324
73,98526.013919,74.0,120,0.0,0.13681480433831955,0.49995794243290037,0.6551291749465091,0.0,0.0005061091365101689,0.09685814827359351,0.04364289929263521,0.0,-0.465776987683751,-0.013115812524610027,-0.12031922601365586,-2.89421436068803e-06,-0.009493517260765038,0.07573920008121038,0.033331308435218296,-3.8447241839987414e-05,-0.06468265909223922,-0.03267727597562677,-0.014189254550740922,3.5553027479299384e-05,0.05518914183147418,0.10841647605683716,0.04752056298595922
74,98526.046342,74.0,120,0.0,0.13652964648636456,0.5030896611744087,0.6564677894582448,0.0,-0.01584454097315957,0.09353636885512628,0.038566910419600475,0.0,-0.33681356215351893,-0.15954831274086168,-0.16783458814501828,-2.8948694917643193e-06,-0.021278600874796494,0.07162123358103999,0.028796206551031746,-3.96392701663957e-05,-0.06507583581563571,-0.03307231919321564,-0.014623762568518175,3.6744400674631385e-05,0.043797234940839216,0.10469355277425563,0.04341996911954992
75,98526.078252,71.0,120,0.0,0.13580265316988846,0.5059785252995428,0.6576130676643132,0.0,-0.02133259095885709,0.08665204473350396,0.03285707784517378,0.0,0.03516367631123307,-0.0897379703932053,-0.13078874637204052,-2.879409152777112e-06,-0.021931913008353773,0.06682020897958667,0.024600875167704383,-3.8032272727217394e-05,-0.06236756553492808,-0.03166606567763523,-0.013994276501634177,3.515286357444028e-05,0.04043565252657431,0.0984862746572219,0.03859515166933856
76,98526.110637,69.0,120,0.0,0.1351594553281929,0.5086572413593242,0.65857743170866,0.0,-0.013385436226455827,0.08788726071444497,0.03020392783916037,0.0,0.21832661197460745,0.10859553813170297,-0.06053596215803314,-2.866092063456162e-06,-0.01373025828442686,0.06979829894116654,0.02318251755851781,-3.696094110109789e-05,-0.06054788935903325,-0.030715168919296418,-0.013567651382658039,3.409484903764172e-05,0.04681763107460639,0.10051346786046296,0.03675016894117585
77,98526.143032,69.0,120,0.0,0.13493567414204805,0.5116719655155905,0.6595696866274565,0.0,-0.007189934509795659,0.09368827299036919,0.028935986068972852,0.0,0.15710166156645378,0.1429572223299891,-0.04641778754384379,-2.8669634551650346e-06,-0.009384495315878545,0.07478528100387212,0.022309864630398468,-3.6960941101098355e-05,-0.060469037543438485,-0.030637693736226296,-0.013526591785762479,3.409397764593332e-05,0.05108454222755994,0.10542297474009842,0.03583645641616095
78,98526.175645,69.0,120,0.0,0.13469192868169566,0.5147480028438384,0.6604577612686706,0.0,-0.0031875096160134397,0.09716482513907998,0.027183216534998778,0.0,0.17713749959404992,0.08116463830868414,-0.04130302655039997,-2.868161589899944e-06,-0.005979020414614063,0.07695156243169082,0.020959396743279596,-3.696094110109848e-05,-0.06038987855432841,-0.030560035893420708,-0.013486025299777488,3.4092779511198535e-05,0.054410858139714344,0.10751159832511153,0.03444542204305708
79,98526.207796,70.0,120,0.0,0.13472530572173136,0.5179621376647802,0.6613302240219555,0.0,0.00423227732615028,0.09896815560918881,0.02624962235860906,0.0,0.17897810941888437,0.06315528506481893,-0.029149788393855458,-2.868517957928554e-06,-2.1354105557380015e-05,0.07821765739570795,0.020334760057291432,-3.74966069141567e-05,-0.06117619067121139,-0.030913822806692276,-0.013635679156426276,3.462808895622815e-05,0.061154836565654014,0.10913148020240022,0.03397043921371771
80,98526.241641,69.0,120,0.0,0.13498234890744798,0.5212760216438176,0.6621870477554672,0.0,0.008444203568247932,0.10135739119781206,0.025259057673588714,0.0,-0.008200456603971298,-0.1533246272242479,-0.10877837546473312,-2.8827050255631e-06,0.0014702488410732574,0.07796374626132323,0.018745639084804318,-3.696094110109729e-05,-0.06020790262510916,-0.03037627156589997,-0.013392115621952704,3.407823607553419e-05,0.06167815146618242,0.10834001782722319,0.03213775470675702
81,98526.272599,67.0,120,0.0,0.13526781970537274,0.5245113640183927,0.6629674021051306,0.0,0.00443410626088081,0.09027002008889173,0.01963997150193819,0.0,-0.1315430272770472,-0.5228142212174198,-0.2189156545053148,-2.9000777992981484e-06,-0.002977404022333034,0.06539804212798124,0.013148491168410721,-3.588960947498006e-05,-0.05837285225451171,-0.029404201568937183,-0.012957693488839591,3.2989531675681914e-05,0.05539544823217868,0.09480224369691842,0.026106184657250314
82,98526.305047,67.0,120,0.0,0.13524888892393566,0.5269562339110948,0.6634153512037578,0.0,9.745380201353626e-05,0.06770530137400854,0.011264330453327531,0.0,-0.028518107599661377,-0.5257798424277196,-0.18184603048588724,-2.896427566186269e-06,-0.005409981243614794,0.04732081086839041,0.006819586177485874,-3.588960947497986e-05,-0.05831033795986646,-0.029341800239455314,-0.012926660652526322,3.299318190879359e-05,0.052900356716251665,0.07666261110784572,0.019746246830012196
83,98526.337963,65.0,120,0.0,0.135274831568569,0.5289296488224488,0.6637012884550717,0.0,0.00266916110638471,0.056062866900811414,0.007825699594979696,0.0,0.019342215673443602,-0.39631281495167714,-0.11389172489859625,-2.8900559111791664e-06,-0.0028680538981086783,0.039305581292671546,0.004749129221255435,-3.481827784886071e-05,-0.05652071530446542,-0.02841675987010354,-0.012516775789377727,3.192822193768155e-05,0.05365266140635674,0.06772234116277509,0.017265905010633163
84,98526.369849,71.0,120,0.0,0.13541804163882737,0.5305971082257447,0.6639242184586069,0.0,0.0014700749181373318,0.042109844518286366,0.003903030369306393,0.0,-0.208758515376264,-0.6025348816945459,-0.19373168361870235,-2.905635854861303e-06,-0.006117603850306396,0.02607799870698818,0.0008116721791145262,-3.803227272721692e-05,-0.06169057500213141,-0.030991503091059476,-0.013648768336960047,3.5126636872355616e-05,0.05557297115182502,0.05706950179804766,0.014460440516074573
85,98526.402425,63.0,120,0.0,0.13536538111551288,0.5316299268569324,0.6639485774379366,0.0,-0.011026577134092719,0.016992177788040408,-0.00476126779481767,0.0,-0.3861250053649082,-0.7135976059011429,-0.24397066698149567,-2.9160718775681138e-06,-0.017895438792607833,0.00487087219488003,-0.006622867202658228,-3.3746946222742614e-05,-0.054716952757506834,-0.02747722649051578,-0.012100603240760902,3.08308743451745e-05,0.036821513964899,0.03234809868539581,0.005477736038102674
86,98526.434692,65.0,120,0.0,0.13470883311735538,0.5317079813453176,0.6636188720020765,0.0,-0.0235658851636531,-0.004197301129612363,-0.011930291819240324,0.0,-0.2105534340940738,-0.46423588085151124,-0.14184186320628145,-2.900782554912563e-06,-0.026161382800939804,-0.0095831733039188,-0.011335751611453752,-3.481827784886028e-05,-0.056467089309714655,-0.028366414762696135,-0.012494335275530065,3.1917495293947714e-05,0.03030570650877485,0.018783241458777335,0.0011585836640763125
87,98526.467686,69.0,120,0.0,0.13382271541680454,0.5313462782838041,0.6631674770000071,0.0,-0.024505692679059887,-0.013021336517123672,-0.013899884696227716,0.0,0.06673749886413355,-0.17679164032409264,-0.026027863836979137,-2.880564837906559e-06,-0.024126957890545225,-0.013763050472702872,-0.011751933841554072,-3.696094110109772e-05,-0.05997224229464536,-0.030147767253919013,-0.013282226708920515,3.408037626319116e-05,0.03584528440410013,0.01638471678121614,0.0015302928673664434
88,98526.499587,64.0,120,0.0,0.13311348150988864,0.5308673873693224,0.6627173092748714,0.0,-0.019439662005392933,-0.01586507756413269,-0.01369174842713683,0.0,0.21090299404321605,0.006982515559060876,0.037802098418787705,-2.8689646461298144e-06,-0.018625486014965068,-0.014198098769895298,-0.010946486199956734,-3.428261203580098e-05,-0.05565405756665603,-0.02799485418964941,-0.012336712446936491,3.141364738967117e-05,0.03702857155169096,0.013796755419754113,0.0013902262469797574
89,98526.533231,61.0,120,0.0,0.13255854400651015,0.5303033459306142,0.6622715542146359,0.0,-0.010495479989932832,-0.0122194207024382,-0.011310133564737868,0.0,0.3344769051129099,0.2072042277472257,0.10995623954206492,-2.857551556739497e-06,-0.010227897653187403,-0.009277214541353915,-0.00831903239029475,-3.26756145966228e-05,-0.05307085220393189,-0.02671122434523274,-0.01177384418714558,2.9818063039883306e-05,0.04284295455074448,0.017434009803878825,0.0034548117968508305
90,98526.56456,61.0,120,0.0,0.13240473928178437,0.5300531330204313,0.6619737871033982,0.0,0.001985485091110739,-0.0028443018653163676,-0.00672266832251367,0.0,0.4780548647170756,0.43619817036257,0.19466065901509133,-2.844385570960958e-06,0.0012008324155450435,0.0005162972587850925,-0.0038010981559235125,-3.267561459662292e-05,-0.05308167605399285,-0.02672289506017842,-0.011780748529410657,2.983122902566196e-05,0.054282508469537895,0.027239192318963514,0.007979650373487144
91,98526.596711,60.0,120,0.0,0.13269606639643577,0.5301313545303588,0.6618494325910438,0.0,0.019984140406230644,0.015698540048882492,0.001127258622359406,0.0,0.5586805325648848,0.6593177158010045,0.2539273591680717,-2.833721168465625e-06,0.016412344285357244,0.01758514210067809,0.0030723451274305277,-3.2139948783564015e-05,-0.052206401653057594,-0.026278154561275628,-0.011585249414502589,2.930622761509839e-05,0.06861874593841484,0.04386329666195372,0.014657594541933116
92,98526.630925,57.0,120,0.0,0.13377750066677785,0.5311514565147594,0.662069868567342,0.0,0.039057481923155724,0.04126295535282232,0.01017082205030384,0.0,0.4421697250129845,0.5717781366458529,0.19927743401783282,-2.8408201392433435e-06,0.03050191323797682,0.03716118681877328,0.009760483285939515,-3.053295134438639e-05,-0.04955704963367767,-0.02491967098096397,-0.010984613800973332,2.769213120514305e-05,0.0800589628716545,0.06208085779973725,0.02074509708691285
93,98526.661511,57.0,120,0.0,0.1351758032859171,0.5327265341121066,0.6624828859351114,0.0,0.04942901313436798,0.053955080890223606,0.014487386727427776,0.0,0.29153627698389284,0.3365570436603129,0.10581911579210795,-2.854327357507424e-06,0.037286196891236814,0.04496186627959719,0.012278681998433516,-3.0532951344385334e-05,-0.04949996450034404,-0.024855460238331004,-0.010953336764101065,2.767862398687791e-05,0.08678616139158085,0.06981732651792819,0.02323201876253458
94,98526.694846,55.0,120,0.0,0.1369583779431029,0.5346144429078188,0.6630015694445002,0.0,0.05741954925049342,0.062325557500754414,0.016732029156042216,0.0,0.19636543231118186,0.25022726825044284,0.05578681000553362,-2.8607200037718954e-06,0.042725045541009955,0.0507969709579291,0.013574292367694994,-4.753155184332303e-05,-0.04797981259189531,-0.02419133010658434,-0.010816392430061024,4.467083183955113e-05,0.09070485813290527,0.07498830106451344,0.024390684797756017
95,98526.726731,56.0,120,0.0,0.13890951465421073,0.5367752616588661,0.6635708231405916,0.0,0.062358915311796714,0.07027738414920748,0.018158566431882406,0.0,-0.08423564356619773,-0.01259243378576258,-0.04542637975248742,-2.880124465904656e-06,0.043859920450368906,0.054528712939277815,0.013702649022452815,-4.8395761876838134e-05,-0.048773963253574394,-0.02454335790572505,-0.010970389690029144,4.551563741093348e-05,0.09263388370394329,0.07907207084500287,0.024673038712481957
96,98526.759048,56.0,120,0.0,0.14096295925659458,0.5391285733369502,0.6641676512302163,0.0,0.05180342924122283,0.06128921112849639,0.013737133158812753,0.0,-0.4839079590193349,-0.4213987279871365,-0.1975446489158137,-2.9096177796310957e-06,0.031402182639818296,0.0432460455617799,0.008642888700298772,-4.839576187683627e-05,-0.048689462078296636,-0.024448847720000045,-0.010924521369019974,4.5486144097205174e-05,0.08009164471811493,0.06769489328177994,0.019567410069318746
97,98526.793142,53.0,120,0.0,0.1423069710944694,0.5408034337351729,0.6644658443881036,0.0,0.029647745822170002,0.041768679808569686,0.004817659694221987,0.0,-0.6405179433049355,-0.44150646908063784,-0.2078197921552306,-2.9165266513636483e-06,0.012108295316242844,0.02742961262374611,0.0014045842357753866,-4.5803131776292374e-05,-0.046026643397080076,-0.0230784856504425,-0.01031035754902708,4.2886605124928724e-05,0.05813493871332292,0.05050809827418861,0.011714941784802466
98,98526.823517,55.0,120,0.0,0.14294304692066523,0.5418730888994543,0.6645058677635958,0.0,0.010444314260857679,0.03190418701372355,-3.9100750434784004e-05,0.0,-0.5904868753679146,-0.22995360322915387,-0.1145631686467377,-2.907154075059513e-06,-0.0027475988154138965,0.021658008658735295,-0.001547242436116404,-4.753155184332187e-05,-0.047732029950679544,-0.023914899675877087,-0.010683584662281491,4.462439776826236e-05,0.04498443113526565,0.04557290833461238,0.009136342226165087
99,98526.857296,53.0,120,0.0,0.14290155167036703,0.5428264120604203,0.6644535816544191,0.0,-0.007934369442631262,0.027697822469237465,-0.0022061257667544965,0.0,-0.3977264762777458,0.018246688998160066,-0.015358965018035648,-2.89112398735452e-06,-0.01551132557009565,0.02078075619328071,-0.0022873878965896633,-4.580313177629341e-05,-0.04597899117126327,-0.023028126941200544,-0.010287562327064502,4.291200778893889e-05,0.03046766560116762,0.04380888313448125,0.008000174430474839
100,98526.888469,54.0,120,0.0,0.14246129687351744,0.5436747463055933,0.6643658738799012,0.0,-0.016122216624427477,0.03237391889698671,-0.0012812008858418267,0.0,-0.12795162333259186,0.2895950904676722,0.08355694062969873,-2.8714262116881936e-06,-0.01934953502977883,0.027241627963814765,-0.0005566397078790498,-4.666734180980778e-05,-0.04683723109963083,-0.02345537271726929,-0.010478806357774475,4.379591559811958e-05,0.027487696069852,0.050697000681084056,0.009922166649895425
101,98526.92179,48.0,120,0.0,0.1418528806823314,0.5449372674233504,0.6643777617984705,0.0,-0.015587843669761181,0.04699530928185247,0.0034222665119951756,0.0,0.11699758878680619,0.4419981821934841,0.15274399125080904,-2.8568133238248988e-06,-0.016460455592579786,0.04046823519559893,0.003899364274393995,-4.148208160871865e-05,-0.04161903739707995,-0.020837677125980093,-0.009309204978288618,3.862526828489375e-05,0.025158581804500164,0.061305912321579024,0.013208569252682614
102,98526.953135,45.0,120,0.0,0.14144304904602534,0.5466788264279991,0.6645754225392098,0.0,-0.008943615695927054,0.06094392450261843,0.008551705158160061,0.0,0.2119668238621426,0.3431637253160841,0.13341776681002426,-2.856713008577215e-06,-0.010191693370531432,0.05064081405828465,0.007810063441794795,-3.8889451508173026e-05,-0.038992903165938536,-0.019511969480708102,-0.008715977237642048,3.603273849959581e-05,0.028801209795407103,0.07015278353899275,0.016526040679436842
103,98526.985756,42.0,120,0.0,0.14129155090063863,0.5488496233753706,0.6649306279292866,0.0,-0.0020291844375379675,0.0686809367171719,0.011877758524148518,0.0,0.1742199028342576,0.1431064477095244,0.07120634065408282,-2.8651818894913934e-06,-0.005039498165078347,0.054829974831569366,0.009848656279082706,-3.629682140762741e-05,-0.0363593192356437,-0.018177664351843287,-0.008118351373972607,3.343163951813602e-05,0.03131982107056536,0.07300763918341266,0.01796700765305531
104,98527.017917,40.0,120,0.0,0.14130920557665866,0.5511261645740146,0.6653439841168057,0.0,0.002377176487189381,0.07030058281971208,0.013192688650539353,0.0,0.08164603033120257,-0.07639483353036758,-0.005842320470167722,-2.8764823513364757e-06,-0.002444038478636336,0.05393019443443521,0.010129800630916345,-3.45684013405978e-05,-0.0345915626166626,-0.017275639772830233,-0.007713725719677161,3.169191898926132e-05,0.03214752413802627,0.07120583420726545,0.017843526350593504
105,98527.051612,36.0,120,0.0,0.14145384501209293,0.5534778144984147,0.6658005135454282,0.0,0.0031737907359228323,0.06325171856651579,0.011346225605716853,0.0,-0.0403862878489236,-0.3200926347020253,-0.09528303785793359,-2.889873239597281e-06,-0.0030321816869591733,0.045853268979450724,0.007757798427690245,-3.111156120653819e-05,-0.031097039448998536,-0.015512258926594335,-0.0069245908377200726,2.822168796694091e-05,0.028064857762039364,0.06136552790604506,0.014682389265410318
106,98527.08339,33.0,120,0.0,0.14152117070190456,0.5552918074153821,0.6660950602847374,0.0,-2.8533946519804232e-05,0.04975624013092528,0.00710502160205273,0.0,-0.10517165946941999,-0.3908105748436532,-0.12292979906577026,-2.8949349358809797e-06,-0.006243057757994291,0.0343504034090204,0.004088398792108047,-2.8518931105993584e-05,-0.028481272762843193,-0.014195032060945878,-0.006335508252207514,2.5623996170112605e-05,0.0222382150048489,0.04854543546996628,0.010423907044315561
107,98527.116484,32.0,120,0.0,0.14144622561639425,0.5566859171885619,0.6662556172814398,0.0,-0.0036607255070739697,0.03799004489622426,0.003399822529011942,0.0,-0.11700089235164486,-0.23206537917248893,-0.07755146069990587,-2.8897358626332455e-06,-0.009263571571805098,0.026527613530610776,0.001578632449033405,-2.7654721072478748e-05,-0.027601525735001207,-0.013748408555318076,-0.006135571102349375,2.4764985209845504e-05,0.01833795416319611,0.040276022085928856,0.00771420355138278
108,98527.147983,33.0,120,0.0,0.14128905973677536,0.5577585733809765,0.6663191844150566,0.0,-0.007563411400002273,0.03438205316376397,0.0019886224240721617,0.0,-0.05989382670489714,0.04303532955439815,0.003331547134477926,-2.877752946918394e-06,-0.011807417362939906,0.026396397513726615,0.0012595228268468626,-2.8518931105992997e-05,-0.02845208680139251,-0.014166507928523453,-0.006321874188782606,2.5641178159074604e-05,0.0166446694384526,0.040562905442250066,0.007581397015629468
109,98527.180536,34.0,120,0.0,0.14095625751689833,0.5588888602955099,0.666382929414522,0.0,-0.007359865230156082,0.04108427658099956,0.0037163766597334558,0.0,0.11696924159800123,0.4196929138105093,0.12747460601253394,-2.8575471169875646e-06,-0.00986301640650493,0.03553131881388329,0.0038848167845887275,-2.938314113950839e-05,-0.029302877937592314,-0.01458538180919081,-0.006508516538239197,2.6525594022520823e-05,0.019439861531087385,0.050116700623074106,0.010393333322827925
110,98527.212747,33.0,120,0.0,0.14081045705855497,0.5604150261483952,0.6665586755514237,0.0,-6.334770148619384e-05,0.061417569662303606,0.010193765875674998,0.0,0.2590902381408674,0.6981626729380904,0.23325663886532153,-2.8419801351214265e-06,-0.0025937488022533483,0.05458862047223993,0.010126006555747679,-2.8518931105992967e-05,-0.028422728905332102,-0.014138517124605848,-0.006308432641606956,2.567695097087154e-05,0.025828980103078755,0.06872713759684577,0.016434439197354635
111,98527.244981,30.0,120,0.0,0.14095238044882305,0.5628475615185392,0.6670400846672131,0.0,0.009338703814899318,0.08608044897596123,0.01875008083106522,0.0,0.26060633115504783,0.7077147026645352,0.23599376908066463,-2.8413395279116223e-06,0.004946147666813961,0.07441759700420739,0.016999060087916927,-2.5926301005448816e-05,-0.025808039202203845,-0.012822023279133513,-0.0057194434928947374,2.3084961477537192e-05,0.030754186869017805,0.0872396202833409,0.022718503580811664
112,98527.277686,29.0,120,0.0,0.1414215866329232,0.5660150773367796,0.667779907279974,0.0,0.016830680456170644,0.10732138383886891,0.02549102065067821,0.0,0.20699046814704594,0.5051909809629882,0.1567988785027693,-2.850508176737555e-06,0.010402611850849921,0.0893869633167262,0.02160006927045982,-2.5062090971933726e-05,-0.024905918664477646,-0.012351592950115668,-0.005507253246028948,2.221158279519617e-05,0.03530853051532756,0.10173855626684186,0.027107322516488768
113,98527.309954,28.0,120,0.0,0.14204376368538213,0.5698114639156272,0.6686938211868333,0.0,0.022806670519387673,0.11902948047397821,0.028980587330991625,0.0,0.12788965869734187,0.22090686748244193,0.06540131632984764,-2.863608057729507e-06,0.014390279590655846,0.09591240880350009,0.023477887295111893,-2.304227342208119e-05,-0.02414357050824277,-0.012020649798966257,-0.005437646050335746,2.0178665364351684e-05,0.03853385009889862,0.10793305860246635,0.02891553334544764
114,98527.343229,26.0,120,0.0,0.14292361461175024,0.5738194446272222,0.6696807277639808,0.0,0.025095731061814508,0.1215099705064393,0.02969019365202996,0.0,-0.05047521050160203,-0.17253142043749525,-0.05215142341417911,-2.8845798992888936e-06,0.01443121089987678,0.09396256299485106,0.02286971612702369,-2.1396396749075904e-05,-0.022368768734602466,-0.011109805016297944,-0.005023167618658484,1.851181684978701e-05,0.036799979634479243,0.10507236801114901,0.027892883745682173
115,98527.374397,25.0,120,0.0,0.14366650063238573,0.5776376065021013,0.6706070194594147,0.0,0.02004057711460039,0.1089192546342197,0.02591962187850605,0.0,-0.07624047424466529,-0.3788617182116971,-0.102620704569369,-2.893218253396244e-06,0.010130655533938267,0.08183016447498549,0.019349141178246522,-2.0573458412573137e-05,-0.021462860588852207,-0.010635344417830863,-0.00480639936933762,1.7680240159176895e-05,0.031593516122790474,0.09246550889281635,0.02415554054758414
116,98527.408295,26.0,120,0.0,0.14420595052593574,0.5808289715771083,0.6713455589574243,0.0,0.02062490797702221,0.09700200864142339,0.02311768242619827,0.0,0.11377208506572856,-0.20871055117287707,-0.035854251937905535,-2.8797818792397077e-06,0.01251160624085636,0.07400649966335283,0.017777243939205316,-2.1396396749075653e-05,-0.022282333003362326,-0.011020519674861277,-0.004978579216411355,1.8516614869835945e-05,0.03479393924421868,0.0850270193382141,0.02275582315561667
117,98527.439383,27.0,120,0.0,0.14498145248694122,0.583925994167662,0.6721021772989961,0.0,0.026914134187870253,0.09458644143685468,0.02333746295311734,0.0,0.10146103254648692,-0.2027907093030621,-0.04775106188862155,-2.8801065559797646e-06,0.01742373217296914,0.0721378581455311,0.017835026446457878,-2.221933508557835e-05,-0.023097598027568483,-0.011400857759915384,-0.0051483605061699664,1.9339228529598585e-05,0.04052133020053762,0.08353871590544648,0.022983386952627846
118,98527.472212,29.0,120,0.0,0.14593326839767218,0.5868566313822559,0.6728336383159426,0.0,0.026749025453741915,0.08359247609100606,0.01986934715216826,0.0,-0.06781797689903052,-0.33987711875376503,-0.12331524650608464,-2.8919918608044853e-06,0.015595073274184416,0.061973084573028685,0.01430493500977599,-2.3865211758584337e-05,-0.024763912981867076,-0.012198410957151943,-0.005506369195055743,2.0973219897779853e-05,0.04035898625605149,0.07417149553018063,0.019811304204831733
119,98527.504313,30.0,120,0.0,0.14672149791687586,0.589361828123688,0.6733957663580152,0.0,0.022601119532752012,0.07252540692509335,0.015356051169311158,0.0,-0.1294679665769622,-0.3483113686945276,-0.13524502778128766,-2.8948817262666384e-06,0.011661551493558856,0.053038231958380255,0.010575577539616604,-2.4688150095088137e-05,-0.02557875998244111,-0.012577972001123658,-0.005675964863829969,2.17932683688215e-05,0.03724031147599997,0.06561620395950392,0.016251542403446572
120,98527.536619,34.0,120,0.0,0.1473881351897705,0.5915255066197389,0.6738217890583971,0.0,0.018410277763629246,0.06115732413529962,0.01116082185480316,0.0,-0.08594755457389514,-0.32043336392683197,-0.1317938368114029,-2.892343813656247e-06,0.008749064895040388,0.044226860751070546,0.007254812113824942,-2.797990344109984e-05,-0.028951357527525003,-0.014215228200203845,-0.006413274597083429,2.508755962744359e-05,0.03770042242256539,0.05844208895127439,0.01366808671090837
121,98527.570568,34.0,120,0.0,0.14793377422885806,0.5933942052873988,0.674128398920973,0.0,0.017054169336427005,0.05140108150061984,0.006617531430539003,0.0,0.019376574999655283,-0.28474241172092407,-0.1208216758840584,-2.887042955633149e-06,0.008724214898552792,0.03678348561623955,0.003730932036878654,-2.797990344109934e-05,-0.028919192278541346,-0.014181510271745365,-0.006396940576144867,2.5092860485466192e-05,0.037643407177094135,0.050964995887984914,0.01012787261302352
122,98527.601303,33.0,120,0.0,0.14848525447524952,0.5948726441981809,0.6742646198478379,0.0,0.01930036025004389,0.04272289789314243,0.0032659519629092415,0.0,0.14655320723127233,-0.21928148350698107,-0.05672883140540258,-2.879383264575852e-06,0.011800559238074248,0.03050040004724084,0.0016916867578849132,-2.715696510459672e-05,-0.028043272537612032,-0.013737532948231596,-0.006196141374665719,2.4277581840020867e-05,0.03984383177568628,0.044237932995472434,0.007887828132550633
123,98527.633883,32.0,120,0.0,0.14916093526583804,0.5960787579633725,0.6743307503864796,0.0,0.02661242970419586,0.03775700162300488,0.003224596422301218,0.0,0.27160103461976304,-0.05748193622011999,0.03178646963662968,-2.8681667468040615e-06,0.0189093485324103,0.028151119395280894,0.0025450086274082986,-2.6334026768092787e-05,-0.027171406752800935,-0.013297375689418144,-0.005997321111670525,2.3465860021288725e-05,0.04608075528521123,0.04144849508469904,0.008542329739078824
124,98527.666245,32.0,120,0.0,0.1502109666927806,0.5973243391687022,0.6744735123956705,0.0,0.03691817874412173,0.038948650777644644,0.005315864753036692,0.0,0.2776366345073849,0.025977635219253115,0.05625026792080955,-2.864711871577164e-06,0.02721786302519632,0.02994265110547239,0.004463400400728534,-2.6334026768093044e-05,-0.027144652748597627,-0.013267838960164369,-0.00598344635125999,2.346931489651588e-05,0.054362515773793946,0.04321049006563676,0.010446846751988523
125,98527.698625,31.0,120,0.0,0.15155125302188804,0.5986003880639351,0.6746749426718159,0.0,0.0445857109277954,0.03943845515924593,0.006866049833970322,0.0,0.09675584639106838,-0.05081450396556886,0.01703201939880543,-2.874644816220727e-06,0.03153807001073006,0.0295666959240075,0.00531116490593022,-2.551108843159038e-05,-0.026266888685501644,-0.012820305920737731,-0.005780888224209116,2.2636443615369653e-05,0.0578049586962317,0.04238700184474523,0.011092053130139336
126,98527.73155,29.0,120,0.0,0.15312614653200476,0.5998999003521186,0.6749226089950883,0.0,0.0430828882881884,0.035557728738021765,0.006394239257797807,0.0,-0.15900166973590657,-0.1716877173179478,-0.039580235038545755,-2.8893456042443185e-06,0.027770214694455196,0.025252451073643118,0.004367099594396805,-2.160765733360582e-05,-0.024653661787061017,-0.012070870640694516,-0.005503479793663515,1.87183117293615e-05,0.05242387648151621,0.03732332171433764,0.00987057938806032
127,98527.763778,29.0,120,0.0,0.15436478367400622,0.6009224751751885,0.6750931021878309,0.0,0.03438262339127851,0.028326719134920353,0.004322105236479246,0.0,-0.26482894144313024,-0.22300387653637838,-0.062273639012001544,-2.8955980415652114e-06,0.01974938375944716,0.018955423350401283,0.002482503322091111,-2.1607657333605863e-05,-0.02462989760883716,-0.01204419489922904,-0.005490900688398921,1.871205929204065e-05,0.04437928136828432,0.030999618249630323,0.007973404010490032
128,98527.795721,29.0,120,0.0,0.15533481268844967,0.6017195851930989,0.6752005121953637,0.0,0.026085638619415263,0.02124657149512288,0.0023969298751005397,0.0,-0.34904333634562595,-0.3140306283700471,-0.12556260373162775,-2.902724429636582e-06,0.012266928867745906,0.01238126042466076,0.00030936042335308117,-2.160765733360493e-05,-0.024611405306184938,-0.012023435910559611,-0.0054811815616258594,1.870493290396835e-05,0.03687833417393084,0.02440469633522037,0.00579054198497894
129,98527.830685,32.0,120,0.0,0.1560830011269408,0.6023205591304313,0.675247363396275,0.0,0.010464117037554566,0.006731310413860214,-0.0044920703577577825,0.0,-0.5383030844047896,-0.4855001502190819,-0.24828232132355224,-2.917317212165608e-06,-0.0021308831318916695,-0.0009481127767080755,-0.006429827736195297,-2.3842932230186e-05,-0.027142016655556735,-0.013249923291418882,-0.006040199748221651,2.092561501802039e-05,0.025011133523665068,0.012301810514710807,-0.0003896279879736465
130,98527.861014,32.0,120,0.0,0.15611269230055466,0.602249604309655,0.6749576911511326,0.0,-0.008269676644758306,-0.009844258980971077,-0.013370560829649492,0.0,-0.5149743962585638,-0.38069297407975633,-0.22262518274985285,-2.9124859961199688e-06,-0.01688246895259092,-0.013159422473090224,-0.013275806335398769,-2.3842932230185302e-05,-0.027144275479773206,-0.013252106073169958,-0.006042097416820893,2.0930446234065335e-05,0.010261806527182286,9.268360007973382e-05,-0.007233708918577876
131,98527.893399,35.0,120,0.0,0.15552505715217319,0.6016712807377632,0.6743926036502762,0.0,-0.021395322300935327,-0.01643845268530164,-0.01815570455679172,0.0,-0.2976774042073226,-0.06472762338800003,-0.09360030078575288,-2.8916792229229233e-06,-0.025199074134253624,-0.015271019031782865,-0.01581255599236247,-2.6078207126765202e-05,-0.02970705372546083,-0.01451414202188255,-0.00661938908500663,2.3186527903842278e-05,0.004507979591207207,-0.0007568770099003145,-0.009193166907355839
132,98527.925907,35.0,120,0.0,0.15472348462363977,0.6011832136122748,0.6737793388482605,0.0,-0.027560330960727075,-0.014010396538859382,-0.019431217047014115,0.0,-0.19595032663884177,0.06254008514359294,-0.04544443471829668,-2.8827749761181162e-06,-0.029109668261233637,-0.012055154344619678,-0.016351175938219005,-2.6078207126764996e-05,-0.029726422906925398,-0.014535768439198996,-0.006631287927290432,2.319543215064688e-05,0.0006167546456917611,0.0024806140945793174,-0.009719888010928573
133,98527.958967,39.0,120,0.0,0.15371474966065807,0.6007537641690861,0.673117907247279,0.0,-0.03425041250753269,-0.012351352923467118,-0.021142316577853038,0.0,-0.047928848458354656,0.17445734155595954,0.029589756700317438,-2.8724028280197912e-06,-0.03297595586099974,-0.009607635088661002,-0.016969375106124715,-2.9058573655538113e-05,-0.03314721647399142,-0.016223667912938663,-0.007403747675259701,2.6186170827518323e-05,0.00017126061299168466,0.006616032824277661,-0.009565627430865014
134,98527.990127,40.0,120,0.0,0.15253771996225293,0.600387652601138,0.672425769489077,0.0,-0.031208303506126356,-0.003265419086529775,-0.017831199319481073,0.0,0.22298096998197775,0.3785847577737561,0.16887245464746264,-2.853603072969249e-06,-0.027821935103683894,-0.00029412732678924317,-0.012926680531258988,-3.2917533460116355e-05,-0.033868454310138726,-0.01651479746056155,-0.00745546272787192,3.0063930387147106e-05,0.006046519206454833,0.016220670133772305,-0.005471217803387067
135,98528.023102,42.0,120,0.0,0.1517377317406764,0.6005760303221824,0.6719906701414325,0.0,-0.019481246897505855,0.012254169815623328,-0.010077785790548077,0.0,0.23911054812359847,0.29348826688118385,0.1637210208756655,-2.856094999552719e-06,-0.01827993730459888,0.011269267496400129,-0.006775815956720864,-3.456341013312232e-05,-0.03557249362743399,-0.017353900808039176,-0.007836086224821123,3.17073151335696e-05,0.01729255632283511,0.028623168304439305,0.0010602702681002584
136,98528.055289,44.0,120,0.0,0.1512608409291927,0.60117597270669,0.671764227054003,0.0,-0.015445934026963482,0.016134729690193694,-0.007051614204318213,0.0,-0.099165536118001,-0.06331444489247398,0.01094651464246052,-2.883018368687952e-06,-0.018450992026202324,0.010798121460531173,-0.005884666729985393,-3.620928680612769e-05,-0.03726435079745258,-0.01817992719712038,-0.008210045065667828,3.3326268437439736e-05,0.018813358771250253,0.028978048657651554,0.0023253783356824353
137,98528.0875,45.0,120,0.0,0.1507430142455438,0.6016149543814775,0.6715365595034624,0.0,-0.02587809086154591,0.008168016785402799,-0.009376841081200737,0.0,-0.4521759052067028,-0.27930369903885394,-0.10517856997171231,-2.9052127930599105e-06,-0.03034206381608972,0.002258033047814693,-0.008907918981755896,-3.7032225142630634e-05,-0.03811257370247808,-0.018596329715731132,-0.008399098050927855,3.412701234957072e-05,0.00777050988638836,0.020854362763545825,-0.0005088209308280415
138,98528.120298,46.0,120,0.0,0.1495669197077067,0.6017004985088441,0.6711519127219411,0.0,-0.044993441826689295,-0.0020604048738146474,-0.013928252461637314,0.0,-0.5253606794435043,-0.269665189678882,-0.12407354003255386,-2.907690528940199e-06,-0.04636931216097549,-0.0058306767023586685,-0.012738565014747138,-3.785516347913494e-05,-0.0389779043310528,-0.019032435444021386,-0.008597841261055476,3.4947472950194744e-05,-0.007391407829922696,0.013201758741662718,-0.004140723753691662
139,98528.152488,50.0,120,0.0,0.14782998530344257,0.6014866772074965,0.670634041240175,0.0,-0.06008945437316049,-0.009407819251425309,-0.017457838763824896,0.0,-0.48473066276204313,-0.21859471528149088,-0.12929010288073906,-2.9041312567972644e-06,-0.05803914515510577,-0.011199454004168503,-0.015614691693152851,-4.114691682514515e-05,-0.042402897383816925,-0.02073026944083495,-0.009367437050752474,3.8242785568347884e-05,-0.015636247771288844,0.009530815436666448,-0.006247254642400377
140,98528.18674,53.0,120,0.0,0.1455483636719075,0.6010636546436523,0.6699861486835157,0.0,-0.07726701268133773,-0.016543175030623303,-0.022602141682769528,0.0,-0.5982687237261961,-0.32982490517704627,-0.2267930683162549,-2.9128195890535156e-06,-0.0729242710137378,-0.018026063865157465,-0.02070658042947679,-4.3615731834654545e-05,-0.04499902473778135,-0.022036210895413487,-0.009960994951989967,4.070291224560103e-05,-0.027925246275956453,0.004010147030256022,-0.010745585477486823
141,98528.21755,53.0,120,0.0,0.14287249735689855,0.6004377586224535,0.6691876045928697,0.0,-0.09838136375992468,-0.03007247059861662,-0.03171260900444217,0.0,-0.5067621954778918,-0.43386378101819456,-0.26881383895395394,-2.9127065648301954e-06,-0.08890153823195057,-0.02989371765224416,-0.028415967570800414,-4.361573183465394e-05,-0.04506258363142262,-0.022111851465735913,-0.009999382947443387,4.070302526982374e-05,-0.04383895460052795,-0.007781866186508248,-0.018416584623357025
142,98528.249679,54.0,120,0.0,0.1393252696927126,0.5991446314318067,0.6679745763195595,0.0,-0.10868103163280196,-0.04383596409957313,-0.03944857635110921,0.0,-0.11448981658227031,-0.31132845060465414,-0.18625717917911905,-2.892391000277439e-06,-0.09320689569492123,-0.039678837617702495,-0.03377878743786021,-4.4438670171157186e-05,-0.04600907309319753,-0.022641884431229307,-0.010245479705971294,4.1546279170879744e-05,-0.0471978226017237,-0.017036953186473188,-0.023533307731888917
143,98528.283114,56.0,120,0.0,0.13575153083290542,0.5975541351686388,0.6665966844282978,0.0,-0.10533854628366246,-0.050172450545300507,-0.043779071051874396,0.0,0.18376265494101274,-0.1417611640823735,-0.10104251361002525,-2.874545445463473e-06,-0.087541596927508,-0.0430533195551864,-0.03639096575321973,-4.60845468441642e-05,-0.04782037568229911,-0.02360536252345362,-0.010688868762076566,4.321000139870072e-05,-0.03972122124520889,-0.019447957031732785,-0.02570209699114316
144,98528.314723,59.0,120,0.0,0.13246813172647068,0.5958904598911976,0.6651361326950735,0.0,-0.09702602936495985,-0.053226317625899355,-0.046121944804419,0.0,0.2840755516230349,-0.07617000877025004,-0.04053676044683685,-2.868219611874876e-06,-0.07988781170022123,-0.044844718223886464,-0.03766101232730975,-4.8553361853671404e-05,-0.05049151905198515,-0.02499662271146339,-0.011326986333278997,4.568514224179653e-05,-0.02939629264823608,-0.019848095512423072,-0.02633402599403075
145,98528.347355,59.0,120,0.0,0.12953272237021693,0.5941335896460513,0.6636339410605389,0.0,-0.08704538765190195,-0.055023183119718766,-0.046313368912942465,0.0,0.44943243388804777,0.12252771980980659,0.12833746343632302,-2.8541915114676477e-06,-0.07024453318337787,-0.044296967899510084,-0.036125574459892174,-4.855336185367137e-05,-0.05059638116100189,-0.02511722839603705,-0.011389864956270462,4.569917034220372e-05,-0.019648152022375978,-0.019179739503473035,-0.024735709503621712
146,98528.379186,60.0,120,0.0,0.1268523210178929,0.5923453744100173,0.6621510755588498,0.0,-0.06828145535379138,-0.045608824228542844,-0.03806128241022799,0.0,0.5106466685099506,0.2786497920491135,0.22715004260703808,-2.8463458649798004e-06,-0.05462026238829982,-0.035207579877238354,-0.02853638296957654,-4.937630019017552e-05,-0.05155577130490072,-0.025659583052729657,-0.01164393093363654,4.652995432519572e-05,-0.0030644910833990957,-0.009547996824508697,-0.01689245203594
147,98528.476369,67.0,120,0.0,0.12494185011713643,0.5910490628756396,0.660981398548276,0.0,-0.04204762984237176,-0.02360575766577888,-0.025509562871205205,0.0,-0.16999819992523313,0.018819369193654456,-0.06041109456419669,-2.8828418262376974e-06,-0.040470189540430336,-0.020219274318868063,-0.02137462272194392,-5.513686854569546e-05,-0.057652883529844406,-0.0287473911965463,-0.013052200144570588,5.225402671945776e-05,0.01718269398941407,0.008528116877678238,-0.008322422577373333
148,98528.50995,65.0,120,0.0,0.12327005150817982,0.5901372239333242,0.6599684164727456,0.0,-0.052861285080976206,-0.025382590068003807,-0.029737904112376867,0.0,-0.33942192438844165,-0.011688827563263338,-0.07080555846195946,-2.8899918377657447e-06,-0.0508236430980181,-0.021951584206144677,-0.024862621674004402,-5.6173652178470875e-05,-0.05565787427130649,-0.027625434113190794,-0.012364181786644802,5.328366034070513e-05,0.004834231173288385,0.005673849907046117,-0.0124984398873596
149,98528.541625,69.0,120,0.0,0.12150373157185834,0.5893861377510905,0.6590392387552838,0.0,-0.06413248251574633,-0.0245212063526683,-0.03033416463252081,0.0,-0.5184786968893741,0.004661276663447678,-0.06614227595787747,-2.895717880134985e-06,-0.06163892100350099,-0.021104364259890686,-0.02529427036297787,-5.963049231253175e-05,-0.059147401357222094,-0.029401420049219733,-0.013165356507692112,5.673477443239676e-05,-0.002491519646278896,0.008297055789329048,-0.012128913855285759
150,98528.575147,63.0,120,0.0,0.11905699101148066,0.5885354395130062,0.6579869204079136,0.0,-0.08728284841993705,-0.02516435312841736,-0.03423007074618134,0.0,-0.6361797452707301,0.02337519447175357,-0.09931799245366835,-2.8991404767980446e-06,-0.08134236071479972,-0.0214372591173856,-0.0287440070870869,-5.4445232111441054e-05,-0.0540781623258443,-0.02693351345438987,-0.01206677923269627,5.154609163464301e-05,-0.02726419838895542,0.005496254337004267,-0.01667722785439063
151,98528.606358,63.0,120,0.0,0.11591743937776898,0.5877562233145066,0.6568360895566165,0.0,-0.10555717583743207,-0.023197996043542446,-0.03683874173220758,0.0,-0.3139019765962088,0.15664448752875804,-0.0018724168435650945,-2.881912207172928e-06,-0.09272813014281577,-0.01853058126878079,-0.02985600634473471,-5.44452321114428e-05,-0.05416292982838368,-0.02703741393503897,-0.012120379051697596,5.156331990426988e-05,-0.038565200314432085,0.00850683266625818,-0.017735627293037112
152,98528.6395,63.0,120,0.0,0.11224429815329245,0.5870496184297425,0.6556163716834402,0.0,-0.10640198649429933,-0.014710975931517822,-0.0340252430492729,0.0,0.04911232552879463,0.2547480379807163,0.0772287620716885,-2.86512077768703e-06,-0.08976208602330164,-0.01075932306489502,-0.026813751408262546,-5.444523211144102e-05,-0.05425499214528715,-0.027152200398804924,-0.012179218930251834,5.158011133375399e-05,-0.03550709387801449,0.016392877333909907,-0.014634532478010711
153,98528.672284,64.0,120,0.0,0.10889962839537567,0.5867816806370434,0.6545909634051017,0.0,-0.1023725238875628,-0.006402527998808694,-0.03174190094810925,0.0,0.2456592587024502,0.3116239818309552,0.09536882999859425,-2.8563302785456434e-06,-0.0845670881743929,-0.0035449681172541377,-0.024805749953969718,-5.530944214495652e-05,-0.055190715847524684,-0.027679064676065377,-0.012421756673526824,5.245311186641088e-05,-0.029376372326868218,0.02413409655881124,-0.012383993280442894
154,98528.704284,65.0,120,0.0,0.1056127405361629,0.5866320944257114,0.6535607235286469,0.0,-0.09067736741913635,0.005387114948781857,-0.02788671669850018,0.0,0.5806412585337959,0.4193071860538097,0.19003551007426123,-2.8406797638082174e-06,-0.07184922246957315,0.006965060533961874,-0.020774323377627604,-5.6173652178472304e-05,-0.05612423782530163,-0.02820432425149778,-0.012663729731496088,5.333297241466409e-05,-0.015724984644271515,0.035169384785459654,-0.008110593646131516
155,98528.735836,75.0,120,0.0,0.10312618990312392,0.5871150904041555,0.6528148735883899,0.0,-0.06566305127911876,0.020200012179971694,-0.01972665458285583,0.0,0.728182759170989,0.38784221671351443,0.22923051685977716,-2.8368119065733916e-06,-0.05035793255964638,0.018500135478520866,-0.013854365809318835,-6.481575251362037e-05,-0.06480360865632016,-0.032607415716226565,-0.014645858937823131,6.197894060704697e-05,0.014445676096673785,0.05110755119474743,0.0007914931285042965
156,98528.768962,66.0,120,0.0,0.10140819821413655,0.5879543751988433,0.6522974654295498,0.0,-0.043788440577195775,0.030208581746103746,-0.013155379674165246,0.0,0.4380907630611002,0.1625852375436389,0.12673438432340875,-2.8554055719556067e-06,-0.03577230063633578,0.0242474068537369,-0.009624126820102375,-5.703786221198642e-05,-0.05704215740196293,-0.02872121793281243,-0.012903450427164242,5.418245664003081e-05,0.02126985676562715,0.05296862478654933,0.0032793236070618667
157,98528.80067,78.0,120,0.0,0.10026480266377368,0.5890601110866565,0.6519551193124814,0.0,-0.03664305054234007,0.031128359843691555,-0.011311141245547773,0.0,0.11621607386622823,-0.004851488149598349,0.04327936833022711,-2.87279465058724e-06,-0.033287595237353695,0.023302903683199504,-0.008984890606220066,-6.74083826141671e-05,-0.06740963076971808,-0.033948695079481776,-0.015254382747705316,6.453558796357986e-05,0.034122035532364384,0.05725159876268128,0.00626949214148525
158,98528.834799,67.0,120,0.0,0.09899279959142239,0.5899849520056166,0.6515501884942663,0.0,-0.036685721629567514,0.029718968933067913,-0.010380814648804915,0.0,-0.009656101015610874,-0.034012260997258126,0.035156732771948945,-2.878177426550874e-06,-0.034584644840977063,0.021881366854451554,-0.008322503019825461,-5.7902072245500864e-05,-0.05790713437236353,-0.029173946765332658,-0.013111364024737024,5.502389481894999e-05,0.023322489531386464,0.051055313619784215,0.004788861004911563
159,98528.866607,74.0,120,0.0,0.09784323423814799,0.5910079396509105,0.6512639855007658,0.0,-0.03724205189499208,0.02885303200039324,-0.00902842587640329,0.0,-0.016757647214625027,-0.11369647418695877,0.02480694252580737,-2.8811517875067054e-06,-0.03510132927533996,0.020390837765157935,-0.007344363450575163,-6.395154248010519e-05,-0.06395507030590471,-0.03222883389785109,-0.014486199737588142,6.107039069259848e-05,0.028853741030564747,0.05261967166300903,0.007141836287012979
160,98528.897892,78.0,120,0.0,0.09664422929058095,0.5918088083857674,0.6509805897601707,0.0,-0.03774377188053912,0.02263522402094864,-0.008797297537189053,0.0,0.08567090115147302,-0.12723373014756373,0.033897600972764355,-2.8780072784838262e-06,-0.03447454039211144,0.015282017795498086,-0.00706834487376265,-6.740838261416664e-05,-0.06741712401692417,-0.03398581614037028,-0.0152779190522486,6.453037533568282e-05,0.03294258362481273,0.049267833935868366,0.00820957417848595
161,98528.930143,78.0,120,0.0,0.09544628667648332,0.5924402765746417,0.6507055528742682,0.0,-0.03159933199565512,0.02090940693729415,-0.006822700304681462,0.0,0.29005851392930776,0.021586992881710454,0.08867048171372702,-2.865671401550338e-06,-0.027505545079930797,0.015392925052314339,-0.00494003551250362,-6.740838261416525e-05,-0.06742675272887126,-0.03400534434268389,-0.015288628601501637,6.45427112126149e-05,0.039921207648940464,0.04939826939499822,0.010348593088998017
162,98528.962901,76.0,120,0.0,0.0945956551656381,0.5931694668384793,0.6505387956128605,0.0,-0.018785631891552246,0.02411532182730447,-0.0030048706676399917,0.0,0.2837143930592717,0.04245291794794953,0.0887872354839678,-2.8652427287947796e-06,-0.017317422602711706,0.01816622119805919,-0.0018846383104048155,-6.56799625471363e-05,-0.0656963967196568,-0.03313882505626824,-0.01490018379063177,6.281471981834151e-05,0.04837897411694509,0.05130504625432743,0.013015545480226954
163,98528.995071,77.0,120,0.0,0.0942182035148347,0.5940038738133432,0.6505080218494805,0.0,-0.013053099007521718,0.023730371650202642,-0.001025570790833541,0.0,0.05174433901820022,-0.06974931652819621,0.02766169691141515,-2.877377063702549e-06,-0.015060006101197206,0.016732602148828497,-0.0009134608575158533,-6.654417258065068e-05,-0.06654535130016456,-0.03356249011179375,-0.01509088773791029,6.366679551694813e-05,0.05148534519896736,0.050295092260622246,0.014177426880394436
164,98529.02735,78.0,120,0.0,0.09375410772563654,0.5946983836080171,0.6504726835394599,0.0,-0.015478373933073719,0.019607430048159458,-0.0012294969467046002,0.0,-0.032199594167265894,-0.13957420580102187,-0.014606865374947323,-2.8828857054281435e-06,-0.017843006074204214,0.012734483714904833,-0.001499718860834813,-6.740838261416586e-05,-0.06739963972921922,-0.03399229679772781,-0.015284391201463387,6.452549690873772e-05,0.04955663365501501,0.04672678051263265,0.013784672340628574
165,98529.060021,77.0,120,0.0,0.0932120149111878,0.5952758711167604,0.6504280597611029,0.0,-0.015110597086994915,0.014655683396471275,-0.001980824933335512,0.0,-0.1678006057522474,-0.4875047637890742,-0.18101754318299385,-2.9003347723875078e-06,-0.018914258224605733,0.0052889117384393594,-0.0037662016348168144,-6.654417258065046e-05,-0.06653064547531909,-0.03355606991375498,-0.015088553403980626,6.364383780826295e-05,0.047616387250713356,0.03884498165219434,0.011322351769163812
166,98529.09228,81.0,120,0.0,0.09277176328707784,0.5956524500519776,0.650344572118422,0.0,-0.026227054117241355,-0.011771184455103167,-0.012853577927737447,0.0,-0.3383357700227047,-0.9792867779684326,-0.41059374903015966,-2.9241524504785884e-06,-0.02952581424450409,-0.020777114980828255,-0.014761969639860165,-7.000101271471053e-05,-0.06998593239412151,-0.03530221656684168,-0.015874318840025967,6.707686026423194e-05,0.04046011814961742,0.014525101586013427,0.0011123492001658027
167,98529.12436,76.0,120,0.0,0.09152908349600672,0.5945268948293323,0.6496047382764026,0.0,-0.03688101863056081,-0.04829349982055753,-0.028371758957119297,0.0,-0.0194728490711516,-0.9185234315882829,-0.38000375287435617,-2.910706972395705e-06,-0.03485022348045518,-0.049385271498093984,-0.02686993377064101,-6.567996254713551e-05,-0.06572998945324733,-0.03319740717320224,-0.014932880127021337,6.27692555747398e-05,0.03087976597279215,-0.01618786432489174,-0.011937053643619674
168,98529.157504,77.0,120,0.0,0.09037025053951929,0.592473982923555,0.6484825662940347,0.0,-0.02682083485669895,-0.0712051352651848,-0.0374145445089038,0.0,0.3410752238654898,-0.6700590963597304,-0.2528999925291674,-2.889168221101761e-06,-0.02318318759865658,-0.06522664206892842,-0.032832062062033214,-4.124626760557316e-05,-0.06628981600578958,-0.033338821684287395,-0.014784834782792394,3.83570993844714e-05,0.043106628407133,-0.031887820384641025,-0.01804722727924082
169,98529.189648,76.0,120,0.0,0.08976196501377257,0.5898963063187024,0.6471690243220014,0.0,-0.014686857937096232,-0.09208211079789486,-0.044922358788818784,0.0,0.26569869282307507,-0.7607994643379483,-0.2754345468778576,-2.8947954016718165e-06,-0.0142369553207293,-0.0828411753109264,-0.03906495023243999,-4.0710601792513535e-05,-0.0655272518134,-0.0330092086758604,-0.014648259623530535,3.781580639084172e-05,0.051290296492670695,-0.049831966635066,-0.024416690608909455
170,98529.223397,78.0,120,0.0,0.08941642943003202,0.586367294726898,0.6455091457156883,0.0,-0.00968095365120325,-0.1217027417466543,-0.05570149945126701,0.0,0.2404688903433997,-0.4908909398893597,-0.14502209654524445,-2.8855429358214904e-06,-0.010485614154931202,-0.10384112208605474,-0.04638457996132024,-4.178193341863354e-05,-0.06737784298003109,-0.03400699179020701,-0.01510330329923015,3.8896390482812055e-05,0.05689222882509989,-0.06983413029584773,-0.03128127666209009
171,98529.254573,77.0,120,0.0,0.08913066985590001,0.5820795778736509,0.6435848697494305,0.0,0.0004694998969583253,-0.12586771952278575,-0.05520101795499244,0.0,0.24497693006670512,-0.020577056015312456,0.07180211409496107,-2.868432430488396e-06,-0.0023179585875596088,-0.10247112515214042,-0.043815972583127985,-4.124626760557343e-05,-0.06666070895016925,-0.03372008415436305,-0.014989712527295236,3.837783517508503e-05,0.06434275036260964,-0.06875104099777737,-0.028826260055832748
172,98529.287851,79.0,120,0.0,0.0894885638545572,0.5783053091609508,0.6419795620020896,0.0,0.005758486761535675,-0.12253786766824248,-0.05083129753190185,0.0,-0.049642195544192795,-0.12096423923727428,0.033752441371865616,-2.881911904020337e-06,-0.0010489690108612948,-0.10081999307953453,-0.040702851165505004,-4.231759923169166e-05,-0.06851090226981507,-0.03471159982478447,-0.01544207642853957,3.9435687327671325e-05,0.06746193325895378,-0.06610839325475006,-0.025260774736965433
173,98529.31896,79.0,120,0.0,0.08952240867937558,0.5742280118818307,0.6403228726050592,0.0,-0.0018514977121164566,-0.1327286804174772,-0.052618388416918904,0.0,-0.11026413751049807,-0.12265372112545836,0.029772547153896767,-2.883844623631821e-06,-0.007750053869800952,-0.10899505498744444,-0.042173542510241364,-4.231759923169259e-05,-0.06864427788935933,-0.03484468468641256,-0.015513139660302573,3.9433754608060764e-05,0.06089422401955837,-0.07415037030103189,-0.026660402849938793
174,98529.351694,78.0,120,0.0,0.08936055599470895,0.5698259634300251,0.6386223670690327,0.0,-0.0008330346755909268,-0.12968503046410795,-0.04863966480579762,0.0,0.09732801119392966,0.14940468918337269,0.1430386701462414,-2.8673719294859275e-06,-0.004853072885681327,-0.10383955191494182,-0.03785760974673205,-4.178193341863224e-05,-0.06791926857943362,-0.03454889153552707,-0.015393306014340807,3.8914561489146316e-05,0.0630661956937523,-0.06929066037941475,-0.022464303732391243
175,98529.383913,78.0,120,0.0,0.08946409909979472,0.5657996807514969,0.6371601984380935,0.0,0.004402583955551043,-0.12308205656276172,-0.043349559832522644,0.0,0.07366600629507422,0.1250908174900136,0.12889748550239466,-2.869175307946046e-06,-0.000906900759689043,-0.09880529156496233,-0.03376799893850755,-4.052547112863601e-05,-0.06753549708907651,-0.03416424145342573,-0.014949888607789832,3.7656295820689965e-05,0.06662859632938747,-0.06464105011153659,-0.018818110330717716
176,98529.415992,78.0,120,0.0,0.08964330118144329,0.5619115069722608,0.6358345091723803,0.0,0.003928361944864012,-0.12161963178052027,-0.04034195326454615,0.0,-0.0465129356498993,0.049174036252317865,0.09950169335895453,-2.8758134811641047e-06,-0.0024977149333301795,-0.09840098285615853,-0.03165732364462591,-4.052547112863408e-05,-0.06765340420485641,-0.03428062883566356,-0.015010983087124164,3.7649657647469974e-05,0.06515568927152623,-0.06412035402049497,-0.016646340557501745
177,98529.449357,77.0,120,0.0,0.08971683719750066,0.5578393209151804,0.6345226407355787,0.0,0.001275346047791226,-0.11985450337410342,-0.03682269751706713,0.0,0.04664371048852919,0.3144733901736152,0.18911100396063252,-2.863648466997757e-06,-0.003685831625921147,-0.09433678093589568,-0.02794577041727145,-4.00059138064735e-05,-0.06690843086543405,-0.03396289626566596,-0.014881743273906097,3.714226533947574e-05,0.0632225992395129,-0.060373884670229715,-0.013064027143365351
178,98529.480794,79.0,120,0.0,0.08972942353483693,0.5541364755767487,0.6334389782195666,0.0,0.0064785552166839455,-0.10222059888151946,-0.02840035531245988,0.0,0.19824495773767645,0.6550830817967679,0.2769101657028862,-2.8474366332476913e-06,0.0019990581137111245,-0.07682266974167203,-0.0203293876571888,-4.104502845079775e-05,-0.06875951441051355,-0.034958143603795615,-0.015326212297660975,3.819759181755006e-05,0.07075857252422467,-0.04186452613787641,-0.005003175359527826
179,98529.513709,76.0,120,0.0,0.0901521346664163,0.5513083145251196,0.6327133875088198,0.0,0.01413183791807171,-0.07741373290758347,-0.018975749987601986,0.0,0.18824859803938543,0.7576610280622209,0.2779415488942764,-2.844720662377126e-06,0.008019859327840514,-0.05595335378982435,-0.012779722957710751,-3.9486356484310964e-05,-0.06622270434496359,-0.03370144231127728,-0.014780573352583915,3.664163582193384e-05,0.0742425636728041,-0.02225191147854707,0.002000850394873164
180,98529.546118,77.0,120,0.0,0.09065127694175502,0.5490709555332122,0.6321963247455201,0.0,0.018820161469258245,-0.05273116331831851,-0.01023567608386422,0.0,0.10588420467285792,0.8856171452123563,0.29898665923303436,-2.8433302700100046e-06,0.010943548165751119,-0.034929717946358914,-0.005577592741559502,-4.0005913806474236e-05,-0.06714982643729667,-0.03419648827162703,-0.015001504906906504,3.7162583536464234e-05,0.07809337460304779,-0.0007332296747318834,0.009423912165347001
181,98529.578321,75.0,120,0.0,0.09136673886430947,0.5478945527223156,0.6320496914225453,0.0,0.02098915348051489,-0.020243172190181014,0.00033034025276101886,0.0,-0.07739469802011603,0.9672125615790657,0.29129164470260704,-2.8468048742820168e-06,0.010839522711923882,-0.008125783343673542,0.002797680720039498,-3.896679916214818e-05,-0.06542489181912406,-0.03332168378234437,-0.014618783382527348,3.611999428786616e-05,0.07626441453104794,0.025195900438670826,0.017416464102566847
182,98529.611139,75.0,120,0.0,0.09201448771439145,0.5477749493716086,0.6322238681664175,0.0,0.013608140171468497,0.010106261776126502,0.008658683177893423,0.0,-0.36255311034622223,0.7875728544611021,0.20161442888335765,-2.8624097600111615e-06,0.0020703296038390604,0.014352408039155,0.00856224504652094,-3.896679916214793e-05,-0.06541468625371286,-0.033306240653721786,-0.014610774564298584,3.610438940213677e-05,0.06748501585755191,0.04765864869287678,0.023173019610819523
183,98529.643337,76.0,120,0.0,0.09225901445215662,0.5485347316263457,0.6326085279742961,0.0,-0.0024135312022461886,0.031130194411540302,0.013502570425030669,0.0,-0.5784936001003035,0.5002954267222426,0.0999590756516805,-2.8792903112166323e-06,-0.012917433113279687,0.028294444323876594,0.011419593230949897,-3.948635648430978e-05,-0.06625847053278046,-0.03371991231897966,-0.014789513326107827,3.6607066173093145e-05,0.053341037419500775,0.062014356642856254,0.026209106557057722
184,98529.675572,78.0,120,0.0,0.09185823564104811,0.5497813189505212,0.6330939944871334,0.0,-0.023671927646535362,0.04233049350455431,0.015095608518484127,0.0,-0.6328333884920709,0.2265634594925211,0.005796929244802268,-2.8904095444187996e-06,-0.030472260797955696,0.034515244917549495,0.01175179632606023,-4.05254711286356e-05,-0.06797050247838975,-0.03457903173106744,-0.01516287419333735,3.76350615842168e-05,0.03749824168043405,0.06909427664861693,0.02691467051939758
185,98529.708262,79.0,120,0.0,0.09071181497472584,0.5512863917731183,0.6335886427790378,0.0,-0.043475817730286304,0.045729036825019165,0.013838959340761292,0.0,-0.3739796073455057,0.07589234856755966,-0.023573930859913828,-2.886885410113995e-06,-0.0437184887165719,0.035730171599173195,0.010453501219672454,-4.104502845079738e-05,-0.06881651010930814,-0.035006723412026784,-0.015346974696705134,3.8158143040683386e-05,0.025098021392736244,0.07073689501119998,0.025800475916377588
186,98529.740121,78.0,120,0.0,0.08906570886769344,0.5527335940665354,0.6339894063496951,0.0,-0.048192340182561466,0.047275328797445226,0.013549539199102512,0.0,0.1573437061763544,0.10615503289599049,0.04104109981111426,-2.868134106480461e-06,-0.04215792385329217,0.03727739640548195,0.010870149554584551,-4.052547112863424e-05,-0.06793198825976679,-0.03456411503476298,-0.015150302912252618,3.765733702215378e-05,0.025774064406474617,0.07184151144024492,0.02602045246683717
187,98529.772783,79.0,120,0.0,0.0876080500300602,0.554339651971368,0.6344644504566482,0.0,-0.03282721150373802,0.05267196888684467,0.01656848821982848,0.0,0.5123948039489009,0.10781215137058675,0.06530485086675952,-2.856434431416111e-06,-0.026301289437361427,0.04161645994492171,0.013529329754345228,-4.1045028450796085e-05,-0.06878059281302182,-0.03499750652585452,-0.015337006544725905,3.818859401937998e-05,0.04247930337566039,0.07661396647077623,0.028866336299071135
188,98529.805109,76.0,120,0.0,0.08692444431510575,0.5561543001407846,0.6350648059669726,0.0,-0.014920883107198746,0.054320209128793095,0.017811705196670857,0.0,0.4017228358574461,-0.1820880219794283,-0.06984582458646399,-2.870206708482186e-06,-0.013089450828603754,0.04003324624390751,0.013171589820087651,-3.948635648431003e-05,-0.06612662430468097,-0.033632139567105826,-0.014734437931968934,3.6616149775827845e-05,0.05303717347607721,0.07366538581101334,0.027906027752056584
189,98529.83777,77.0,120,0.0,0.08664257987520702,0.557868536605395,0.6356214677670473,0.0,-0.006822956514819012,0.0406816444583491,0.011956477566092971,0.0,0.16563216521984958,-0.5413331588665036,-0.22803055889768664,-2.890480243610225e-06,-0.00898395211967622,0.025525140056550814,0.006904194606116006,-4.0005913806471946e-05,-0.06694999978880876,-0.03403034147764823,-0.014904803187289633,3.711543356286172e-05,0.05796604766913255,0.059555481534199047,0.02180899779340564
190,98529.869959,82.0,120,0.0,0.08648028206174856,0.5588035673252401,0.6358449511034389,0.0,-0.0041025012231392655,0.01933073307087696,0.003069618229721627,0.0,0.12381194132036143,-0.5630153478750872,-0.2224150113236039,-2.8925438618357276e-06,-0.007226535679347619,0.008227700068675663,-0.00014916153150865662,-4.260370041728315e-05,-0.07127139855750497,-0.03621556408693091,-0.01586008481170239,3.9711156555447425e-05,0.06404486287815736,0.04444326415560658,0.01571092328019373
191,98529.902581,82.0,120,0.0,0.0863775117702904,0.5591129088681267,0.6358170360170284,0.0,0.0012356792023984209,0.004279485956534046,-0.002411672019487554,0.0,0.11815170492527999,-0.4072254252140325,-0.13212134401622017,-2.88713400714283e-06,-0.003010025179107399,-0.0022538599984103205,-0.0036308611044146948,-4.260370041728245e-05,-0.07126501261080555,-0.036210105646512586,-0.01585783021161569,3.971656641013961e-05,0.06825498743169815,0.03395624564810226,0.012226969107200995
192,98529.93493,82.0,120,0.0,0.08655818063081286,0.5590844388231696,0.635689108359216,0.0,0.0035986644885290797,-0.007156556518015833,-0.005533958626971369,0.0,0.021760328624977416,-0.29753344261108466,-0.05849558788403134,-2.8862553273441915e-06,-0.0020851697688614593,-0.010305951757156488,-0.005392491157774269,-4.2603700417283985e-05,-0.07126397547227087,-0.03620743821045997,-0.01585752387608256,3.971744508993979e-05,0.06917880570340941,0.025901486453303483,0.01046503271830829
193,98529.967333,80.0,120,0.0,0.08661031779099292,0.5586488290965606,0.6354585304160105,0.0,0.002639160459343204,-0.014980347842888264,-0.006195268392247044,0.0,0.07752253836603212,-0.006440323986898561,0.08317036340358122,-2.8741473234407426e-06,-0.0022891804257514324,-0.013651157130100271,-0.004504081085970456,-4.15645857729585e-05,-0.06953964978632048,-0.03533769123220038,-0.015478313336286704,3.869043844951775e-05,0.06725046936056904,0.02168653410210011,0.010974232250316247
194,98529.9999,81.0,120,0.0,0.08672998562613157,0.5581106602621118,0.635286904517745,0.0,0.008670532725280955,-0.007497705236417573,-9.632013899540937e-05,0.0,0.2283130838624804,0.3900180192922661,0.24133015060240082,-2.855480743923087e-06,0.004054546154245176,-0.00369542264966173,0.0019580435746010785,-4.208414309512016e-05,-0.07042371913025448,-0.03579317025744552,-0.015679141342927166,3.922866235119707e-05,0.07447826528449966,0.03209774760778379,0.017637184917528245
195,98530.033197,80.0,120,0.0,0.08718876969940685,0.5581683277664216,0.6354598245175164,0.0,0.01774042562380007,0.010944395814625807,0.009779507344941152,0.0,0.098645052761619,0.4586116625271101,0.22381818044631874,-2.8575705144006283e-06,0.010010292914004801,0.01174348261147257,0.009683366938805796,-4.156458577295783e-05,-0.06954203052313199,-0.035334988057898545,-0.015477092130874606,3.87070152585572e-05,0.0795523234371368,0.04707847066937111,0.025160459069680403
196,98530.064368,81.0,120,0.0,0.08785736725431459,0.5587783026359582,0.635898491633056,0.0,0.015745175838880465,0.022460165714155877,0.01463237115019389,0.0,-0.1482238434373075,0.25669611762860545,0.08460254083023996,-2.8730047812579077e-06,0.005934326368970182,0.018933094198874487,0.012172392112870896,-4.208414309512036e-05,-0.07037621792403977,-0.035735652229323754,-0.015649136593193995,3.921113831386245e-05,0.07631054429300994,0.054668746428198245,0.027821528706064892
197,98530.097048,79.0,120,0.0,0.0881764830406648,0.5596113695829792,0.6363958453274714,0.0,0.008015875105266135,0.02698620690292053,0.014961743995751675,0.0,-0.2979068880765376,0.021290403666142654,-0.042262085147264095,-2.886336496991539e-06,-0.0017538457800881746,0.020197002035509705,0.011166410500329012,-4.1045028450797874e-05,-0.06860392466147201,-0.034815924028349404,-0.015242629068234825,3.8158691953806336e-05,0.06685007888138383,0.05501292606385911,0.026409039568563837
198,98530.130455,80.0,120,0.0,0.08838454107492305,0.5605639373564468,0.6368868903427878,0.0,-0.004032853789091906,0.023694872493692287,0.011762446683384553,0.0,-0.40788040866298714,-0.20407034010589475,-0.1376028378034062,-2.897878534033308e-06,-0.012498708370304281,0.015308161193224225,0.0076529184749972515,-4.156458577295814e-05,-0.06943608502268481,-0.03521856942330482,-0.015415141673466162,3.866670723892483e-05,0.05693737665238052,0.05052673061652904,0.023068060148463413
199,98530.161591,80.0,120,0.0,0.08796121116518288,0.5611618523044385,0.6371679128098137,0.0,-0.018102786046358066,0.01427799942992447,0.006264002509194455,0.0,-0.46617765604365435,-0.37966903860595824,-0.19527280471528133,-2.9058225801361914e-06,-0.02434167471747218,0.006016616070991966,0.0026769309859549753,-4.156458577295862e-05,-0.06942408504138453,-0.0352102715728442,-0.015409498158450725,3.8658763192822424e-05,0.04508241032391235,0.04122688764383616,0.0180864291444057
200,98530.195475,81.0,120,0.0,0.08718163648080277,0.5614640286956627,0.6372783280124383,0.0,-0.03442573632131585,-0.0014343711180071494,-0.0010413775456630248,0.0,-0.5934171895792459,-0.6692285216450691,-0.29697297623610575,-2.91987233009191e-06,-0.0386810236069435,-0.00945357728745742,-0.004185555509172352,-4.2084143095120916e-05,-0.07029691736657781,-0.03566235027620764,-0.015606719703891464,3.9164270765029e-05,0.03161589375963431,0.026208772988750222,0.011421164194719112
201,98530.226544,80.0,120,0.0,0.08578677250012913,0.5611245482281366,0.6371234756080403,0.0,-0.05604433517082574,-0.028081398039962124,-0.01258618186991356,0.0,-0.6453618542436317,-0.8893046416905338,-0.38674916238081586,-2.9288477424948015e-06,-0.05650117598168077,-0.032976419915747866,-0.01432017776757099,-4.156458577295873e-05,-0.06946646989499236,-0.035271769078720115,-0.015437413665584628,3.8635738030463924e-05,0.012965293913311589,0.002295349162972249,0.0011172358980136386
202,98530.259413,80.0,120,0.0,0.08355697600495941,0.559605014253896,0.6364454326127444,0.0,-0.07550195131694659,-0.058411905739037095,-0.025825514284955275,0.0,-0.423131816452327,-0.7292894467178281,-0.3123296674734387,-2.915299418416226e-06,-0.06983690531111361,-0.05564024177511922,-0.02416701203856048,-4.1564585772959066e-05,-0.06955795993988571,-0.03538302625879898,-0.015491964617580681,3.864928635454284e-05,-0.0002789453712278983,-0.02025721551632024,-0.008675047420979798
203,98530.291501,80.0,120,0.0,0.08089421974382502,0.5573490881357522,0.635453948743699,0.0,-0.08379030787095054,-0.07575247785899286,-0.033013801727294734,0.0,-0.11637691709289366,-0.36316617856747224,-0.1385384713350804,-2.8920814103821905e-06,-0.0733866449414184,-0.06584929808085065,-0.02817873040689311,-4.1564585772959554e-05,-0.06968044722561197,-0.035529341467439336,-0.015564312051922814,3.867250436257736e-05,-0.0037061977158064363,-0.03031995661341131,-0.012614418354970295
204,98530.323769,79.0,120,0.0,0.07816427548139653,0.5547279209640767,0.6343200328886969,0.0,-0.08294026828405121,-0.08171984274825306,-0.03471043722715805,0.0,0.1909918511087747,0.023866737931806714,0.03367817613467522,-2.86875951147802e-06,-0.06961949975147595,-0.06675094865746242,-0.027812905440740367,-4.1045028450796295e-05,-0.06894176691039672,-0.03524192200920208,-0.01544753243470331,3.817626893931827e-05,-0.0006777328410792344,-0.031509026648260344,-0.012365373006037057
205,98530.355917,79.0,120,0.0,0.0755511412970969,0.5520851398108122,0.6332179381800065,0.0,-0.07152681901057356,-0.07426509643025625,-0.030865051683234057,0.0,0.5342776660467243,0.43972776644024303,0.20874805431538906,-2.8440348486612706e-06,-0.05704063697743309,-0.05662575006920045,-0.02298470354354991,-4.104502845079642e-05,-0.06907078999897134,-0.03539450955519033,-0.015523152742767282,3.8200993602135146e-05,0.012030153021538252,-0.021231240514010125,-0.007461550800782627
206,98530.388691,79.0,120,0.0,0.07353294690074515,0.5499165220735643,0.6323205315552053,0.0,-0.04802728841227033,-0.0529090882163068,-0.02104541504819224,0.0,0.6868628274385029,0.6062514266395724,0.28765821901596145,-2.8342179982829134e-06,-0.03670969333016065,-0.03787653587552374,-0.014339743588155776,-7.332633431672338e-05,-0.06886128066932323,-0.03520335708814698,-0.015271081609306746,7.049211631844046e-05,0.03215158733916258,-0.0026731787873767593,0.0009313380211509702
